/* XPM */
static char *b5d2b0fa55094791fdeae76204e7ccdbo9R2BmoDUnMwtu0F[] = {
/* columns rows colors chars-per-pixel */
"600 360 240 2 ",
"   c #030101",
".  c #0B0202",
"X  c #050805",
"o  c #0C0906",
"O  c #050409",
"+  c #0B0609",
"@  c #06090A",
"#  c #0D0A0A",
"$  c #110503",
"%  c #190603",
"&  c #130905",
"*  c #190C05",
"=  c #110708",
"-  c #140C0A",
";  c #1A0D0B",
":  c #1A070A",
">  c #0E100B",
",  c #151106",
"<  c #1B1206",
"1  c #15110D",
"2  c #1B120D",
"3  c #1D190D",
"4  c #1B1A07",
"5  c #0D0D11",
"6  c #050712",
"7  c #130E11",
"8  c #190F10",
"9  c #110515",
"0  c #0D1113",
"q  c #0B121A",
"w  c #151312",
"e  c #1C1412",
"r  c #161914",
"t  c #1D1915",
"y  c #15161A",
"u  c #1B1619",
"i  c #1D1B1A",
"p  c #171A1C",
"a  c #210D04",
"s  c #210D09",
"d  c #21140D",
"f  c #23190E",
"g  c #271708",
"h  c #211613",
"j  c #231A15",
"k  c #2A1C15",
"l  c #201718",
"z  c #231C1A",
"x  c #291E1B",
"c  c #361F0C",
"v  c #1E211B",
"b  c #29220C",
"n  c #242115",
"m  c #2B2115",
"M  c #25211D",
"N  c #2B221D",
"B  c #2D291D",
"V  c #332415",
"C  c #31241D",
"Z  c #332A1E",
"A  c #382818",
"S  c #373014",
"D  c #1B1B24",
"F  c #221F21",
"G  c #281F22",
"H  c #1C2327",
"J  c #1D313A",
"K  c #252322",
"L  c #2B2523",
"P  c #2C2925",
"I  c #25242A",
"U  c #2B2629",
"Y  c #26292B",
"T  c #2D2B2A",
"R  c #262925",
"E  c #312623",
"W  c #332A25",
"Q  c #392C24",
"!  c #332D2B",
"~  c #392E2B",
"^  c #302728",
"/  c #2E312D",
"(  c #353126",
")  c #3B3225",
"_  c #35312D",
"`  c #3B322D",
"'  c #3D392D",
"]  c #272A34",
"[  c #312E30",
"{  c #3A2F31",
"}  c #2C3135",
"|  c #353332",
" . c #3B3533",
".. c #353933",
"X. c #3C3935",
"o. c #37363A",
"O. c #3B363A",
"+. c #3C3B3B",
"@. c #36393B",
"#. c #412B19",
"$. c #44340F",
"%. c #42352D",
"&. c #453A2A",
"*. c #423632",
"=. c #433B34",
"-. c #4A3D34",
";. c #433D3B",
":. c #493E3B",
">. c #412F21",
",. c #3D413D",
"<. c #4A432A",
"1. c #56492C",
"2. c #4B4236",
"3. c #44413D",
"4. c #4A423D",
"5. c #4C473A",
"6. c #51453D",
"7. c #534A3C",
"8. c #5A533C",
"9. c #635A38",
"0. c #65613E",
"q. c #704C00",
"w. c #3D3E41",
"e. c #383B48",
"r. c #28374A",
"t. c #453E44",
"y. c #3E4346",
"u. c #454342",
"i. c #4B4543",
"p. c #4C4A45",
"a. c #4D4B4A",
"s. c #46474A",
"d. c #514643",
"f. c #524B44",
"g. c #5A4D45",
"h. c #534D4A",
"j. c #594E4A",
"k. c #504748",
"l. c #4E514D",
"z. c #54514D",
"x. c #5B534C",
"c. c #595347",
"v. c #4B4C53",
"b. c #544F51",
"n. c #555352",
"m. c #5B5553",
"M. c #5C5956",
"N. c #5C5B5B",
"B. c #555859",
"V. c #4D5556",
"C. c #62564D",
"Z. c #655A49",
"A. c #635A54",
"S. c #635D5A",
"D. c #655A56",
"F. c #5E615D",
"G. c #64615E",
"H. c #6B635C",
"J. c #676357",
"K. c #75675D",
"L. c #726B50",
"P. c #595B64",
"I. c #4A5E67",
"U. c #615F60",
"Y. c #5D6366",
"T. c #646363",
"R. c #6B6563",
"E. c #6D6966",
"W. c #6C6B6B",
"Q. c #666767",
"!. c #726A65",
"~. c #726D6C",
"^. c #726866",
"/. c #73726D",
"(. c #7A736B",
"). c #767164",
"_. c #6A6B71",
"`. c #6D7274",
"'. c #747373",
"]. c #7B7573",
"[. c #7C7975",
"{. c #7C7B7B",
"}. c #76787A",
"|. c #736E72",
" X c #A77F00",
".X c #847A6C",
"XX c #837B75",
"oX c #827D7A",
"OX c #877C77",
"+X c #D4A700",
"@X c #E8B406",
"#X c #F9C309",
"$X c #84817D",
"%X c #8C877D",
"&X c #90867E",
"*X c #8E8871",
"=X c #A69479",
"-X c #7B7C82",
";X c #677580",
":X c #827D81",
">X c #7A8287",
",X c #7D8199",
"<X c #7F97A3",
"1X c #838384",
"2X c #8D8C8B",
"3X c #898886",
"4X c #948D88",
"5X c #93918D",
"6X c #99948A",
"7X c #8A8A93",
"8X c #959493",
"9X c #999594",
"0X c #9B9996",
"qX c #9B9B9C",
"wX c #9B969A",
"eX c #8E9194",
"rX c #A59A8E",
"tX c #A29C98",
"yX c #A8A29B",
"uX c #B0A89B",
"iX c #A8A7A5",
"pX c #B2AFAD",
"aX c #A8AAB6",
"sX c #B9B9B7",
"dX c #B5B4AE",
"fX c #9D9CA8",
"gX c #C2BDBB",
"hX c #C6B6A9",
"jX c #C4C1BB",
"kX c #BBBCC2",
"lX c #AEAFC1",
"zX c #B3C2CC",
"xX c #CCCBD2",
"cX c #D6D6D7",
"vX c #CFCDCB",
"bX c #E6DDD8",
"nX c #D9E5EA",
"mX c #F9F7F5",
"MX c #EEECE9",
"NX c #DBDEDE",
/* pixels */
"                                                O   X . e     @                   X           X   X X                                                                     w w                     -     X   X         X                   X # #                                 .               3 M                     X X         @     X   O X     X     #             X X   . . . . . . .   o . X                 X     t u.  . .     . .   ;.i     X     .         . .   .   E.T.  #     - .         o - 2 X .     X #   X .                       X X   X .   o . .   .       . o o .                         o       .     .     . . . o   _ L . o   . L 4Xo .       . .   o . . ; -     o .     . . . . o . . . . . # - O         o . .     . .     o .             o - #                 X X     X X                   X   w ,.  X             - -               @           @ o.    O   X # X                                 # ,.>   X # X                 X     #                                                                           X     X #               X     X X     # r #                                                                                                                                             ",
"                                                O   X . 3X3.X                           +       # - X                                                               X   X t t o                 . X . X X | u.                                X                           X     - w         @   5.u.-         X   X w #   # X   X #                   X   # i w     X .         . . . . . . .       . .         X     X X     #   o o .   . .   w .     . . . .         o o o e   T R     X   X . o o . .   . . .   X #     #                       X X         .   .   .       .     . .     .                 .     X .     .               =   t -   o .   w (       -       . . . $ - .   X . . . . . . . . . . . . .   . X X   i 1 . o     .   X o . . .         X       .                   X X   X X X   X                   X w     X   X X #           . - o X     #       + K u.        X +                                     #                               p H                                                                               X i @                 # w 0 X     X                                                                                                     X X                                         ",
"                                              X   #   X _ _     . - X   X       X #               X                                                                       X #                   .     -   R u.    X . # z   X                                       X   X 1 o   z T - X     #     #     X       X   #   X               & m   . X X   X     - X     X . .       . . .     . .       . . .               X # X     . o .                   . .     X . . o     2 X         X           o & o . . o o   #     #                 . #         . o   .       #       . .         . o                     .     .                   o   .     . .   .         .   . . - . . . . . M u.  . . . .   . . . . . . .         o i.L .     #     X o     .                     - #         X                                     X   -                 + X   B M.t   # X   X         7                                                                                 i p                                                                               X 1 X                 # r #                                                                                                         @                                               ",
"                                              X @         X .   &             X                                                                                 X                                     X     #   .     o N     X                                           X .   X -         #     @   X +         X X X     X   #       N C.& .             X         . = - .     . .     . o X .               - o       X X     . .       . .   X o     . .     . . o -   . 1 -     X         # o o o . .   .     -   }.r                     -     o   o 1 X         X           . X X .   .                   - o   o - -           o .   .     .     . .   . . . .   8 e . X   o - o   e !     . .       . . . . . .       .   z -   X .         X                       . X r #         - #             X       X             X # z X     O @   #       @ 1 P       X X X             #                               X           X   @                               X                                                                                                     X X           X X X                                                   @ w #                                   #     # X                                       ",
"                                                    X   w     z M     X         R i               X     X                                                             X                           -     +           o P p.-                                                   =               X             X # X   # 1X1         @   X   , .               X   X     . & - o     . X .     X o     . . .     . o . . o .                 X o .             . .   .   . .   .   . . 8 .     X       . = .     . o     # i +.i         . X X       . e j o   .                       . o X                             . -   . o       . - =       . o X   o - . +   . .   N 2       . - & .     .         . .   . . . . .   . X .     .   - -   X     .     . X o o X             #     X     w # X           X       X X       X     X #     X   X     w 5           # X             # X   X X                           X X X       X   O       X                   X       X                                                                               X                                                                                         @ w #                                       p K #                                       ",
"                                                  #           L P   X X   X     ..P X             X           #                                                                                 X               .       e   .                                   X   X X .   . w e   # X   X   X + + # X X       X   # 2X_ #     + O   X   .   @   X         X       . . . . .     o # .             . o & o . o         X     o             .           .   . . 2 &   .     -   . - l   o   .   R 1   . $ o .     w X     u.i         o = X       . w w .       .   . #               . .                       . -     X             . - - .   .   .     - 1     . .   & z   o   .         X # .         . .   . . . . . . X o   #   -   . o   .             . . . . X                 X     # X     X                 . .                 X         # n...w                 #             X X                           X X X X     X       o                                                                                                     # - X     X                                                                                                                                     # y X           X X                         ",
"                                                X   X     # X             y       X   X X                     #                                   X X           X   X                         X X     X                                                                       X X             X .   .             #   X X # #     . o   . .   w   X         X X     . . . . . . . . .           .   . o o . o & - .           X   . X                 . . .   . 2 & . - . e ! # . - ;   o . .   W.;.- . . .     .     X X X         X = o       o .       . X   & o 1 j   . X                                   - R - . o   o     .   . # o . . .         o o   . - . . o - . .   X .   .                   . . . . . . .   . X   X     o . . &       # X       . o .                   X               X             . . # X       X       .   . X     i #     #   X #   # a./   X 7     # X   +                                           e &       7 7                                                                                           1 w X                                                                                                                                                           X X                         ",
"                                                    O       X     w y   0 K     X #                                                             # # # X                                       X X                   X X       X               X                 # X #     X                     . . & . & . .   X         X X   $ Q $ . 2 . .   # w X       X X X     . $ & = .           X     - X   . . . = 1       .       .   # w #                   . . . o     o   - T   . . o .   . o . 1 o . & & .       -   X     X       o = .     X   .             & o t N   . X                         . .       X w     o     #   .     . . . o .   . o       X o .   & . . l         X z z o               . X . . . .             #   o . < %.    # e 1 X     1 ; -         .             X .         X X X     . .   . - o   X       #     # - -   X   o   & - e     X X 3.1     X   +     X # X               X               X     X X W         i i                     X                                                                 X     .                                                                                                                                                                                         ",
"                                                        O   O     # i X   X     @ -Xo.    #   o                           o - -     X X         X # 7               X       o                 X -   . o     +                     X           X                 . .                     #   X       . o # X     . o i -   .   X . 1 o   w w     O     X     o e o   o & . & 2 o . . o   . .   .   - #   .   . .   X       .     . P 6X    X             .     . & o o o . . . o =   .   o . .   X     .   . X     X X   n.K         X #     -     -   X X               X .         . . . .         o ; -               X     M w     . . . . -   .   ; - .   X . .   . o o . .   . . o e e o             . # -   . X X   #             5 2Xu - . &   e . o   ; 2 . -     X .                       X X X X     X           .   o           X w # X       .                         X         ..pX- X X                                   X X   X X                                                                   X                             X                                                                           X                                                                                                               ",
"                            X #                                 X   #         @   I r                             O     o e 1 o X         X #                       o X   o - o               X o - X         X                   X     X       .                                   + X   X             .       . . w o   .       o     X X   X             & e - . = &   . &     o .   . . . o o -     X o .   o         . .   .   & o o     o   X     . = .   . . . . . . o = $   L 2           X . . = .   X X - -   T #   X X       X           #   . -     # # X   X .         . . . .         . o o .       X X   .         - .   -       1 t -     - #   . . . . . . . .   .     o #                 X o -     #     o . .       Y Q.X   o o       o o o .             .                       X X               a.R #   .             #           .                             X # # +.p.  #                               X           M w X                                                         O @                                 X #     # y 0                                 X                                                                 X                                                                             ",
"                              X           X         #   O                           #   X #   X                         .           X     K P X                     X     X - o                   #     i e                           X X     X                                       X r   #                       o .   X       X     .     .               o o   . .     .     - . . & . . .   . . . o .   .     # o   o -     -       ! w     X     . = . . . . . . . . . o & . O.z   . . .   . . . . . . . . - .         X   r #   X     - #     # o     X - - o . .           . . . .     .   . . = & X   .     -     1         . X   # X R.L o o o     # . . . . . . . .   X                           .   X X X P #   , -     #     o       .       o . & =.-   X #   o                                   X X   a.e     .                                                             #     w       X                         X     X # a.T #                                               X           X     # X                           X     # r y                                 X X                               #                               X                                                                             ",
"                              X                 #                         X         X     X                           X   . o       X X   - w   X                                                 X     M i                                 X w X       X                             X #   X   .                   .     . .           .   . 2 +                           .     X     .   = .   X 8 - .     . #     X     o .     .   X {.-       . o = . . & . . . . . . . . .   u o         X   . . . - u .           . .   # _ K             m.- .     o   # # .   .     .     . . . .       . . o - - o     w       o       # . . X   X Y ;.o . o &   .   . . . . . . . .   . X             . . .         X o   | T.    rXN.  X o   1     o   .       o - 1 -   X     . .                                         #     o .                   X                               X     X       X X   X                                   X w K #     X                                       X         X   O     X # X     X                     X       @                                                                   w p #                                                                                                           ",
"                            X # X # - X               X       #                       w                             #     _ +.  X     1 X                     X                                   X     X     .                             X t # X           X                     X     M.#                       . .     X   X         . - N .                               @...# X .   . . # o - .   o .   M.w   X o     .   o   # o   o   . . o - ; .   o     .   . . . . .       &       .   . . . - - - o     . . o -     # X   X z e   i iX!   . o       .           .     . . . .         . . . o .   #       X #   - .   o o .     # -   o       o . o o . . . o . .   o # X .           . . .         X   - 1   & H.. u.tX      o X           . .   . . 1 X X # .   .                                     #     X   . .               X X         X               X X         X + X X           X                   X             #                   X @ X                             # #         X     X                             @ X                           X # # X                                       w i #                             . X                                                                           ",
"                              X   X # X       X X X                   7 #       X   # u.w   X                       # X   K |       X X X X X X                         X                                   X                                 # X     X o                       X       # M.p @                       X     .         X .   o -                   X X         . e w         . .     o . . - . . b.M     X o o . X     i l   X - . o o = ; - . . . o = . . . . . $ -   . u   . X   o .   -     X X   X   . . -   X       . # o     K     -     -         .           . . . .                       M X.      X     - o   o   i sXT     . o     # o . . . . o . . . # o                           o X   X   X X     ..X.o o         X       .       X.X.  w i   . .                                 X X           .       X                   X X X             X                       X     X                                   X X X         X                                   X i w       y i @                                 X X                           X # # X                                         @                             t t -                                                                           ",
"                                              X T.;.    X X #       X i H X   X X   X | 7                       .   X X     X     # X       X X                         X                               X @                       X                 . - w X                       X   X X   X                         X     o       . # X                         . . . . . . o         X     . #   o = . =   X           - 2 o   7   S.l #   -   . . . o & - 2 o - - o . . . . . o . . -         . .   X w >           .   . o       X       o o   X - X . .     X .   .           . . . .                 . X   pX5X  X     . X   . . o   w {.w     . 2 N .   o . . . . . . .   o .                                         o #   o     o   # . o X   #     e o - , X     . o .                               X #     .     - o     X +                   X X X                     X X           X X                                               X X X                                                 p o.p X                                                                                           #                                                 t e o                                                                           ",
"X X X                                           u.;.  #     - #       + #         +                             .       X               X   X _         X # #           O                         X X         O                   X             X     X X                       X         X     X                     X X   =   o .         X               .     . .   .     .     .       X r 3.# . . $ =             o     . . .   X     -   . . . . . . h =.  o - .   . . . o   o   . . o   .   =     p.B.  X o     o . . .   X           . X .       o   o . o X . .     .     . . . .             . .       M.r X     . . .   o .   . X       o . - M . X . . . .     . .   . .   . .     . .                     #         o   . = .     .   X i u.#   . . .   X     o                                   ..i X . . .     o   . # #             X X                         X             X X           +                 X # X           X X             w # X           X                             @       X                             X X                                                     X w                 # X   X                       X           X                                                                     ",
"    # @.0 X                                             X X X                         #         O           X       X     #         X   o   * $           X X       .       X X   X X X     X   - #       X     X     .                             X     X   X                       X X   X                     .     X     . .     .     .                   o       o             X     4 ) +.    ; & . .   .   . .     .   -       . .   . . .   . .   . . . . =   = h . .                 . .     - w - .       = o .     .       X     1                   . . o -   . o o             X .     .   . X   X       .             . .   . o .   . - - . . o .   .   . = . . . . . .       . .   .     o .   , N   .   . . . +       . o o . X X    .t.    o $ & .   X     .     .             X             w X       .   o . X   w                 X     .                                 ..# X # }                     X k 2 o                           n.P O     X                                                                         p T                                                                       X #   X   X   X                                                                                                   ",
"      i                                           X     o z t           X X     X                               t.O.    X   X #   # 1 i   . 1 L                                 u.L             .                   - o       o                     X                   X + X   5 {.i                                         .       .     .                     . . o         o   o     . o f #   . - $ = - . . . . .           # # o o     . . .   . . . . . =   . . l L . .                 . .     . o X       o   .   X     w z -     | ].                  . -       . o - o X . .           . .     .   .   . .     X     X o   - !     o . . & = . . o     X     . . .             # w o o   o X   .   5.4.- o   . & - + .       o - w   X   . o   .   d & .         . - .           X # o   X .     X     X     .   o   X   #                                             X       X X # X   T.W.  X                 X & o                             i                                                                                 i '.@.                                              X                             X   X                       X                                                                               ",
"                                    X         X         X o - o w #                     #             X         v.T.+ 1 X         . t X.- X                                     ..i X # #       .     X #     X X   .     X   - - .           X             X X         X # +   w {.i #   X X                 .   . # #     . . .           .   .                 o .   w . o - - . -     1   o     = = . = o   . . . . .       2 t     . . o . . . . . . - = . o . . . ; j - l   .             . . .                   .         - 1 # .   1 R . . .   . . .           o - 2 o o . . .       .               .   . - &   . o   X     o X o . . o o . . .   . . o - e - o o . o .           # w o . .   X X X #   .     o o 2 2           o - e o   -     o . X . . . . X # # .       X #           o M M .       . 1 o       X       X     X             X X                           X X X     #   w #                                                             X X     @                                                                   X K       #                                                                     X                             X                                                                               ",
"                            X #               X               . i #                 + X         X           X     7       X   # -   . o     X                                       X t t       -     X w X X       .   X     l 1 X       X       X   X                   + X     O   X                     X X . . - 1     .   .   . .                   . X o         e o . & & . #   X w . . o . . . = .     . . .   .     X ' n o o X       . . o . . & o . . . o   . . - ! . . . . . . . .   . .         . X     X   o             X .     . . . . . . . .   .   o o   o .               .   .     # X   . . .       . . .   X X       o   . o o .   . . . . o w -       . . . . .     . & f x.o   -   i M   . o o o   , <     . .   . o & -   # #   .   o . j 1         .     X X       .     . t e . . . o - t -               1 .               X - #                       X X # #                                                                       X X                                             X X     X X                   X       X   X                                                                             X   X                                                                                                 ",
"        #                   X #                   X       # X   X                   # e               .         #   X X       X     1 X X   #                                         X X   X   #       - X     K z -     #     X       X X     # #       1 X.p.                O   X   # #   X             X o     X X     X     . # #                   . X o       -   o . . . .     . X o . - o   . & .   X   . .     . . # f.    .   . . o . . = .   .   o .   . . o .   - . . . . . . . .     . . .           #         .   .       . o - . . . . . . . .     X           . X X .           o # w l w       o   o N 2   =   a.W.  . -       . . .   . .       .         X     . o . . . o * h 1 z     3.i     X       & &     . . X . . . .   .     . X   L P .   P P X   X     # - o . . . .         . o . o -               . M 2               X # #                     X w w X     X X   #       X X                                                         0                                         X X     X X                       # O   X                                           @                                 X                                 X       - 1       X                                 X                 ",
"        X                                                 X X                 X O     - .   X @ . - t e X       o           i X . - - X                         X               X X         X                   u.+.- w - u.w               o w   X         # -                   O                           . o o .       X     . w w o       .                 X         . . . .         = . . = o . .         o .   X . . - (.1 . .   -     . . $ . . . . . . .   . - o . . . . . . . . . . . . . X o .       # ..  X   -     .     X o     . . o . . . . .     ! -   w   . . X X .         . . . - w -       o . e ` z   .   a.T.  X     .   . . . . . . . o   .     .   . o . . . o . . o .   N e . -   , + . #   -       X       . . . .   .       X #   w 1   X u...X # ~.P   X #     .   .   X X                 X         . N 2                 X X                     X - # X   X # w   # X X                                                             i ..# X                                                                             #   X                                     w r @                           X       X                                     # 1       X                                                   ",
"                                                      X       X             X o Y #     2     @ & 1 t e X         e X       i             #   X               X o                     X           X X             X       M # o X X         # t                                       #     .                   - - o               # - X                           # t .       . . .   . - = .   o & .     .   . & .   - #   # -         .   o . . . . $ e . .   o   . - o . & . . . . . . . . . . . X X .   X X - |   X   X     .     .     . . . . . . . . .   # p.K       .   .       . .   X     .       .         o .   = #       X   -   . . . . . . . . o               - = . o o . . . . -   o o   , j   .       o . X X         . . .       . o     .   X     X     i +.X     X         X         X   X       X o           2 &                                                 X X X   i X     u.T.                                                        y }                                                                               #                                           # w X                                 T ..r                       X X           X X                                     X #                 ",
"                X                                         O X             X X X w   . . g.t X   .           X   2 t               X     +                     X - X             X X     O         X       #     X   . .     X .         X X             # w                               X                       - o   X X   X .           .                   @   | iX  o X   . . &   . z & . .     .   . . . o - .   w -       # #     o . . $ . $ . ; L - .   o   . - & .   . . . . . . . .               X     X     X   o         .     .   . . .               +     -   . .       . .       o w o   .       X X     . . o   - X   o   . . . . . .   . . .   . X # # X X = . . = & $ .   . 1   . - . &   X t t X   .   X .         . . . . o -     X   - O O       X O   .   X o     X                   X     X - -           o . . X                                                   o   .   # 2Xn.                                                    X     w                                                                                                                       X                                       X p.X.                  X   X t t X   X X     # #                                 # i P                 ",
"                                                      X       X           X X         - T K   X                 X X X X                                         w #                                 O       X   . . .   #     X   X ..X     X   X   X     X   X             X   X   X                           . = & .   . . .             . . . . o X .       . = - L   X   . . . . .         . . . . . . .   . . . . . & -   .   - ; .   =   . . = o o o .       X     -     . . . .   . . .                 .                                                     o . . . .     . .   . .         . .       X   X     -   o                         o   X   . .   X X . = - u . . - . . o .     X   X       . o o .                 . X .   . . .     X   X   #     X     o .   X       X   .             .         X .       #     o                             X       X                                       X             ..X.  X     & M 1   X                       X               X                                 #     #                                     X       #     i t                                                                     # # X                                                 # y w                 ",
"                                  + # #                                         X                                             X                             X X w #                             # X     @     . w   X     - #     1 W.i   #   # X X       X       X X                                             o & o . . o .             . . . . . .     . X G =       X .   . . . . . . . . . . . . . . . . . . o o   o - o . . o   .   . . . . o o . . .     o . . o o   X . . . .   . . .         . o # # .             .                                 #       o   .       = .   .       . .               |  .o . o             . .       e o - R.. e . .         . o o   . = . . o . . -   #           . .           X             . . . .                     X             # X     .     X X X . .                 -     X     #                             X         X # X X                       X X         O   | NX3.  w X   o t -   X X   X                 - X         X 1 # X                             X X                                               @     X #   #                                                                       X                                                                         ",
"                                    # X                                             X     X X X                               X                               X - X                                   # +   . . X   . X o X   .   X     X   X   # i X -     X                                             X X     X o .   . X X               . . . .       X # l .         X . . . . . . . . . . . . .     . .     .       o o   o o   - . . .   . . .         o   X #         . . .   . . . .   . . . X # - -               .         . . .   . . . . . . . . .   o   z . .       o .   .           . o - o       +.;.    #   . .     . . . . . m (.o W j & - . .           . . . . . . . . .       X X X o     . .   . X .             . .   o .   .     X       N.N.X   X                 o .           o 2                 #     .     1   X                 X     X w 1       X X X X                           X w w X     P 3.  i N.# X   o .                           o X         X 1 # X                                                             X #       X     X         X X X X                                                                             X                                                                 ",
"                              X                   X X                               X     X                                                         X X         X                               -   X X     -   .   .   X   #   #   1     o   i.X t X #   X X             X X .       X                 . o X                                   .   .       X #   .   -       o     . . . . . . . . . .   . . o           .     . .   .   .   o                 X o .     . i . . .   . . . . . . . .     X X X               .         . . . . . . . . . . . .     o o G #   X X   .     o .   #     .       - . . w -         . . . . . . . .   2 2 . d * -   . .         . . & - & . .         # a.-     . = . . . X o o X .   & & . 1 L z   o   . X     O       '.Y #     #   . K ..X   .   . .       . - -                   X                 X X                 X r w                                         . R L #     #   X # w                                                   X X                                   # X                           X             X ! p.  >       w #                                                                                                                       X                     ",
"                              X # X             X X X X X   X # X                       X X   w #       X                                         X # # X                                 X # # i.# X   X   o o -   X     i U.    X         X e X X       z X           o - - X .     .     X             X .                                     . . .       .   .   o X X     . . . . . . . . o . . . . o o o       . - - X   . . . P . =   .                       -   e T.X . . .   . . . . . . .                                   . . . . . . . . . . . . . = .   -     X     o . . X           o . o L a.  .     o o     . . . . . . . . o   = . .                   . . 1 1 = .           X u.o     o =       . X .       & o   - N t   . . .           O 1Xi O       X   # P |     o   o     X w t -                           X           X X X                 X     X                                 X     # X     # # #   X   X         X                                                             X             0                                           # H.mXf.X     # @ # @                                                                                                                                             ",
"                                X                     X       # +                 X     X X X T e o     X                                         X X o X                                   X # P w     X #   -     X   X i N.#   o .           X       X z X X X       X # o       - .     .                                                     . . . .       X   .   e . X   . . . . . . . . .       . . . .       X w w o   .   o  .# -                     # X       X w   . . . . . . . . . . .                 . . .               . .                   . o     .     X   X u w .         .         - w     . .     X X . . . . . .     +   . - o - -   . .       . .   & o .     . .   - .     . o o           .       . . .     . .     .     . .       i # X     e   . 1 #         o   . X X # - o                   X         i !       X X X             X X                                         X X           Y R                                             X                                               @.u.#   #                       X       X   + i vXz.                                                                                  X X X                                                                     ",
"                                                            X X X                 X #         # w .   o #                 X                                                   . X   X X       -       +.w         X         X   .       .                                 X         T o     .                           X .             .       . . . X .           o   u . . . . . . . o = . .       . . . .     .   . - #     o     o       X               .     #     .   # . . . .   . . . . . . . . . .         . o o .                                       .   # o o .   X u w .               X - o   . . . .     # X     . .             . o &   o   . o .     X . . .   . - .   .   e u . - .       .     . .     . - o . o .     o   X     2 ,     # X     -         X X   # X . =   X # X     . o                     X     z  .                        X X     X                                     X X X       u     1 X   #                         # #                                                       r y                                           - X   # X X     O                                                                     X X X X                                                                     ",
"                                      X       X           # # X                 X   X X   X X         - w X                                                                   X X   X # X   # i |     iXw.O #         X   #   X .     X .   #     X     X   X                       3.1 .   .                         . . .           . .       . . o o .       w #     . .   . . .   . o = o .   . o o . . . o   o .   .     .   X X   X X           X .     .   m.K       .   . . . . .       . . . . . . X .       o & - .                                   # . #   X . 8 .     # .   .         . .     . - . . . . .                     .         o     # . .       . . . .   - t o       . . =   o .   X       .       X . . .   . .       #     M j         - .     . . .           - -   .       +                   X .     X     X X X                                                               @                 # X X   #                         X w w X                                                         X X                                                     +                                                                                                 X                                                 ",
"                                      X X       X   X       i X       X X                         X   1 t X                                                                   X o - &   -       X     X # X         X     1 #   o o   X         - .                                                 X     X       .   o .   o       X   #     . . . g.%.. . #   & #   X z , 2 W   . . . . . . . X . O.;.. o K   . . . . .                           w w .         P 1   #     X   . o   . . .           . X .           .                     .   X   .         k N &   .     = . .   & . o   . . . . .   . L   X   . X     X   . .   . .     . . . .       . .     . .   o o o . .   -     X 5Xz o   . . .   . o .                 o j f.. .           .             X X   o.Y       X X       .                           X               o t X     X X                                         X           X       X           X     #                                                           O     #     i   #                               X                                                   X                                         - #                                                               o 3 ,                       ",
"X                                                   X   #   X   X X         X X                 O +   . #                 X . .   X + X X X                                 X X   - L . t u.#         X X       X   X X X w # X # o .       X o - .     .                                       X         X       .   o o z ` o X               o   ; h . .     .   #   +.H.1 h . . o . . . . . .   w e   . -   . .                                           .     -   X .           . . .   . . .         .                   .     . . .   .     o   . X X   . &     .   . o . . .     . o = o e ;   . o     .   .     i z   X . . . .                 X . .     . .   . . .   o       # ..iX- . - & o   . o .       . . . .       - P               .           - .   w M.R X             # o X                 X     #                           # # X                                             X       @                 R p     +         X X X                                             X     # l.'.X   X     X                     X @                                     X # #                                                 . 1 #   # i r                                                         o X                       ",
"                                                X             X   X   X X         X X X       .       . - .     X         X X .                                               X .   t   w u.X           X     . X         X                     X                                                   .     X     .         - P     X   X X z -   X . . . o o # X .   X   . t   . . . . . . . . . .         . .   . . . - - .                     . .     # o     #         .       #   .     # | o             . .                       .       . & P . .         .     . . . . . o -   o . - o o - . . o 1 -       .     z K X X . . . .       . .       . .       .       . . . o   . 1 X   - - . =   .   o         . . o . o . -   . o     X         . .       o     -   w X       # -     X X .             -     o o     #                       # # X     o 1 1 X                                 # #                       8Xu.    # # X     X X X X                                                 # ,.P             X                   X X                         X X X         X                                                         # K K #           X X                                                                     ",
"  X X                                               O     +           # #         X X X X             X - o .   X         . . . X X                 . . .         .             o       X #   X               o e .                 i   # .                                     . . .             X w - .     . # . X -   o L e         o z -       - .       X . #   7     -   . . . . . . . . . . . . o . . o . . o w w #   .                       # i i - #   .   - . -   .   .   . o   o  .o     . .     o . .                         . o . . P   X     o X .   . . . o .     . . o   .     ;   = t -         . .   X # .             . . . .         .           . o o o   o - . - . # X   . o = ; e e .       . . .     . e . .         .       . .     o     h j   #       X e e o                         .     .     o .             X               # t t #                               X # #     . .           + ] eXH   #           X X X                   X w X X                       X   X   X       O                                                 X # X X                         X                   X               X     X # X                                                                                     ",
"X       X                                 X         X           X     X X   X                   X               X             .                   X # o .     .   .               X         X               . o i X .         .   - ! - X     .     .                           . . .             o u - o .   .             - t 1         X .     o   X   n.K           X #   - = . . . . . . . .   o - .     . .     . . . . o                   .     - w - w   -         -   .     . P o   o .     X X   . # . .               . . .     o - -   -   . .           . . . o . . .   o     . u ;     o     . X .   X -                   . . .             o - o .     . o o o   e R z e   - .   - . . . . & - . . . . . .     . = .   .       .       .             o o   o         # #     X                 X #   o o   X   - # .           X X           X   # 1 o     O                           X X       .     X       @ O       # X X                           X 1 z X X                           1 y         X X                                                 X                             X                 # # X               X                                                                                             ",
"  w 1                                                 X     X                                   X             X                 o                 X o X                             X   X X X   o           . o o                 . w       X                                   . . .           . . o   . o . . X #     .     # t X o   X     . . .     # }.+.  2   o     o . z = . . . . . . . o   . o     .   .       . . . .                 - #           . X       . & m.=..   - - ` - .         X o . X - .                   . .     o - 1   .                 . . . .     . o j o . - W u   X   - w       . . . .                 . . . . . .       o - - .     . o o . o           o   - -     &     . . . . . . . .   .   .   o   .   .       . .       w .   &     X .             X                 X o - c.z.- X   . X X                     . X .   . o X                           X           X         X     - @   @                                       X #               X         #   X 1       X                                                                               X                     X t # X                   X #                                               X o o X                                 ",
". ....X                             X # X         X o P ... X   X #         X                 . -     X   X                     ! z o                                           +         X   o & .           .     X X   X   . . X     X # w .                                 .         . . . .         .               o X . #       X       .   o .   X   . e .   - o   & . = .     . . . . o . . . . . . .     . . = - . .                             . . +   X - .   E =     & . e . o .           X # -                             . X     .       o 1 X - . . o           . - =   o e   - #   +.K       .       X       X     . . . . . o X       . . .     . . . . .     #     . . o       3 f.2     .       . . .   .   .   . . o .           .         X t .   #     . X X .                         .   1 1   .                           . X X     X X                             X           X w #         1 ` z w   X 0                           X                       X #         1 X       #       X                                                                         # r X                   X , X               @             # X                                       . 1 - X                                 ",
"  # X                             X # w #     X   X   N p.      i i #     X 1 #     X       . o W o .                 . X X X   z -       .               X                           o   .   . - .             .   o             - o o     o   . X .                                   . . . . X X #     .     .   . #     .   - X       X   X   o .     X   . & N 2     . o $ - .   . . . . .   = .   o .   . . .       = = .                 .   . .     X     +   w . o . . o . . . . . .             . # -         . .     X       X .       .         o   . -     o     X e .     o   . .       . X X T.W               #         . o = o . .         . .     . o . . . o X   e #   o   . X X . 2 x.    X .                   X .   . . .                   X # - o         . .                         . . .   X .       . .               .       X .                 X                         X X X X         X     j .         #                       X X     X X . X X X       X #       X i X X       X K X                                       X .                                 w K #                                         X X         X #                               O         o .                                   ",
"                        X w #                     h ;.    X #             X # w                 X                 X . X .   X   X           X .   .       +                         1   j H.. . .       .       = . .   #   = . X L ;.X -   o   . o .       X       . .   o   X         . . X 1 X X                       X # w   X . e ; . o   . .             X # # . . - - . - .   . = - = .   o - o .   . . . .   #         .         .     .   - X   .   .   . . . o = . o e . . . .   - .   -   . -         X   -     o           .       .               o X .       . . #       . .   o X         P iXe . . . .     . .     X   . - w   . . .   . o = $   X o   . o   - . o j o   o   o   . . .   . .     .   . .       .       . # X       X     X #     X     X .   .   o . . = -               o       . X X .                     X o   #       X     -     X     X O     # X                   O                     O         w #     #                           M -             O     X   #         # i X   K Y                           X @   X X     X           X             w K r                   X # #                 X                                                                                               ",
"                        X # X                   o   1   o     X               X   X     X X   X                   X   X X   X       X       .     .                                   . , :.  X                 = . . o         . X w   -     . .     .       .     .   . - .       . .           X X       . X               X X   . L x o . o . .               . .     . .   . . . . . . . .   o & o . . . .     -   X X   . .   .             - -   - X o . N .   & .   . o . = - - . . o       . .   . 7       #   . e   X . . . . o - o . . . . . .       X .         . . . w !   .   o     t W . . . &   . . . . o o . . . .   w     # - . o .   . . . . #     o =   - u.2 o     - z -   . o = . . . . . . o     .   . .     X X       o X X   X o     .   X X         .   . . . - o     X     X       .                 X # X     X           - X   X       X       X       X                   X                                 X e i .         O                     e .                                   #     i i                             X           # X   X L -               X # X                                     X         X   X                                                         X                           ",
"X                         X X                   X       X #                                                     X     . .   X               X   .                               @   o   e ].w     o # .     . .   .       K # . #       #     .     .     .       # e .   X .       . o . .         .       . . . . . .         X   .     . .   . . .           . . .             . . . . . . . . . . . . . .   o #   X       o . . .   X . .   X     X   # L   w   . =   & h   . . & j = .   & .             X o   -   | +.    . . . . = 8 - . . . . . .                 .   .   . - . . - .     M R     -   & o . . o - - o .     X     o w - . o .     . . . . o     & &   e 2 & = o o o . o . . . . . . . . z t .   .             o     u O.# w     o   o   X # - -     X X       . .             #     N 7.                X X     X X       X R   +   #   X   X X   X M       X   X #   @         X                   X X     X                                           X                       #                   # X                 X                     X # X   X T #   # r #   X                                     X           +   O 0 H                                                                                       ",
"                                                  X #     1 .                     X                                 w     X         X o             .   #                         @     1 vXa.    - - X   . X . - o     # a.z   o X o         . O X   o o   . +   - z o             . .   X             . . . . . . . . . . .         . & . . - . . .           . . . . .         . . . . . . . . . . . . . . . .     o   X X . . .         o -     . t 5XP   o . . - = . N ! . o & & e = .   e - .     . o o . . . o . T +   5   X . . . - o   . . . . .           . . . . .     .   o   .   o .     X X o . . . .   . o o .   o   o     . - X . .       . . .   o . o ,     z.z - o e w . . - . . . .   . . . 1 1     . . .   .     - # . o e _ |     .         X w w . . X       .             .       , J.6X            . . X       X     X X   #   X X   #       X # w | X X       X                     X             . 1 X       1 t         X         X                 X                     X i   X     X     X                       X                       X X         # P / w                                       X                 s.3X} # @                                                       X X   X X                   ",
"    X X                                           X X #       .                               X                   X     - t #       # e w X         X   - . X                       X   #   # X   - - .     X .     X     X   .   . o .   X   . O X   2.2.  . + .   -   X     . o               . . . . . . . . . . . . . . . .   l     o     . . . .   .       . . . . .       .   . . . . . .   . . . .   . .   . ~.t   # - . o 2 -   X   1 L o   t . z.-   . .     . . $ & $ & j j . . . & o =   . -   l :.. 2 $ . l ;.-       . .     . .   . . . . .           . . .           #       o     - e   o u -                   o     X         . .       . . .   - & - & & , 3.j & . e z 2 & & . . . . . . . . . o     .   X   X     X X         o   ! ;.-   .     # - .   .       X .   X X     +   # X   - ,           X = - X X X         X   X       w       X       # X         X     #       @                         X         e z . .   X w X   o X X                                   X     y             # w X   o                                                 X     X X     #                                 X     # X           | Y @   O                                                     X R K                         ",
"  X # #                                               X         X                 + X                               . #   n.0X  .   . - #     X       X - - o                     O         X     o o .         =   X   X X   . .     o . o   .   X   4.4.  X   .   .         . .       X     -     o = . . . . . . . . . . .   - ;.e       o   . . . . . . .   . . . . .     . .       . . .     . . . .   . . . - ~.K     . .   o     w   .     - L o   - o . = o . - e = . 2 & ; 2   . o , . o .   o   2  .- 2 . o   .     #     .     . . . . . . . .       . . . . .         X . - - . . . .           K w   . .         .   w ].-   . X   . .       . . . -   l  ..     X . . o - - & .   . .   . . . . .   - . . .       . .       . # # 1 1   t z           .       .   .           X     o         X   X X X     X X X X i e     X X     X X X     #       X   e u.w -       X X X X       X             X O                     .       X #   X e #   X                                                 X   # 1   . 1                                               X                                                 O   P 3.-   #   #     #   X X                                                     X i w                         ",
"    X X                   X X                     O       X     X               # w 7 X X               X X     X #   -     i   X           X .         X w &                   X   #   . -     . .             . . = .   X X o w     . . X       o         .   . . o X   .   .         X   . (       # - . . . . . .     .     . o   . #     . . . . . . . . . . . . . . . . . . .   . . . . . . . . o . .   . .         X . . = - o 7 [ 1 -   2       2 . . .   . . o - & . o $ . o & $ & - o . -     - . & N - . &   o -   . .     . . . . $ . . . . .                       # i - T .     - . o   1   s.T.  . . o .     . .   ! sXi     # #   .       . . . .   o &   ..!   8       . o   o o .   . .     .   - .   . . o X     X . .         #         X X . o .           o     #       X     X X         # X .           X w w     X     #   L h.  X   X #       # P     X             1 M         X       X O     X X X             o X     X     1 .                                             1 #     X   X X     o                           X X                 X           X               X                         ! ;.-   X       X   w     X                                                           # X                   ",
"                        X 1 #                                                     + X           X       + # X   #   1 -   X         X     o o     X       e -                           X   . o X       .       = o   - o .   . e . X       X   . . . + O       . .   . X t X   . X     X   & 6.-     # u e o   . . .           = . .     . .   . . . . . . . .   . . . . . . . . . . . . . . . . . . o o . . . . . -   o .   -   - .   i   o o = &   & & . $ $ = = . . . o o . . . o &   1 ,     = = . . o 2 2.  - - .   .   2 #     X o . . = o . . . . .                 . .   #       . -   .   - X   3X`.    . X X .       X           - o           . o o   - . . . P K T L . o o . . o ` - o . . . . . . 1 t - . .   .   . .         . .             # w   o .   X       .   - R i     X o                           X           X     X   l bXtX  # #       X       i #     5       X %Xc.& . X   X               # 1 >       X     #       X     .                                     X       # ..i               . .                           # , o                                   X X                                         O   X - -                                                                 # r X                   ",
"            .     X     X X                     X     X                       .   X     X     t | #         #   X   # i w                       X     X     X               . X i #     .         o       @   . o .       X X           . .   .                     X   . -   -     . o .   X     .   . & o   o t #     . .     . . . . .     .     . o O   X           . o & - . .   = . = . = -       o   = . . . .   = . . . . . . . . .     .   . - ; $ . $ = . . . . . . . . . . . . . o . . . -     . - i.. . . . . . o - z t ..    . . . - . . .   . . .           . .     .   . . .   .   .   .   /.| X o o . . o T X   . .               .   - -   o - .     . .   o - - - . .   & o - #     . o     o z &     .     . o   . .     X     o       e -         X .     . . . . M   X             X X     X       X X     X K     X X     . e oX-   o o   X     O     z X   X   X   3 ) &.+                                                 X X             # #     X # X #   w i   #             X X                     # X                         #                     X       #     . 1 1                           X #                                                               X         X             X                     ",
"    X               # X   X                     X       X X         X X X       X     #         X X     # X         X X                                                         ..M X       . # O o 1 .     # . .         X     -   #     - o   .             .   X   .   -     .   o = .   X     . . . = o   . -       . . o o . . . . . . . o     o   u _.  X       . . . . . -   . = . - - z   P ~.  . -   .   . . .   . . o   . . . . . . . o . . - - $ . $ . . . . . . . . . . . . . . . o o     . z z   . . . . . . . . . X e T     o . o .     . . . .         . . .     . . - = . . o o -   X -       # . o o o o R X X . . . . . . . X . .   & o . -   o .   o . . w 2 . . - & . .   .   1   - o     M j &     .       .     .   # 1 #   .     - L u o       X .     .   .   o               X # - X                   X K #     +         X w                 K . .     + +   . !.x..                                                 X                 X X     X X X     N.Q.    #                                   X                                                 X           @ . 1 -           X               p.@.y                                                             X X   +     X         X                       ",
"  X X             . P R     X               X X                       X X         X M +.# # X     X       X   X             X                           X     X   X X           X       .         o N j X   #                       .   o     # .             .   X   .   . . . . . . o     X     . . . . .   . .   . -     o -   . .     . o o o . o   T qX+       . . . . . . o   o o .     .    .~.. # . . . o   . u . . . .   . . . . . . . o o o = = $ $ $ . . . . . . . . . . . .     . o o - . . o o   . . . . . . . .     z z .   . . & w o       . . .     . o .   - N   - ! .   o o           -   w z . . . o   w     . .           .     o o   = w .     . & . . &   & &     X   o   n A.    -     X.w o     .       w - - X     .   . o       X         . . .     . . - 1   w   X           # X                       #             X #     X   w         o M X     X     #   w o                                                   K 1 X o #                   X X   X i # X     X                                                   X         X                         X           o X           @               Y p                                                             X   #   X               X     X # X             ",
"                  X T P X   X           X X # #     X       X # -       X             t             1 i   X X         .                                 X X     X X X X               . . .       - m Z . X X     . .           X o o   -   o   .             .         o     - o . . .     .     . . . . .     . = .   o P P     o o     o = .   o       # X   . . .   . . o &   o . . o   . o             -   =   . . .   .     o = $ . . .     . . . . . $ . . . . . . . . . . . . .     . o . -     . o o . . . o . . . . . - P - .       o e # .       .       . .   . t _   -   . -   L - T P X .     o   . . . .   X   X o .                 o       .   t j o   . . & o . o .   X   X X ( =.  -     . X - .   .         - # X             X .       . # . . . . .         o -   -   X                               X X X     X       X       X O           o B .     O - p.w       X .   X X                                       X X r X   . o                       #         X X                                                                             X     X           @                   X             X                                                                   # M     X X                 X # #             ",
"                    X X   X                 . X       X     X w z -   X X       X           X X X X P | X X X X           X .                     .       X     X               o o . . .         - $ &   X   o . . .         X         o L N.o .             . .   .   X -   . - . . . . o o         . . & o   . . = - .   o . . = & . . - - . u   M     +   # . . . . . o o o e 3.o         o o X K T   .   ;   - .     . . .   o - = . . .       .   . . o . . . . . . . . . . . . . . . o - . = . . = e - . . o o o . . . . 1 M   . o     .     X # .               . & - o . o .   o .   . bXW.X X     . - . . . = o # . w - o     X o .   o       o o   . 1 N o   o o   . o   .     #     X X   -     o   .             X               . X       X o - -   . . .                     e .           .   X X             X X     X   7 X   O   X           X   3 '   . X   o _     5         X # X                                   X X X               X                     # X     X                                                       @                   + # X           X                                         # X                                                           X X     X                 @                     ",
"      # # X               X                     X             X - X   X X       X X X   X           X         X     X     - 1           .           X         X                       . . .       . .   .     .               X w - .     - u.  .             .   .   # X |     #     . . = o   .     . o - - . =   . ! !     o   . o . . & & .   o , & .       . . . . . . . . X X.      . - e     W.$X  & & . o . 1 ~   . . . . o = = . . .       . . . . o . . . . . . . . . . . . . . . o & . - . o   ; = = o o o . .       . -   . o .         o - .               o o .   .   . -   o 1 i.8XT   X - #     = = . o o X   - - X     o - o .       . .     o   z ; - N e . .   M . e i .   X   . .   & .   w               X X X .   .           .   .         . X                 #   o t o         .     .               X           K w     #         #       , , . .       X #     X X   X 1 1 #                         X X X       X   X X X                             #     # X   #                                                 X         X     X       # # #   # #   # n.+.X                                     X                                                                   #   o ..i   X     # w #                   ",
"- .   # # X         # X                           X X                           M w       X     X   r # X #       X X     & - . X     X # X         X   T X   = X               X o .               & o #                       X o         # o .             .   .   - - P o .       . . . .   .   . . . - -     #   1 t . .   . . . . . o o   + . . n   - o   . . . . .       - L o . . . . . X . . 1   - $ C w   2 5.    .   o . . = = .   . . . . . . . . . . . . . . . . . . . . . . . o o = . . & o x .   . o . . . . . .   & . . . .     # . . X             . .   . . o   -   /.;.  t !     # o     X   o $ .         X .       X o o .   . . o     1     &     & o . . o 5.t u.W   1 2.t   o .                           .     X .   o     o   X   X X   X X                 o   . o                 .   X X             X X   # [ i     #   s.r X   X         . .   # 1   .     .     # 1 1 X                         X X X                                                           X                                                   X                     # #       X 1 X.1   O               X #                 X     X                                                               X /.[.#   X     # # X                   ",
"e X     X                 X o X                   1 i #     X                         #   X         | M     #         X         X     # - o     o     X F.i   o X                               O . - j           .             .   . #   .                     . . . X w     .     . o . . . .     . .   o o   T.X.  X L 1 . . & & o . . o . . +   ~ (..   X   o . .       . . o   o . . .   .     . z o Z . $   & . .   o     . . . ; ; o   . .     . o . . . . . . . . . . . . . . . . . . . = .   o   z . . . .   . . X o - . w e .                               . .     . -   . p.1 _ e . . - . w w     X   .     .   # #         . . . . o     1 1 X.n.X . . . o . . =   2.`   . . o . ).r     .     . X                 . .     X     # - .     . . o     X X             +       . o -         . X - w X X X X       X # X   X 7 K +         i X             +   o   o & o     X         X                                             O                                     #   X     @                                                 # @.| X                 X +   @       X   X                 # T y               X                                           X                   #     o L   X                                 ",
"                              X                   X # X                                       . .                 X         - X X X     o .   . -   .     .     .             .                 o X           . . .           .   . . #     #         X       =     . - - o         . . . . . .   . o     o X   ! t .   . . . .   . o o . . . . o   . . .   . l K     R 1 X   o   o     e X     . . . . . . . . o o . . . . . . 1 M o   . =   X .     -   j m   . = . = . . . . . . . o     o   . . . . . . . . . $ .   - t       o p.E.#     z L .   .     . . .   . o         $ 2 X # # @.z   X w   E.n.T s.  .     o o   - L -   . X     o       . . - l K X   . -   .     X g.W . . X       .   . - o   . . .           . - .           .     X       . 2 * -     . .           X .   - z .   +   o   - ' n X   # -     X   - # X         . X                                         X X                                   X       X X         X   X                       o     # +     o t     N p.                X             ! i.X     i @.i                                                       H T   @       X # y                                           X                                                     X             ",
"            X                                       X                                   X   . o . .   X       .       X . - K P           1 2       X X   X     o             .                         X o - - .         . .   . .     w     X u - X     X - z . .     X     . . . . . . o $ . . .           . o X . . . . . .   . o o . . . .   - .   - o - ;.~.  # N.R   . . =   o . - X   . .   . - - . . . o . . . . . o o - o . . . o .     o   . . e 2 . . = . - = $ . . . . . l -       . . . o o . . . o   . = o . - e     t P   .   e -   . - . . .   . . . .   . X - o 1 # a.iX      # i i i.i u...    X   . .   & 2       -   o   .       e . . X   o .   . ].E.    o .   o =   . . .     X     . . . .   X X . o - o .     . . . .     X     - ; & . . . o o .     X   X #   o -       X X   . -   w   X 1 X       .               X                                         X                         X # X X X   X   X X     X X   # i                                         o   . X , j   X     @   X         X X . - ;.M   #     #     #                                                           X     T.0Xw @                             X       X     X                                                                 ",
"          X # X                                                       . .                     .               X X   X .       .     # X   t M .   X             o                         . . .         X X # -         X o .     . . . . - o X w #       . - w                 . .   . o o = & .   . - - X   .     . . . . . .   . . o . . . .     . . .     -   = .   o 2 o . .   o       X   .   . - - .   . . . . . . o & -   .   & l     T - z o . o o     . $ . . . . . $ . . . l w . . . . . . o o . . .     -     . - -       . & j . = o   . = . . o . . $   .       w & L X | Y   w X T W.-         _ . w o   . o & . t e !.  - o   X o o o - -     X .   & - N j       .   . .       .     .     . . .     X X . X o   .     . .   . X X i X   w & o   . o .         o     # .       X X T z       o t X   # X                                                           X X   X                           X                 # X       w K X                     X 1                   X   o       O           @       X e   e # #   X         @   X                                           @       #     X @ p.| X                                   #     X   X                                                                 ",
"          X # #       X X                                             o o                                   X # #       X - . . X     X   X #   - i X           .                       . & o o .             .       X # # X   o 8 e -   o   . o                 o .     .     .     . o o & - .   X w w o   . . . . . . = $ .     . . . . . . =     . . . .   . = = o o     &   - . o . . !   .     X o   . o . . . . . . o o . - - e ! . X u.= e o . o .   o . . . - . . o . . . . o . . o . .     . . . . .   i K   1     &   o & = u z . . . . o . . . = .   o   o . .   &   [.T   P X K T u O.  # z       . e #   . - - .   P g.o &   o     -     #   X o   L o   o   o . - -       . - - . . o - . . .     . X X X   . .   o     - o       X w X   .                     X             o X   1 #         # X         X                                   . .               X X                                       o o     X               #                       w M     X               . _ M o         @ @         #     K E.i         X                                                           X       @   X                   X                   X   i s.R                                                   @               ",
"            X         X X X . .                                 X     # #     X               . . .         X - _ - X   X #             X       l R -       .                         . o o o o                       . o # X     . . u P - .  .1 #       . . . w w o           .   . o .   o 1 .     . .     .   . o . . . . $ . . . . . .     . .   . e w   o $ . = . . o 2 .   =   . . - O.o . .       . o . . . . . .   . . . . . . o . X   . $ . . .   = . . . . & . . o o   .         . . .     o o . . o   N./.#   o o . .   = o = $ . . . . = = o = . . . o . $ . .   . o o M.M T K qXS.    1 # - T e .   - .     o ; -   . & . & o   #   X   # o X . .   a.M . e       t t o       . . . . & - o . .     X # # X   . o . - - o w -   o       .     .         o o .       .           # #   X X     . .           X X       . X .                       .                                               X         X - ,     n.z.# X X   X               X           X #                 O     -                             X o #   #                   o .                                                 #         # X # #           e 1 X X         X       i @.r                                                             X     ",
"    X X                                                               X X           X           o X         X # w X X     X . o   # X   X X   X o - X       .         .               . . . .   .                       . X     #     w |     l # X     . X X X X o               . . .       .           . .     . . . . . . . . . . . .           = = = =     . ; . . - . . z -   .     . - .   . .     . o . . . . . . . . . . = . . $ = .   & . & & .   -   o & & e . . & & . .   - ;   . & .   . - - . . . .   #   - - & . o     .     . . = = = . . = . . . . o .   . $ . X   i.1   w w   . - .   z h.      o     . . - e e   d.j j. .  # ;   # h.- o . . X X       - - .   .   . . . & o . . o = .         . # X     . . o - o . o o . o   .   o .   #   X     1 w o       . .   . X           .     .         X X     X                                                   X # X                                     o & X   X.T       X           #           X X     X X X           X     X X             w     X       w     X                 X @   w #                             #                 @ X             X X           e - X               #                                                                     X   X ",
"    X X     X X                                                                 o o X           .                   X #     X                       o o               . . o X             .   . o .       .     . .               X     #   -           . .             o .       . .               . X X . .   o .   . o . .   . o o . .       -   o .   . ; -   .   = . . $ x w . - . = . . . . . .   . . . . . . . . . . . .   = . . = .   - .   . . o = j &   - z ` j - -   . o . 2 u . . - o . o - - .   . = . - = .     . .     . . . . . - & . . . . . & .   2 .   . h .   - . 2 o   X +   o   .   1   - . = . . o . = &   o e . d & o # -   # u.X   . . X     .   o     o o . .             o o . . .     . .         . . .           . X     .             . - - .     .     . . .     X       o # #         X X     X                     X                             X # # X                           X X   . - ,     X     X               r #       X # X     # # X           . O         .   X   i p.R X     #     X X     @                   # .                                 # X               X X     #               X o .                       X X                                                           w K X X ",
"            1 e                                       X                         . o .     . . .         X         X         X   o   . o     #   . . i u X       X     . - - #             . . . .         . . . o . .           # u.#       o - X X     . .     o X   . o     . . . . . o - o   X .     . . . o . . . .     . - o = = o . .     . . .   . =     e e   = . = . $   # .   - . . = .     .     . o o . . .     . . o   . & . $ =   . . .   . . ; .   o , j     o .   o . . = . . - & . o - &     . . & . . . -       -       o . . . o . $ & . . $ o . N - o $ N & . . o ; -     +   . 1 1     -   . - . o o . .       . $ . $   .   o X     X - .       o   . o . . .   . # . .       o = . . .   . X       X X .             .   X   & . . 1 # X   X . .     . . o           . .   X #             X       X                                                         X X       X                           . , 2 X X         #   X       # i @   X       X               X     o   X   . 2 W #     # P X                 X                                                         w | P #         #       X X                   o               X                                                                     X +.a.w   ",
"X X X       w K         O O     X       w P #                         . . .         . d k &                       o       o   .             . X   o         . .       . o   #   .         X   .     e .   . =   X X     X       X i -   . X   -                 o - o o .   .   . . . . & w -   j & .   o -   X     . . . . = . o   2 h . . .   . . .   . & o     X X o   X . .   = .   . . . .     . .   . o . . . . . . . . . . .     . o .     -   = o 1   X . & . . w . . . . . . . . X o + .     . .     . - o . . . . . . . - o   . o       o . . . . . $ .   h.z.  o . .   -   S.-   o       w P   . - X . =   - ; . . . .   . . = .   # .   o     o -     -   .       .     o w 8 o . . .     o o     = X       . o -     o o         o     - .   . -   . .       o u .                   #       X                     . . X               X X X           X       X   X                               . o     X #     o .     X                                             O O         X X X X X                   X                                                                   P +.i                             O   X   X                                                     X                   1 t X           X X X     ",
"                                    X     w           . X X       X - - o             . $ .   +                 n P o X .                     . 1   X       X o X # .       K R                   w S...& o   -     X     o       # .         . X X       . X X   o o .     . o . . .   . & o   & . . o - -   . -     o .   . .     -   .   2     . . . . - - .   # -   -   . . . . . . o .   . . . . . . . o . . . . . . . . .   .     o - - . =   . e . z N.  . 6.4.& o . . $   . . o o     U .     . . . . . o . . . . . o = . ; -   . .     . . . o . . . = =   - M       . #   X L # o o w r # p.w         o - . & - . . .   . o - = o o . .     .   . .   o -     X   .         = = .   .   . o .   o & . X     .       o o   # X - o e - o   o     o w o X     - .   X . - o X                       #                     . X     X # X     X X X           # i #               X                   X X & .       X X   X o o .                                           @         - 1                               #                                                 X                                                         X   X                                                                 X     1 1 X           X         ",
"X                     X             +         X   . X X X X       X - - o               . & X                   2 M         .                   X       + #         . X # - X.u.                  o 1 .     -   # X   #     . o       . .     .       . .       o       . . .   . . .       . . .       . X     G - . o . . o -   w . . = . o .   . . . . o .     o # X         . . . o & .   . .   . . . . .   . . . .     . . . . .   . . .     .   & . z '.o . C 2 . Q m $ . - o   .   X _ gX. .   . . o . . . .   . . = & -   = & o .     o X     . . - - .   !     o . o - K i.  X . o   W i # ;.X X e e   . & . . o   . . X   . z e   .   .     - o     . . -         .   .     . .     . .   . .   . &             X o     _ o   X   _ w     .   . . # . . o             o X .             e z.. X               X X     1 #   X r P ! o                   X   K X   - .                     X           .         X X   1 . . X                                           X   X     t X                               X                               X                                 X             X                       1   ..0XT                                                                       X X                       ",
"      X     X X                           X       . X X X X           . .           X . - 7 .                     o                             p.~.#         o X X o X X   X   . X         X   . o L o   . o -         o .     o     X         .   . X . .   . .   X         # o . . . .   . o o o .   . .   o o     . . . .   o     - o     #   o o . . .         l  .o w i   . . . . o . .   .   . . . . o         . X o X . . o o .         w A.o   ; . . . & . & & $ & k &   o .   - T   R . . . . . & o . . . . . . o = & .   . & o     w   X X .     . . - -   1 o   w   .   . . o . z = X     1 - 1 u . . o . . o o . . .     l w   - . .     1 o     .   o .         # = . . . .     X .         e j     o     X   -   - 9XK   -           . . o o     . .     # .               .       o N       -             X               # R X                   X   #   X u               X # #     o o     . . o X         # L                                               X           #                                                                                                       X                     @ # #     X   e sX/.                        X                                       X                         X X     ",
"      X X       t 1 X         .         X             .                         X       X X                       . 1 o X X                     . ;.    + #                 X   # #     . X .   .   1     .     X ! G.-       +.e .   X     .   X           . o .   .     o   o o .   o o . . .   o . . o     . - . . = o & = . . .   o 9Xn.      . o = . o o . #   - #     ! i   . .   . = = . o . . . . = - o       X - w - # . . . . . . . . 1 N . -   = . $   .   . = . . h & - o . t p.1     . . . o & o . . . . . . . . . X   . o o . o -         o .   o . &     -   . w   #         ].T.  e . P o   o   . . . . - - & o   # . . . e ! .   .   o . . .   . . .   .   . e = . . . .         . #     ! ... X             X o z X X   X     X       .     .       R T X   -                 - o     X 1                       - X #   X M o X X           X #   X     X -             X # t e X     X . o 2 - l #         R T X   X                                 X       X                                                                                                                                         @ # #       R X.>   .                 X         X X                         X #                           X X X       ",
"- X             z w o     X X X                                                 X                               .   u .   X   .                 . .             o   o       X   X - o   o -       .     .   - .   # W . - - 1 p.u o . X     X .     . o o     . o . - . . o   . .     . o o . . . - . . .   . . -   . - o     . .   - . i.P X # . . . . . . . .     # o o # w u   . .   . - e = o . . . . o - o .     . - - o   . . . . . . o . .   .     $ $ .   K z   o = = . o   . -   -   o       . . o o . . . . . .         . o     - 2 o         o     o o . .   . -           X | N.~.8X  R ! M o . o . .       - 1 o o w u o   . w M     1   o   o . . .       . .   # o . . . .         . X     z N       . .   i.. X X       X     o       & .           - P z   . e                   . o       K 7             . X             -   o X           X     X   X                   X # X X       . o & o e X       X ! #                                                 # X         X                           + + X                                                     X         X X                                 @ w M.t   X                       # w                               # p r X                     X w #         ",
"e #             .                 X           X                     X X                 X                           #                           &   .               X           . . o   l P   . o   - . - o       .   z j     X o                 . - l u - . .   = N -   .   = . . . . . . . . - t & o .   = = . . ; L z o       . . .   o     . . . . . .       =           X . . . o . - e & . . . .   . o . X       .       . . . . o . .   o   o o . . -.g   ].W.    . = . $ & e =   - - o     . o o . . . . . . . . . . .     .     & 2 o . e M -   . 2     o - . . . r iXi.# # i M.3.n.w . 1 z o   - o 2 .       . o   - L w o . o .     o M . -   . . . . o -     .     X . . . . . . o o                 o o . - n.1           X   #   X   o z - o . X   o 1 1     - -           . . . .     # o   iXT . .           X X     X       o .                 X X X X                                   & 2 .     X X   X e                                   X X           5 y.#                                     O X                                                   t t w 1 X                                               X   #                     X i R #                       X     # p w                       # 1 #       X ",
"      X         . .           .             X                                     X           .                     o       X                 .   -       X     -       X X o           | i.. . o o   o e   .         ; . e 1             . .   . . o - & . . o & . $ . ; E & . . . . . . . . .   o   . o   .   . o - 2 o   . . . . . - . . e . . . . . . . . . .   o . o   X   .   . o   . = . . . o o . . .                 . . . . o o o . .   -   X . . Z.&.  t w . - . o . . $ $ . . = o . .   . & o . . . . . . . . . o - #     o   . $ $ . o ;   o j.C.  -   . . . w X N.w X   M T X i   & .   o . . o ` -   .         1 , .     o o   . t T o 1 . . . . . l P -   X   X           . . = .             X . =     -           X   r i   X o   . t       .       -     - o                     #     X w # - o .           N o     # +                     - R                     X X   X       O   . n 2.j     #         +       X                         7 w X         y.>X0       O                                                                             X X X . . . X                                         O O   o K i X                   X     #                                                                         ",
"                                        .         o     @               . # # .                                                                 .   . X . . .   . .         . $                 . .     X     .           1 w .       .           .   . .   o . . = . $ N Z - . . . . . . . . . 2 = . . . . . . = . .   =   = .   .   - . . . $ o . . . . o . . X .           o o . . . . o   .   . e j .     X . .   .   X   o . . . . . .     o     - .   N   _ 3X    . o   . . . . . . = = . . . o . &   .   .   o     . . h.2     . . .   = $ &   o h Z h . - . . . e   X   . o =   . .   . * k N j   i o   . .   o . . ` 1   & o   . -   . o ! p.  N z   o & ` L o . . .       . . .   . . . .   . .       .     . .     X t 1   o | T .   .           . o X   X   X   X         . .     . &   . . .             . .     . -   #     O       #       #     # #       # e                             o j _ w .   *X0.<.=.                  O   O     #       + #                                             w t     O                                                                                                         X i K y                                                                                                     ",
"  X   X i r           X X         X X   e - . o . -                       o o   .                               . .                             .   . X     .   = & + X     . . X . .           . .           . = .       X o     X o o       +   o . o o . .       . o m -   . . . . . . o o . o . . o & o . .   . o o . . . . . . . . . . . .   . o . .     . .       .   . o & . o . & - o o - .       & &   o o . o . .     . . . . . . .     . . . o z ;.o # | - - .   ;   . . = h 2 . . $       . . o . = .   o   . .   e - . -     o w   2 . -   & & .     o o . o 8     1 o . o e .   . $   W 1 .   . # o o . o .   m & - 2 .   . . . . , z P o N j - -   = .   .     .     . . . . . . . . .         X o . . . .     X o -     - .   o     o o - .       #     X     X             . o l o         X +       . .     . L             . #     o             X X                                     . #   o f &Xb N t                       +         X     X                                           # p.t   #                                             X X                                                       X       X                                                                                                       ",
"  X     v i           + +       #     X     W . - i #     X # .           X .   .                               X .                             .     .     .   . o X         . X X . .         . . .     o - - u o . X     . .     . . o         o . o o . .   X   o . z . . o . . . . o & = . . . . = - o .     . . - . o   . . . .   . . . . . .       . . . .     . X X X o & .     - z - . .   . o .   . . . .         -   . . . . . . . .   . .     o e   .   #   - - ; . . . . & = . . = o o . o   o   . - .     . .   o 1 1 ].L   o o ; . &   X . 2 = # X # X .     o X . - . .   - -     . .   - z . o o . o o .   & . o & . o -   o         & 2   o . o . . . o .         . . . . . . o .       . . o . . o - o o 1 i       . - X   - e 1 -   .   . . o u.e   X - .   X .         o - o       # X           . .   . . X.-   X       w X #       o   w w             X                       X X       7   X o     +                     X     X                                     X X X               o X       O O                               + #         X X                 X                         X X                                                                                                                     ",
"  X     # X   X       X X         X     o   # . . - X     X                                     .               X .                             .           .                   . . . . . .         X X   - e & w . . o .   . .   X . & j e .   . .   . .   . .         & o X   . . . . . o o . . . . . o . . . =     o . o   =     o . o . . . o . . . o . . .       . X o X . o o - . o 2 & . = & - . .   = . . .   . o o L - . . . . . . . . .   . o .     o o   w - . = . e - - o   . = . . . - . o .   &     o   W - -   . .   ! o o o . . e - O   - & o     K     - X . M . .   - . - o .   T t e e   . . .   . . .     o .   . o -   =   o . . j -   - - o .       #         . . . . . . # .     X . . .     o = = # w i z -     . X . . X P o   . .     . M o . -     1 # X         o - o .     #   . #               . # X           X       X X   + {. .-       X                             X X X     + 7   # 5                     # w     #                               .       + X             X X X                                       X w P #     X 1 r X               X                         + +         X                                                                                         X                 ",
"    X #                           o .   # w                       .                     . .     . .                                       . . .     . .     X .   X X           .       . .     . . o .   . o   o   . . . . . . X o . & x j = . . .   . .   . .   .       o       . . .   . . . . . . . . o o o = . - . . .   . .   o & & o   o   o w w &       .     . X X .   . 2 N -   . . &   & -       &   . . . . o . L & . . . . . . . . . . .   o e & . o   w x   o . o . . . . o .   . - z o   o . =.j   o   W .           o   o & & - .   @   2 2     V.xX  X .   e L $ & .   #   o     R K W.w o .           o o   - e . =   . . . o . .   o     . e X . .   . o .               . . X     . o . . . # X . .         u o .       . . 3.{.M o       .   . -   . .   1 o .         . X   o z w P X                                     -         # # U X   X     X   X                 .                 .   7   +                     1 K #                                           X                 #       y @.i                             X w i     X X 1 1                                                                                                                                                 X                 ",
"X   X #     X                   i.3.      X #   X       X X   X                     . X X X .                 .                           . . .     . X     X .                 # X         .     . X       .       . . . . .     .   . & =       .   & & . .     o . t . X   o   . o .     . . o o o o o o . .   - P o . o .   .   . o   -   o . = - - . . . .   .       . .     = 2 = . o . = - o     w   2 z   . . .     &   . . . . . . . .   o .     - o   .   . & - & o o . e 2 .   . . &   & o . e o  .o . o         -   o # o   . u . - 2 !   w . . -   T N.# #   -   . . :.e . X .   - #     +     - & . .   . . o . - 2 o &   . o   o . o . . o .   o X X   o -                           o o .   . o # .     .             X . . . . - M.# o . .     - w !     e -   . .   .         o o e   w   o X                 Y K +   X             # X     #     - X                                         X     . # X X                   X t #     X X                                                   #   X 1   # ..X                               X             X                                                                                                                                                                   ",
"X         X X                   m.~.    #   #             X                           . X X                 .                   X . .       . .     X X         .   . o .     X # X       X X     .       . o - X   . . . . .     X . . . . . . . o . - - . .     . . e . .   . . . o .   . o o o & & o . . .   . & x &   &   . . .   .   z . . 2 &     . = o .   . .     . .   .       o 2 = . 2     ..T.P 1 . . = o = . . . . . . . . . .       . . -   . = -   - -   o     e j ` L .   o . . 2 2 &   o o  .l         . . &     -   & o . - . j !     & . :.K 1     o .   #   * - z M.    - .   o - . . -   .   X   - . . . o < < & . o -   . . . o o o X .     -     #   . .                 o o o X     . o       . # - # X - .           . o P         . . X   #           .                   o . .                       ..P +         X e _ X     @                 # X                                   X o X       @                 X X .     # X                                                             X   X                                             X #                                                                                                                                         X X X                   ",
"        .                           .     X X       X     -                                                                     o X .               X X         - o & - - .   .         X X       X         . ; X     . .             . . . . . & o . & &   . . . . . . . = =   . . .   . o o o . o o .   . . . .   . o   o   o . o . o .  .- . & o . o & & o .   . X     . X . = . o . . = . . 2 &   y +.e e . . . . .   o . 2 . . . . . .     o .   &   . o   -   o -   o o   . o     - o   . o   & o . . 2 . o .   o   .   o -     o   o   . $ o - o 2 ` ; . M j   . o   X   $ &   o X   2 . o .   o o   o .   .   -   . .   b Z o . . . . o = . = o     l # u O.#   o   -                 . u -       .           . X X           . .       X     X X X .     X       X             .       . .   #   .       X X             #   . o   . o 2 2   #     @         X     X                                   @   z t     O O                 X X w X                                                           +         #                                                                                                                                                                                   X X X   # t 1                   ",
"                                                  X X                                       X X   X       & b 1.X               .   -     X   X . .               . X o o o o - # 1Xw   _ L i.-         . . . .     X     -   B t     .     - . . . = . . . . .   o o   . . = .     . X . . . . f o . .   . o . . .   . & . . . . o     o . . 1 &   o o o   =   . .   l   &   . . . o .   . . o . o . . . . . . o o . . . . o & . . . .     . = & .     . & o . -   o o   . . . .   . .   -   . . o .   . o     & . = - ! -   o X K r     -     o h - & & . . .     . . . . . . . o .   o     . X   o - = .   X o       - e   o . .     o 2 . C.;.  o     o L   (.iX    X   - ( .   . . .   -   u     o     - .     X X     . o . o   . . . 1       X w X   -         X # # X       X   #   .     #             X w w     X   O   # 1 X               . X .         X     @   s.n.            X                   # w 1 X     X . o # X           X # #       X X                                                     X # # X                                             X X                                             X                       j 8.b . O   X                                                     X # # #                     ",
"                                .                   X X                                         .     X     -.rX# X . . X X X   X   w ! - o #   .         X                 . . w R X #   - G.j .       . . . .     .   . o . N K     X -   . . . . = o . . . . o   .   & . . .       . . . . . - . . .   . o . . o . . . . o . . = - - .   h x.z -       . o .   o L :.    o o . . . . . . .   . o o . . . . . . . . . . . . . . . . . .   . = o . . . . o .   .   o . . - .     - o   . - . & .   - .   o   o . . - o e - &   X ].+.X o . . z o -     . . o .   . . . . . . . . . . . l -   .   o   .   . o   . o 1 .   .   o w   e   o 2 . x t   .       -   o z   o   o & t   - -   . .         o o .     o X .       X o . . o .       o                 o       . o o .       X     . .                 .   X t 1   X       X X     X X   X .       . . .       X #     8Xs.# # X X                 X         X X X X         X               X                                               X X   X X           X X                                                   X                                                                   o m .   O                                                                                     ",
"                                X                   .                                   X X             X       X X . . . .           1     X X 2 - X           o .     . .       X   .     -                     . o . e . . &   i e   .   . . . . o = o . . . 1   o o .     = .   . . .       o   . . . . . . . . . .   & e & . .     = & e W o & . = . o   o =     - - 2 .   o . . . - e - . . o = . . . . . . . . . . . . . .   . . . . . = . . . . . . .     . o   o 2 o . #   . o . . - . -   .   X e .   -           . . . X   - = o & l o & . . o . .   . . . . . . . . . . . = z -     - . o . &   .   . o . .   . - . . - . o w - 1 .         .     .     . .       o   # 7   . -   .     X     # . # o X   X . . .     . o     o         X     o   o         . .     X   X     #     X     #   .         e w     + X           X X   X                 X           w #                       X # X           X X X                   X                                               #             X                                                 #     X                                                                         O                                                                                               ",
"                              X X .                             X .                   X X # X   o .     X # X .                 X K X           .               - o X . . . .   +       o     .                   o . - e . . .   oX~.  . - . -   . . o o $ & $ .           . . . . . .         .   . . . . . . .   . o . - z -   o . . & & .     o . . . . . w   o .   .   o N . . . . - e 2 - . . o . . . . . . . . . . o . . . . . . . . . o . o o o . . . . . o .   . & . o   E.m.  o . $ $ . . - X   o   . .     - = . . . . o o . - - . .   . . o . . o o . . . . . . . . o .   . - .   . 2 o ;.. 1     X . e o . o z W   t X.  o - o &   . o   . . o   . o o . o t .           X         X X  .T     X   .     X X     .   . o . o 2   -   . X X X .                         X X X X       X                 X X       X .                       X X               # #       X     X   X           X                                     X                                                     X X                                                                 X X                                                 X                 O                                                                                         # X   ",
"                            X # X .                             X .                     X X X     w R i #             . . .     X e w #   o         . # # X   . X X X .       .     . e - o .                   . -   . $ . & $ 1     . . . . .   X     . . - $ . o   . o X #   . . . .         o o . . . . . . . . . = . . - . . . . = o     o o = = o e - o o =   . o . . - - . . . . . o $ . . . o . . . . . .       . . . . . . . . . . . . o & - o . . o = . = .   .     o   E.n.  o . . $   o     X     .   o     - ; $ . o  .;   ; . . . 2 - o .       & = o . . . . . o . o . .       X   =.$X-     -   o     O._   . .   o o . o ;   o - .   o   o .     o   o l -   .   #   X     X       ! K         . . X X         . . . . o e   - X X   o     1     .           .   .         #   - !                     # #     X                     X # #       #               X X   X     X   X X             X X                                                 X X X                         X       X                                                   X - w #     X X                                               X                                                                                                         # i i # ",
"                            X # X                   X X # X                     X X     X X       - i w X + +     . . . .         X           #             o -   . .         . . #           o                 o -   = . $ = .   o #   = . . $   .   . .   = . j l . .       o . . . . . . .   = - . . . . . . & . . = .   o   ; & . . o o .     . 2 2 z & .     . . . .     . . . o . . . . . . . $ . . . . . . .     . . . . . . . . . . . . . o = .   . o o . . . o o     . X     . . . = . = .   X X # #     - o & z ; . o o     . .   - . l w & o - -   & - o . . . . . o . . o =   .     .       o   . . . = . e -   = = .   - = .   1 . .   . 1   X - - #     .   .   X # _     o   o o   X .     -   X   z _ z X       o .   .   o   o   X   w o . N o               X 1 L e   # X  .K 2 _ .   o         X     w w                           . . . .           X # #                 X X o X           X                                                   X # 1 #                     O     - o     O                                                     X X X r P P                                                                                                                                                   X     X p y   ",
"                                                      X # .                     - # X           #     #       -     . . . .       # .   -   o   +     X # 2 N *.  .                 - w . . -   . . . .   .     . o o o . . . .   X -   . . . . . .   e u   . . e 2 o   . -   o   . . . . . . . o & . . = = . . $ & $ $ . . o . & h z -   o =   . . o o .   o & . & .   = =   & . . . . . $ o o . $ $ . . . . . . . . . . . . o   . . . . . .   . . . .   . . . . . . o . . & .   - .   . - . = .   i.+.    o o o . u P  .-   . . . u . . . o 1 . . . & L N & z = . . . .     o . . . = . X     . j o X     . . . . o z L - . . i -   . .   3.T     o 1 . o - 1 .   o o   o     - ` o   = . . -   t e - - .   .   z _ M X       . o   w       .   o . e w & t o                 . e o   X   K i , o       X               X                                     #   . .     #   X #   X   X     X X .       X X           X                                           # # X                         - ! L X                                                     # X       X #                                             X X                             X                                                                               X     ",
"                                                X                   . . .       1 # X               X     = &       . . . .     .     .     a.w           . , j         . .     . . .     . X   . . . .   . .   .   =       = . X   . . . . . . o . . `  .o . . .   o   P n.        .   . . . . . = . . & - o o $ ; = . . . .   o o = = .   . . =     o   o .   .   . - . . = o . . . . = - & . . . . . . . . . . . . . . . . .   . . . . . .   . . . . . o . . . o   .   o e . .   . o . -   o ;   oXW.  X .   $ . & . -   - . . o   . o   N ~   o o . z e . N & . . . o . . - e .   o   X     & o X X   o . . . =   . o   . = 1 1 . $ = . #   . . . . .     . +         . .   & 2 . o . . . = . - o & o . o . o             .   & o L o .       o     o .   .                       1 #     1 5., . X   +         # +   X X   X                 . X .             X   e t X     X   X   X X             o # #                                                       X       X                     . o .                                                                   X                                           w M w                             X                                                                                     ",
"          X X   .                       X X X   - 1 -     . X     . o X   X X                                                             X X #   o   z e   -       . = .   -       ' J.X .       ! X.  -   .   o     . o     . . w     = . o   . o . . . o o . = o o   w z     . = . 2 2   . . . . . . . o . . o & o = . = . . . .     O.l     . . . . . . $ . . . . . . . $ - $ $   =     2   . . - =     . . . - . o   . . . . . . . o o .   . . o . . . . . o . . . . . . . . . . . . . . . $ $   . - .   & . o . . . o . . . = - - = . . . . . o . . . .   $ -   . X   o o ~ u     o     . o   o   X   o . .   o . . . . = . & - . . .   o . o o   = .   . R -     . . . o o . . - =     .   o - o . o . X $ . .   o   h d.. . X .     . X o .   X - - X   # o         X     # w #     #       X     X       X X     X       .   - . l .       X         X X     # # X                                                                                                     X     X       X     .   . 1                                                     X                       # X                     O X   b yXH.o     X           @ X                                                   X     X                                     ",
"        X # #   X .                       X X   ! P t X                 X - #                                                                 X o   o m.].X   X   - . . 8 =     . . N X.. #   o X M T   2 . = .   . & - o   . o . l 2 = -     o . o . . . o . .   - 1 .   .     = 2 & & o . =   . . . . . o & & . . . . . . . . . . o #  .t X   . - . . . $ 2 h . . . o . . . $ . . ; u ].-   o   . .   . & = . o   &   -   N o . . . . o o o . . . . . . . . . . . . . . . . . . . . . . . . . $ ; o     . 2 N   . o = . . . . . o o . . . . . = .   . o . . . . . = ].z #   . z   . o   . o   m j o o   # .   W ! - . .   -   o o o . . o         o -     ! | 1 o       . . . & = . . . . o o o . o . . o     . o & X X   & h   . X X       .       . X o .   X   X     X .     R w   # -   . #     X       X X     X     X .     . o o .   .     .                               X                           X       . X                                                       X X X   X         . . &     1               X X               X             X X                   + w i #                   X     o o B .   X         X                 X                                                                                     ",
"          # # X                   X X     X X   o o .                   X - #                                                                     w     -         - . . .     -   . . o   .       X #   .     .   . .     . . . . . M N & . . o . o o . . . . .   L -   X   -   . = = .   . .   . o o o . . & 2 W h =   . . o = . . .   -   . o   - .   . = l N = . o = $ . . . ; $ . . h..   = o . . . o     =   t . . .   - & . . . . . . o o . . . . . . . . . = & . . . . . . . . . . . . . . & = . X     $ & . o - . . . . . . . . . . . = . . o ; - .   . o o    .X   o - - o o   . .   . z - & . X       2 w   o =   -   . . . . . o   &   Q.T       # 1   . .     o o . . o o . . o o   X   .         X o .   X           . X o .       . . .       . X       # X     -       X         w -       w z     #         #   X   -   .   X             X                                                   + X       X # X               X                                                 X 1   - u o       X           X # # X                   o # .     X                       #                       #   X       X   X               X X           X                                     O     O                                     ",
"          .           X           # #                     .                 X                                                                     z 1     X .   .     o . . o     .     . .     .     .   . . o o & o     . . . .   & 1     .   . . . . . . . .   .   o . w | o     . . . . . . . o = = o . o & =.j &   - . = . . . =   o   . .   1 .   o o = e . . o = = $ . . * & . &   . = . = . . o . . . . o 9Xu   o       . . . . . . . . . . . . . . . . = ; ; = . o o . . . . . . . . . . . . . - . o z l . . o . . = . . . . o = = = . . . o - - o .     o -       -     . .   - 1 . L .   e o   o o 2 .   o . . .   o     . . . . & z X u.t - -         . X . . . . . . . o o . . . . X             w -     #             . . .   . .   . - w - .       w   X   . -     ..i   P P     X e X     K X.  X T 1   # . .     r [ X     # X     X     X                                                   # X       X X X                                                   X     X #     X   X X.P     X X X X X       X # X X               . & 2 2 - .                                 X           X X X         O X                             X                                                   X                                   ",
"                  . # X X     X   # # X         X X                 X                                                                 .         o   .   -   X   .   . .         .     o o   o   o     .   . o o   - l 2 o . . o & N     =     . . . . . . . . . . - .   . . .   o . . . . . . o . . o & & o . . < .     - . . . . . = . = . = . 1 z o . & .   . . . . & - = $ . . $ - ; & . = = . . .   . ! ~ . l o o     -   - . . . .       . . . . . . . . . . - - o . . . . = . . . . . . . . . . . .   - ! j .   o . . = . . . . = - - $ . - o     . = .   -   i |   - .   e   . o       o -       - ~.N   - - - o . o . . . . o . . o & M o     x e - - o o . . o o . . . o . . .     . - -   X X X X X w #     e X X                 . X t o   X       -         - X   X X u.r   u.;.  X   X X #   X K # X K X   -     . # X #   X +         X         X X                                                                                                                           X       #   P p.X   X                               o o o o & & & o                         X                   X                             X @   #       X                     X                       O O     X                                 ",
"                    X X       X   X X X                                                                                         X . . . . . . .     o       #     o .   t e   o .   . o     . .                   & 2 - . . . . o P o   -   X . o .   . . . . . .   o -   . - X . o .     . . . .   . o - o . .     . . . . . = . .     . . & = 2 e o . o . . . . . o & = . . . . & $ . . . . = = . = . . W ~ . o - .   .   o   . . . . . . . . . . . . . . . .   . . . . . . . = $ . . . . . . . ; & . . .   . o   . & .   . . . . . . = = . . o - - . . . o .   . u.{.  X   e ; . . - & o 1 1     e 2 . h.e ; . .   W ~ & = . = . . . = & . & . - & . $ ;     o . . . o . . = o . . o .   . - w .     # #   X   X X o                     X X X   . t i X       a.qXw     X o X     # w #           -     # .   X         -             #                   X X                                                                     X X                                       X   X w         X   X   i ..  X                                 X .       . . .                                             X   X                         X         X       X               X X                   X         X                                   ",
"                                    X X X             . X               X .                                                     o X . . . . . . . -   X     . # . .   # +.X..   o . o . . 2 . o . . o   .   .   . .       o .       . =     o   1 o .   . . . . = . . . o .   .   .   . o . o   & .   . o . . . o # o = . . $ & . o . & ; - = = o $ . . . . = $ . . . o . . . $ $ * . - . ; . . . . . . . . . . .   . - .   . o . . . . . . . . . . . . . . . . . . . . . . . . = $ . . . . . . - ; $ . * e =     . o o . . . . . . . . . . . . . 1 e - . . . = o     - - . . . . &         o   X   M 2 . .   o o . . ' *.& . . o . o . o =     o   $ . . o . . . . . . . . . . . . . - o . . . - .   . X X           . & .   + .           . . .   . - - X       T S.    w - .   X # X         X         X X       X     - u . X .     o M -   X       X #     X X X X                           X +                           X     # # X   X                                     K n.i X         # o                                                                         X +           X           1 n t     X                         # @     @     X           . . o o #                 X   . .   X                                   ",
"                                      X X                             X                                                                 . . . .   o   X R . . . .   X     X   o   . .   - N . . . . .   o         . . o o o . . +   . . . .   # u - . . . . . .   . . .     . . . .   l z . . . 2 & . . .   . o . .   $ $ 2 $ . 2 -   . o = . ; . o . . . . $ . . . . . . . . = * $ . . = . . &   = . . & .   = o . .   = .   . o . . . . .     . .   . . . . . . . . . o . . . . . . . . . . .   . . $ ; -     . o .   . o . . . . $ $ $ $ . . z - . . = & . .   -     | . = $ . . . -   - X.1       -   o o = . . o . . . . .   . o   . o . o .   o   & . X X   o - . . . o   o .       X o   . . - o       o X   . 2 L o     .     . .                         #     X .   . X X     X .   X               . X       X .   .     . o . .   X X       # w X     # w #               .           7 r #                               # #     o                                   X T n.      X         X   +                             .                                                     X         X t 1   X                         # o.>XY                     o - & o w X             O   & 7.7.&   O                                 ",
"    X X   o l L     X                       . o                   X     X     w k o   X   X     # N.r   X   .   .             .     . . . .   .     . . p.- o     . . . . . . . j j   X     X X . o -   o   .     .   . X .   . . . +   . =   . . & - o   . . = . .   ;  .. . .   - . N 7.. o   2 - . . . . . .   . .     o o . = o . . . . . o . . . = . . $ . . . . = - 2 - . . & 2 - . . = ; . =   . ; .   - . e - . . .   X   w . . o . . = - . . .   & - 2 =   - . $ . $ * 2   ! j   . + . o -   & o   - . .     . . . . . . . . $ = . .   j o o   1 - .   = ! = . . . $ . o . & 2   o ! -   . . o o . . . = o .   -   o . & . .   . .   X o .   . o     o . e t   -     #         o 2 - . . . . . +     X     +     o             . . . . z .         o . . . . . . . . .       X     #     1 M   # X u X   - _ X X     X   .           &   X #                 X X                       .   X     #                 X         X                                                                                                                                     - i                                                         #   p eXY.0         X         X                             M i.R                                       ",
"    + X   . 2 e X       X                   . .                   X           - m . .   X     +   T -   #     .     .     #     X . .   . & X   X       o e j       . . . . . . 1 ! o i 1XO     . . . .     . . o o .     . . o -   . . . = .         . o & .     j . = ; & . . w     N 6.o   - o o . .   . . o . o .     . . . . . . . . . . . . = = . . . $ & . . . o - 2 - o $ $ . . . $ . .   . - . o w = . . ; = . o .   X o ! l . . . -   .   -   .   & z   e   . . . l . . 1 4.j . o o   . h &   o z W   . .   . . . . . . . o $ . . . . . j 1   e 1   w . =   $ ; . - x   . . h 2   - 1 . o o o o . o o & . .     j   h o   . - o . X.3X    .     o o         -     #   . .       o o     .   . o   X   o . w   . X                 . . e .         .   . . .               i     X X X   L +.- .   o     1 M     # X         X X     . + # # X                                         X   +   X   X                                   X X X + X                                                                                                                     #                                                     X         @ 6     o     X                                   @     .     X                                   ",
"X # r -     .     X     X X     . .                                           .     o     #   .     X         . X             L K X . . . .         X o   t t   . . . . . . . .   R.T # n.  . # .   . -     . . . . =   . o   .   o =   o .   & o . . . . . = - -  .w .   = . .   o j   & o     . . o . . . o - . . . . . . . o . . . . . . . . . . . . . - . . . . . . . o o . . $ o . . . . . - . - . -  .l   . & . . o .   .   1 .       o o o .     - O.2 . &     - . . . o .   & .       - . & o   o N z . . . . . . . . - . . = $ . . . o   - - o # X     . . o & . . & W = . & E 2   2 - . . o o . . . o     . o - :.- 4.e & = .     w u.-     o .       o   -     n.z   - o .       . . o   M 2 & 1             o     .                 .       X # & . . .   . . .     X   1   T #   X X       X   . .   X X X       + 7 .               + +           . X .                                   @ X                                                   X                                                       . .                                                                                                       X         X         O                     O 6 @                           X X                                   ",
"    X X     .     t e           . .                                             _ P       -     o   -   . o & & .       X     ! P . . & . .       o i . e e o . . . . . . . . .   w X     . & . .   o l . . . .   . - . = ;   X   w - . o o   .     . .   . j `   &     = . . . w - L o   o . - . o & = . . o & o . . o . . . o . . . . . . . . . . o   e L . . . . . .   . . . $ = = o . . . . .   - . . ; = = . . . . . .   .       . o     -   = . = o :.& . . = o o   ;.i   2 2   & . t - & o   o o . o . o . . . . . . o - . . o . . . . X . . . o     - O.P . o . $ . . $ . . = 2   . ;   . . . . o o . . . & .   . o   o .       o -       . o     u z     M.P   e u.- # o .           o     N m f j   # . `   1 -   .     .     .               X - - .     . . . .       # X - - ! 8X      X #     e ;.  X       # # X 7   o   X   #                     X .                             #                                             X                                                                   X - - X                                             X X                                                     X     #       X @             X                                       X                                         ",
"X               o W P #   O X O . .                                   .         . w   . -   .     . .   o o - -   .     # -   . #   = .   - -   # z P   1 -     . o . . . . . . X       e 2   = .   o l . . . .     . . . &   o o   . o   j L   - . . . .     o ! z .   & . . . 8   . . .     . . . . . . . . . & o . o o . .   . . . . . . . . . . o   e L . . . . . . . . & ; - $ . . & ; & . o - . . .     . . . . . . .     . o . . .     . .   o .   o   - -   o . o tX! #   & & *., j & . o . e =   .   . . . . . . . . o . . . . . . .     - .   . . o h.~   o . - . . . . - . . . . o . . . . & - - & o o & . . -   2   o . = = .     t - o o . . u z . o P e -   . -           o .   .       4 j o X   ( (.,       X .   . . . . . X X . X .     . .           . . . X w   .     o - .   X       o . .   #   X         +   - j e O                           # #                         s.xX|   5                                           X X X                                                           X X                                             .                                                                                 X     #     X     . * *                               @                                 ",
"i #   X           .           X                                               X X   X   . P .     X     o     o   . .   o -         & .   & X   - 1 1     .   . . . . .     . . #   o =     =   o   . -     . .   . . $ & .         . .   j P         . . . . . m.;.- o   =   o   o = . . o =   . . . . . . . . . . . . . . . . . . . . . . . . . . .   . &   . . . . o . . = ; $ . . . $ & = . ; l . . l e o . = . . . . . . .   . .     . .   o     o   o . . . & . e   o   . & . o 4.t t - j o . - o   o . . = o o = . . . .   . . . $ . .   o & o . . .   = -   - o   . . = & = . . = & & o o . . & - 2 & o 2 o o &   . &       . . .   - _ P .   1 -     o .       X       . o . . - -   . X X   o -               . . &       . . . X X X . o .         .                   X   o o       X # X     X     X     #   X   X     o ) t #   X                       # #                         3X{.  5 @                     X .             X X X                                                                           X           X X                   X o o                                                           @         X X   X                     . * V #.                        O                                       ",
".                       X X # -     . X       .                               t M   X - M XXe   X X   w #     . o   . .       - #   . & o     X .     - .   . o . . . .       . o   . ; . . . = . . .   .   . . X - . h k $ o   o L w   .       o o o . . . . . o .     . - . .   . & & .     o $ . . . . . . .   . o . . o o o . . . . . . . . o = = . . .   o . . . . . . . . . . = o . . . = . - - . & - o & & . . . . . . . - . . o . .       o o u   - -   - - .   - . . o & - . .   & .   o     o . . . o & = o o o . . .   . . . . . . . N . . .   = - .   . .     ; =   &   . =     o   . . . o o o o . - o o =   - o o . . o . . & . o o . . . . o o .   e   -     -   . - & . - -   .   X u     o   R 4.  - -     - o     . . . . . .   .     . . . =                 X     .   - w . .       .     #         # +.P X . 1 < f & .   X                       X X     X                   #   # +   . .               . # X             M i -                                                                               X X       X                   o - o                                         X                     X X                 X X             o * *                 X           X                                   ",
"    X X                     . .   X X X     . .                         X   # T ..#   .   &   +       #         X . #     X         . . . .   X   -     . . = . . . . . . . . o   o - . . .       . .   = . .   . = . * d . .   . e o   X   . .   . . . . = . . .   -   =   o o o . .   . - . - = = $ . . . . . . - 2 =   . . . . . . . . . . . . . . o .   .       . . . . . . . . . . . $ $ . ;   = . . &   . & . . . .   . . . . . . . o o . o   . - =   z . z +.. &   = . & o . o   - .   o o . . .   . o . $ . . . . . . .   . . . . . . # 2 . & . & . . =   o . - o = . o . o .   . X   o . . . . . . . .   -   . . . . .   . . . . . . o     . . .     . .         #   X . 2 -   . .   . X K K         3 l o     . o . &                   .     X     o .             X       X . X       . .   .         X z X   w # X   j A . .   #                             X X X                 X                           X - # o X X             .     .                                                                         # # +                   X X   X - o                                         - # X                       -         X                 O @ O                   .   X @                                         ",
"    X           X X .             . X o           X X     . .   .         . .   .     .       X       X - w o   . . . & . e 2 o &   .     . . . X   . o   . =       . .   . . = . o         .   . . . . . & - o . . o . . . . o .   . . . o o     . .   . o o . .   . o .   o & . . o . - l - . .   & . o =   o . z j .   . i.e -   -   . o . . . 2 . . . .   o . . . . o = o . . . . . . . . . $ - . = - . . . . . . . . . . . o   - .     . . .   * 2 . . ; . & l o . o   & . . .   . - . . . . . o   z u     o o . .     . . o . = = -   . o . . . . . . . . =   - 1   M .   . =   - . . G .   . e ,       o . . . o . L . . . o . . .   o .     . 1 t -     . . .         X ; . .   ! #   O o   .     o     . # .     . . .     . .           X     o . . & -             # o .     X   n.R   +     . .     X X X .     X - - X     .       X     #   X +             X X X       X X                                   X + X   # r   #   X                             o ,             . X         X     X                     N.N.    5                   O                                               o   - -     X           . - - o                                                                                                 ",
"X   X                               .           X                     X     .   .   . o X   X -         # # X     - o . . l u .     X   #     =     .   . z G . o . . .   . o .       . o   . . . . . . . o o   & .   . - .   . o . . o . o o . . . . . . . . . . . o .   o j L . . .   o - .     .   o   . o . . 2 z o o - ~ e o -   . L !   o o & & j -.& =       . o - & .   = o . . . . $ & . ; . . $ = - . . . . . . . . . . 2   o - . . - . . d j o . = .   - . . o   o   . - - 2 - . . . . . o   u e o = . . . . o o o = $ $ o . . . .   . . o o . . . . . -   X   _ t   . .   .   ; ;   . o e & t 2 o   =   o   1 z     . .   = =   . . .     . - o   .       . . X - 1 - . .   -   u.y.  u   -     #     ! .   #     X .             .   X     . .   .                   . X   # X T #     . 2     X   L e X           . .         X X   +           X           X .   # X                                           X #   E.{.X   w                               . o               X X X           #                     i w   X                                                                       # | _ #     X           . .                                                       ....X                   # i X               ",
"                                            X - e X     X             X     X .     . o X   X #                         . .       . X       o       .   . z z .   .   .     -   . .       . e l . . . . . . .     - .   o - .   - . . o . . o . .   . o .     . o o o .     o . o   . . . .       - . 4.4.o = 3.& o j . . o o   ! ! o - x.S.- . = . . h 4.. ; . ; o . . . . . .     . . . . & ; - e - . . . . . . . . . . . . . N  .. o .   o   . . 1 h &   . o   .   = o . - . o o . - & = l x o . .   o o   . o o o o . .     . & = . = e -   . . . . . . . . . . - M.w     . o . . o o ! - . . . & h ~   . . = -   - -   o . o .   - -   . . . . . . - o .           . o o - . e j     # MX}.X     h.1   X   1 o X X   X X   .         . . .   o X   . . . .   . .       .   o - w       X r ! .       .     - .     . X                       X     # #   X                 X X                                                 K K                                                                 + X                     X         X                                                                     X   # X                                                                         o oXdXa.  X X             # i [                 ",
"# X   X X                                 . # - u o   . X       X         . X         .                         X # -   #       3.E.u.# X   - - .   . .   . o . & e . o     1     1 - .   . o   & - = . . . . . . z u . .     - w .   . . . . .     . o .   . - . . . . = 1 -   o   o . . . . & e W   k f . 1 4.=   - . . o   & . 2 z = - o   o . =   o ;   & ; N 2 . . . . . = o o o o $ . . . o = o . . . . - . . . . . . . . o ; .   . . ` -   . . $ & . . . o .   o . . - & W l = = . . = . = o o . o o . .   . o o o o . . . - & - - z - . . . . . . . . . o   o i.#   o   .   .   o z . . o & & . &   j z   ;   ! z   -   o .   - - . o . . - - o - & .   .         .       X . . o K u.      e h.  t #   o       X   X         . o o .       X .         o . . & o     o     .   .   + | m.  e    .(.  .                 .     X X       X     #     X                           X # X                                   X X       #   #                                                         # X                         X   X #                                                                                                                                                       P t                       X #                 ",
"                                                .                                                         .       z K   . # -   ;.L -     r !   .   . o .     o . $   .   # T T   - - o . - 1 . 2 w - & . . . . o w - & o     P j o . o o . . . .   . o o . o 2 & o . . = e e o .   o . . . . ; -   . N & ; 1 . . . . . . .   o $   - .   . &   . $ . .   . . 1 - o . . o . . . 2 & . . o = = = - . . . = .   . . . . . .   . . . . - o .   j & . & o . . o . . $ . . .     & $ ; .   = = = - .   . . o & & o o . & - - o . o o . = o - = ; .   . . . . . .     . 2     o w .   . . o   o     - o - = .   & W j - .   o   .     o & . o & & - o o - - . . . . .         . . . .       .       0 . o     & 3.#   . o   X X   N.s.      . o X .     . o #         o . . o o . . & w     - +     X   . & 2 ~ ! -   .             X .             X X   X X                                 X - #                                       # X                                                         w - X                             X     t w   X                         X r w                                       # @                                                                         X X         #                                   ",
"    -       X                                                       - 1 .                               . . .     - w       o     . o   X   o   . . .   .   . . o & . .     - # . .   . o - z M . o o o o . . .   .     .   o M w o . . . . .   . . . . . . . - = . .       .   . . o . . . . - . . = & . E N   . = . =   o .   . o o - . = . . &   - . o .   & . . . . = . . . o . . . o o . . - & .   - l .   . . . . . .       . . = . o . W o 2 2 . . . . . . . . o . . . . . o . = o . o   . &   . o o . . - w u - . . .   . . . o . . . o . . . . . . .   o o & . - .   . . . o - L o - . . . . -     o & -   -   . . w o   o . . . o - . . - - o .     . . .   . . o . . +   & . .   i         . o o   w o   X     X /.+.            . . . . o #           o o     - - o       o     -   o     . o j e                 X           X       X     K e                               X .                                               X                                                   - - X                                   X X X                     X     # i t X                                 X                                                                               X       X X                 + #                 ",
"# i ;.X                                     . X   X X             . - 1 X   . . . .       . . .           . . . .     o     . o o . w +     o   . o .     .     .     o .             o o             . . . . . . & .           o . . .     . . . . . . . . . .     . . . . X . . . = . . .   . = . . . $ .   - . . . - . ! P 1 & & o e . . . . & . =   = . & & = = . . . . . = . $ & = .   . -     .   - z ; = . . . . . . . . = . . . . o   L & - ; $ . . . . . = & o = = . . . - = . . . o . N P o o & = . o   o & o . o & = . . o . . . $ $ . . . . o . .   -   . .   2 -         - L - =     o #   # #   . o & . . &   ;._   .   . .   .   . = & = = .   . o . . . . . .     . - .   &   -   . 1 &     .       -   w 1       . .         .           X #     X X     - #     o #       X   X   . o   . -         X X             X X     X   X   X | K X                 X       X                                             + X     #                       . .                           .     X                             #     o                             X X                                       @                                                                             X X     O                                     ",
"  w a.X                                                         .         . .   . .             . . .         . .     o   . . . . z ^         o . . . . .     # 1     . . . . .   .     . . o   X .     . . . . . . . . . .       . & o   . o o . . o o o o o   =     . . X X   . . & . . = . . . . . $ $ . - . $ . . o   ;._ e j   . & o . 2 . . . o . . . h 2 . . . . . . $ $ $ $ = .   - T u..   o . . .   . . . . o o . . . .   = . . o , . o . . . . . . .   & - . $ & . o o h & . . . .    . .o . . .   o . o o . . & - o . o - . = . $ . . . . . . . X   . .   -   o   . . . . .       o .     i N.|   - &   . =     - X . . . - =   . . o o .   . . . o o . . . . . . o o   . . . . o     1 t     o   . o .   X - o   o   . o o X         . o   X F K X X       X               #               . X   X             X - z     X X   # | #   X   X                   X #     # - X     o                 X                       #   X +       .           . o o .                         X .                             @     #     o . .                                                             X         X                                                                     X     #     5                           @ # X   ",
". .           .           .         .   X     X O           .   . . .                     . . . X       .       o   - o   =       w i -     .   . . .           . .     X   o .     o     o   o o . o = . . o . . . . . . . . . . . . . . o o . . . = - . . . $ . . . . . =     . . . . . . . . . . $ . . . . $ = = . - h   . o $ . $ . . & $ $ . = $ o o .   -   o - - . $ $ $ . o   . -   -  . .o   = . . . . o   o 2 o . o   = . . ; . = & $ . & - . $   o o = . o . . o . . = - . . 2 u &   o . . . . & - - . . . $ ; & .   G {   & -   & o   o . . o   . . . . o = o           X   X   # . - o o ;.N .   e - o . . . .       o . - o . - .   F i   . o . . - .   o   X       o .   = .   .     . .   o - . .   .   X   # .   # # X     X     X r   + iXn.  5     o . .   + X     X X     X           X       #   X   h.3Xo o           X w     X       #               - K   M gXT       .     X         - # X                                   . . . .       X .                             X #                 X X             X X           X X                                                                                                       X                                                                       X X     ",
". .         . .               . . o   .     #           X X . - .                         . . . .     . .         o  .P .     #   X #               .               . o # o     .     o 1 W 4.o . o     = .   o   . . . . . . . . . . . . . o . . . $ = . . & - .   . - z z - = . . . . . . . . . $ $ = $ $ = & . ; . 2 C.OXx.j $ $ & $ . $ . & = .   . & o . - -   z  .= . & % o . . - ! - o . -   . . . w ; . o   . o     o . . = $ . . W Z . o & . . . - . . . . & o . . . . . . . . . . . & . . . . o o & - o . $ $ . -     = l . . .   . & o   o o o - .       . . . . - i X X       K e   . .   2 o   . o . . . $ . . 1 L - .   & o   . . +.i R w   &   . . = o   .     7   #   .     .       o o   = w -   o       -   -         # X X     F   -   u w     #   p._ #         X # # X       X       X X X       .   M X.        . X     X       w X       .     .       X   e @.O   X X   X         X                   X                         . . . .           . # .         X X       #     X X + X         X X         X X       X       X .     X X X X X                                                                                                                             #                 X # +                     ",
"                .             . . o     . 7       +     X     .                         . . . .       . .       X   - -   o     . X X X o # o X . . .   .       .   . . X # o o   # X     A.yXz - :.!   . - .   . .     . . . . . . . . . . . . . . . . . . = . o . . . - =   . . . . . . . . . . . . . . . = = . . & - N bXcXm & & o . $ . . - . $ & & .   z j.. . = 2 . . . . . . . - L . .       = . . l ; .   . . . . . . . . . . . = ; - * ; e W o &   . = - - 2 - o . . o . . . . & . . o . . . . o o o o e . ; . . o & . . o = . & l . - - o L e . .   = o o . . . o e L .     ].n.i X   . . .   . . &   .   . = .   - R - - o o . = 2 o +.- #     . . - . = . o +.R     X   z X o . .             o -   o       X   #   . o # e   i       9X..  w X       X   1 o     .     X # # X             X       X       . .   . X .                 1 +.t 1   X                 X     u.w.  @ X     X       X                                               . .     1 N Z m 1   X                       X                     X X             X       X       # .                                                                                                                                                     X X X                     ",
"            X   X .                 o .       o   X X     X .             . . .                       . X .     X         . .   X     . o X .   . . .   . .     X -   . X   X   o X X .   . - 1 . P z . . .   - . . .   . . . . . o . . . . . . . . . o . . . . . . . . . .   = . $ & - = . . . . . . . . . . = &   o & & &X.X& & o . $ j h . & . $ - - o . - E . = . . . - . .   .   o .     - .   o . . - $ . . o o . o .     . $ . . . o . $ $ ; ` . & . . = & . = . . .   . . .   . & o     . . . . . . . . . . . 2 = . & . o . - . ; x = - u o j w . & .   . . . . . . . o   o   '.+.  . . o . . o . o o . = . . . o . . o . & &     o - . # e   . - .     . =     K e       n.e     X               . X   X #     # M   o .   ;.E.      .   #   X X   . o     w . - - X         X X               e     .         . .   w & o .     . X .       -                   . X X w   T xXV.      #     X         X                                             .       - ; & .               X # #         #   X               X X       X X                   o X X       X                                                                                                                         # #                         X X X           ",
"                . . .     o X   z g.& < M.,   . X   . X     o             . . .                 X       X # o .     = o .       .     . .       . . .   . .     P P       X ! !     z e   - z !         . .   o . . . . . . . . . o . . . . .   .   . - = . . .   . o   o &     . $ - - $ . . . = = $ . . . = = o o . o - h . o o o & h W m o & - o . . o .     ; . = z & o o . . =   & . . . . .   . . . . . = & & .     . . . . = . . ; e & . o o . = & ~ = . .   . . & ; = .   . . . . . . o . . . . . . . . . ; . *.&     &   . - . . = . o - . . & . o - . .     o 1 - o   . . o #   o   . o .   o   o . o o . . . & - o   . . & &       o z _ e . .   o & . o           -   X   - X   K T   o - X     . o o       i i.        e   o     - X   X   X o     .     .   .                           X z - X - . .         X #   . .               X X   X +                 X   # # 5 O   @ y.P     X             X o X                                       #     .     X X X X       X       X #           X X                 X X                           w i #                                                               X X                                                         # T P #       X             X X X X           ",
"        . X       .       # - o   W o n 6X4.X   X     .                   . . . . . . .         .       . o o .       . . .     . . . . . . . .   .               -   X # o K w . = . . . - R  .X . - o   . o   . . . . . . . . . . . .   . .   .   . - . . . . . = - .   .   = . . $ . . . . - = = = $ $ . = = . & &     & & & o $ - - 2 ; o 2 $ $ & o . . - - . . . 2 - -     . . . - ; . . .   . & . . = . . = o . . . . o o = . . 2 N $ . & $ & . - & E = . = . . & e z - . . = = . o o .   o . . . . . . . . . . z -   N ` . . o . . . = .   . . o     - o o . . - t j - . o   .   # -   . . o o -   2 . o . o . . . - - . . . - - . . o & o o z z o . .   o     w   # .   -   o       5Xp.  X     o - .   . - o       - . X # ! -     o   #   X   o o . o   # O.i   #   X         X       X       1 o   o X     .     +   . .             O       X   X       X               + r     # eXR X   X             X , , o                                           +         X P +.P X     #   #     #   X + X X                   X X # X                     # r X                                               X X           . 1 1 X                                                       # R i       X                                 ",
"X     o - - # .       .     - i L   &   .     X   X .         -             . . . . . . .         . .       .     X . . .   . -   . . .     . . . . . .         . - X .     .   .     -     e   o   o 2 .     = . . . . . . . . . . . .   . .   . . . . . o o     o - o   . 2 ` & . . . . . . = . . $ $ . . . .   - . . ; ; $ . $ $ & .   . . ; . . & 2 & = o     -     - e . o . . . e ; . . = . - ; . . - . . . . ; u - . . . . . & & 2 . . . . - 2 o .     . o . o o - - .     . . . . . . & o . . . . . . . & = -   . - j 2 1 o = . - = - . - .     o - .   .       X - o .   =   X T - . . . . - 2 o e o . . o o .   . o o o . o     & o . .   o o   . o X .     o     . .   o .   -   X X # #     w i #   .X&X  X X X . .               - . . X     o -       a.X       X                 X .                         .   - .           +     X X t X         X             - w   o #   X #             X       o 1 , X                                       X       X     X # X X X     +   X -     X   X                       # r #                 .                           X X                     X # # X           . - -                                                                                                       ",
"      . - - .   .     o     # R z       X   O O # +.P   . o                     . . .           . # - # .   . .   .   . o .       . . . . . . . - - - # .       .   -     #   . . - . . o     X   . .     - -   & = o . . . . . . . . .   . .     . .   . w e o .   = - = . o W ; = . . . . . . . . $ $ . . . . - 7   - & ; ; . o . - & o & o . . . - 2 $ . o o .   . w .     & = = . x = = . $ . o & . . o . . . . 2 l .   . o = . . . ; $ $ . o 1 . = . = . = = . = . . . . o . o o .   . N f.. . . . . . . . . & . # - D.z & - . ; . .   . o .   -   . &   & . o .     . . . o o .   T G   = &   . . . . . o . . . . . . . . W & . . o o   . t W .   o   -   o   .   #   o . o . . . o         X     X X     2.Z .   # 7   .   ..|   +         X - . . - ; = .                                 . . -   X . X   + X           o X   o # X       X     #                         #   .                   o             X                                                                     X   K sX2X    X                           X X                   . X                         X X X                   X w w X                                       X                                         X                                     ",
"            . o   X     X .                       M 1   o 1   . .         .   & X   X X       .   o = o . .       .   . .   . . . o . . . . .   =   u _ L       & - . & .   o   .   - e O.o   . o - & . o .   . . . o   o o   l o . . .       . o . .   . . .     &   . = e - . o . . . . . . . . = - - = . . . j & & ` & .   + $ o & - . . ; . & . . . = . j - .   - -   ; l . = & . . . = - . . . . = $ . . $ . . . . .   . - o . . -   . = . . . . . . . . &   -   = = - -   . o   o w o o e . . . . . . . . . o   - 7 i.- . . . $ . ; -   . .   o o   . .     o - .   . .   . . . j & . . .   o - . &   ` e           # 1 - T a.T   z e   o 1 1 o z 2   2   X   o =   = h . o .   . .   .     X     . . . = .   X . +.-   o   u.Y   X X       #     o     2 o   M   o       o   . .   .   .   . o o X . . X .   -       K w         # X       +               & ` o 2   o                                         X       X                 . .                                           X   s.qXK   O O O                 X                                                                                                     + O                                                                                                       ",
"    # # # - 2 j X.z X   X                       .     #       . X   X         - -         .       . . . .         o . . .   .     . . o .   . 8 -   . e t   X   . o . . . . .     -   . u X +.K o 2 - o o o . . . . .   = 2 o - o o . .       .   . o o . . . . = . o ;   . l -   . . o o . . . . = & . . o z ! . . . l   o o   . o .   - -   ; . . = = . o o & . -     - ; = & $ . ; . . 2 & o . . $ . . . $ = . . . . .     .   & . . . o . . . o . . . . .   o o . . . - . o o =     - -     o . . . . . . . .   -   . - o & . . . $ ; .   o . o . . o .           . .   . . = .   - o   . o &     w $ . z 2 # .   . . o & .   K #   o 1   .   o   t L e -   .         o = . o   - . o z o .       & . o . . - . .   X         1 X # #     #       + o   , =.M - D.. t     - -   .   X . -     . X X .         #   X -   e w   X X -       1 +   w -     # # m 1 2   o X       .                             X w X       +                   .                               #       + # X   O   @         X X X                                                                                                           X 5.L                                                                                                             ",
"    X X     . - K     #     #                     M.p.    -                 o j X   X         .     . . . .     -     = o . =       X o .   # l e o     o   .   . o o   . . . = . - o o . # cXpX. & o . o o o o . . . . o - o . . . . . .     . . . . o .   . . . . . & -   . . $ . . . . . & - . . = .   . e L o = . z &   o ; o & & &   - =   . . . o $ z . o . . . .     . = . . . = e .   . . = = . $ = o . $ . . o o . . . & z = . . = . . . & = . & j h o & . o o . e . =   2 L - . =   - . . . . . . . . $ = = X o   . & . =   ; -     . . w     - . . . - .   . o     o . . . , e . . . . o o   :.2 . =     . . . . o o -   - .     2 j . .   . z e       - X . o     P 1 .   .   1 ..o X     o   o o .     . X K K           o     .     . X .     . , o o .     o     . # i w -   X       .         .   .       o     o     e   -         - # o #   X t o . -   #                                       1   X     #                                                                             X X                                                                                                                 X j -                                                                                                             ",
"    X         .   X   X u.i   X                 .   # X     #     . X       . ;     X         .   . . . . .       W u   o X   X   X .     - - - X o     . o 8 w       . N W o . - . . o     i ..  . . . . . . . . . & & . o o . . . . o o .     l -     . .   . . = . . w . = . $ . . . . o u M . . . o . .   . = -   . . o & . o & . &   . =.; . o . . - x = . . . . o . . . . $ & . & o . u . . . . . ; l 2 $ = . . . . . o - w z = . . . . . . & $ o 1 m j - o . . = - l = . - & -   e ! -     . . o o . . . h 2   o . . . = . =   1 - o     u L =   .   -   l - . o o     .   o & 2 N o .   . . o . - 2 . . e - o o o & o   . .   = u   j.3.o . .     .   o . #         i G.-   o .   t t   #     . - & o . o   X   T i   X X X o     . -       # o   . .     o   .     - .     o .       o         . . o o 1 M e   .     #   # a.h.X     - X -     X #   X     X i       X                                   #   X   X X                                                       X         X   + X X     X                                                                                                                       X X       X                                                                                                 ",
"                  X   - $XT.w                     #     # X             X     . o   .     .         . . . .       -         .             o X   e z - . .   .       . . j x . o . . &   w w 1   . o o . . . .   . . o & . . o o . . o & - o . . N - . . . . . . .   - - & = z = $ $ & & o o o o = o . . o o . .   . & & - & - & ; j o 1 ! . - .   - & . = . o . . -     L N . . $ . & o . .   o $ o . $ ; 2 - . . . . . .   . o o .   -   . . . . . . . & - & . o o   w ; - o . .   &   o j o . . . . . . . . . o - o = e . &   .   . o o t .   = 8 o X   - R . - o   . . . . . . . . o e . . . . = z -   . . & . o - -     o & . l =     .   o .   o .   .   o       .       X   - o   o o         o o L ; o   o   o         . o . .   . .   . X   . -     . #     1   .     o X o | - . o   .         . X o o . w .     j R.      ..L     .         #     #   X     @     X         X       X                   -     X u.i                                               X X X         X     . o .   o P L .                                                                                                                 X X                                                                                                             ",
"                X   X                                 X X     w e 1         . . . & j w             . . .       # .   .     o   .     . .       . .       . = X   X .         . .   o X   R.;.  . . . . . . o . . .     . . . . . . . = = o . . - o . . .   . & 2 ; - o . o ; . $ = - & $ .     . o . . . o - ; -   & ; j &       & $ & d.W . . . - & . =   = . . =   . z j .   2 $ . - & e L . $ & & & $ $ . . o o & - = .   . .     u . . $ . o . . o $ o . . . o o W z .   . .   o   . &     . . . . . . - ;   & . - 2 = o   .   .   . z -       . -   w T X . .     . o o . o .   . &   . o - - L - j o   o   o t t & & z !   . . - . . o   o   X X   o o . o X X     i K X   .   -     -       .   t o . .   o . .   X       . . . o .   X X     .     X   . o   u o e   . . u m.-         . .       . .   #   X   . 3.3X  .   l     . -   1 L   #     X   X           #                                           # u.i #                                                     X                     P e                                                                                                                                                                                                                                   ",
"                        #     .                 o         X X   _ ! 1 X     . . . - N t .           . . . .   .   h. .  X X   o . . . o o     . . . . 2 .       .       - o X     #         o .     . o . . & o . 2 .   . . .   . . . . . .   .   . . . . . . o ! W =     . . - . . . . . $ - ;   . = = . . . &   1 C.L .   . - 2 2 - . 2 N & . o o = & & $ & . . . o o     & - j - . &   W ].o & . . & & & * 2 & $ & 2 ; = . . o & . e & o . . o o o = = $ = & . . & L z ; . . o . o o . . . . . . . . . o - u . o   . . $ . o o   o   . 1 e o w o # -     X   . . = o o . . . . . . - = . . . l .   w   & o   X     . o o .   o   .       . . o         . . .     o     - -   .   M M o - .   X   o 1     . . 2 L . o o .   . . . #     #         .   . e w     -   1 o   .   .   -       o   . .                 X   X     -     -   . . o   X.f.o     .   .       +     X           . & o   X                         X                                                       o e o       + X   - L       X                                                                                                                 X X           X                                                                                                 ",
"                #     o     o                     . .             .     X   . . j & o     o .       . . .     .   - #       X     . . . . = o   . = l ! -     X   o . o     | n.    o - . o . . o . o & . . o . . E j . . . o . . . . . . . . o . . .   . o . . . . = z . . .   l 2 - . . . . . o o = = . . . . $ . *.2 o - . . * h . ;   o . . o . e l . & . = . =     o   & ! o 2 . . 2 .   o Z 2 $ & 1 * & $ $ . . & & o . .   - . . . o . = . . . . . . . . & .   . & L - . . . . o .   o . . . . . .   . .     2 & E o & . . . . . .   z 1 -     .       X . . - - & . . . . .   2 . . . .   = o   &     o     # - X   . . # ].#   # - .     X     o .   o o     o - .   o -  .M w z .   o X   t X.  o & . $ o . e -   - = o   .     X         . .       . .   o     .   t - .   X.! t o   .       . . .         X     .   X w # X           -   o   X   .   #   +       o   X     & j d . + X                 X   X   #                                     . . . . X X X . . - .           X i w     #                                                                                                                                                                                                                                   ",
"                . .       .       . .               . o . .     o     .           X               X     # .   # . .     . . . .     . . . .     . . & - =   .       X o X   X - . o . . &   1 . . . . o o . . . & & &     .   o . . .   . . . . . . . o o . o o = . e :..   & & z - . . - . . 2 $ $ . $ $ . ; . . . . = & & $ o . . $ . $ & $   . - e - & . - .     o   ;.z . w . . & = . & & o - - . W 2 & 2.f $ $ $ ; .   X Y.1   2 e o .   o o .   z ~.W   #       #   z 1   h e o   o . .   o   o o   .   = . & e   L .     . . . . = $ . =       . . . . . . o .   . o . . o     o   .   - . . o .   . o . .   o P E & o o + |       2 o . . . & .   o . o . . .   w X .   - e   o     & .   . . o .   . .   o   . #   . .               X         . . . .   +         X   X   # ! K w X   - X.    #     & 0 X   .   - N .   z e -     o   . - w - .               #   - .           . .         .                   X     X   #     X                   X o .   . . X   .           . . .   X     X                                           . .                                                                                                         K 3.r       X                             X                                     ",
".                     +         X # #             X     o o X   -   X                     . X .   .     u o . - . . . . . .     . . . . . . . .   -   . o o .         .       o - = . . .   j z . . . . . . . . . o o   . o . o = . . - - .     . & o     o .     l . = . & &     . o = .   & N N . . 2 h & . $ = . . = - & & $ . $ = $ & - & .   . o . . . = = . e   . iX4Xo . e .     $ o 2 * & & . *.N & &.& & $ & ; . o w T.2   = . . & 2 h . & & 2 h.z     - - - t   . o u   h . & o   - . i.e     & . -   . j -     .   o   . = . . . . . .     . . o . . o     . - o . -   . o z 1 t . - & . . o & o . o . .   & &   o & o   . . . .   o o . . . = - o   o . .   o . . X L z   o o . & . o -       . .     X X .     .     X   X X #                     w .     .     X # o   X     X o o -   X     .   K X X T . - j   o   o ..T     - . o - o .         # # .     .             .       . .     . X     X       #       #     +     #         O       .           . - X       .                                       X X X                                                 X X                 X                                                     K  .w   X               X X                                                     ",
"o .                   X       X X # o           @     - =   X   X   X     .               . X X o     o +.L -   . . . . . .     . . . . . . . . o   - i.-   o - . . . . .     . .   = o . . e - . . . . . . . . 2 .   . u N &   .   . = o   . - o . . . o o o & o =.j . . o u . - . . . . . o $ *.e $ . 2 j . . . . . . . . . . . = & = & & & o & = $ . . .   o & ! = . 2   x u - h . & * ` ) * . & . . 2 & o ` P , . $ - -   X o   o . . j E N < h .   & . . - - - - z o o o 2 -   A.:.  - o - -   z.e X     .   . - - P o     .   . .   . = . X       . . . .   . o .     - ! & .   1 t P - . . .     .     . . o . . .   o o     o       l & . . o . . o . . o X . o     . . o       . . o o       1 M .     u     . . o X .   .                         . o X o               o   .             X   X . o , X     #           X o t e   .   . .               X       1 .                             X X     X   X         #         +                                 X 1 X       X   . X #     X     X   .               X X                                             X             +     #     X                                                       #         X               X 1 t #                                             ",
"o .             X     X   X                           X             1 - X o                 .     . -   .     - . . . . . . .   . . . . . . . . . o   2 o .   o o . . . . . . . z . = . . . =   . . . . . . .   . . o o - - . . . . . . . = - - -     o o     o o   o -   e k.- = . o o . . = o . - ; . = ; . . o . . . . o o o . = = $ . = = $ . . . $ - -   . . . . o . 2 E e & - o   2 d 2.` * $ d . . o   N .   $ = & - . . . . = . . * ; $ & 2 * h j o     . . . = . & . . o P 2 o -     = X X ..    - T # -   . 2 O.o . e U X   X         X       . . . .   o o . . .     . . . o   - . -   u e . . . . & . o = o o o o o o - e     .  .-     o         o     X w   .         1   .     . e 1 . e M . . L  .- .       #   .     + X . # t           . - e     . #     W c.  8 o   . . . .             o o   . #         #   .         .   .               #       - _ e                           X     .         #     X   X     #         + X                         X       X     1 K                                                                               X r +     X         # i 1                                       X                       X X   X               # t N -                                             ",
".                     X   X                 .     - -     #   o   o u w o o                     .   .   w { o . . .     . . . . . .   . . . . . . . .     -   = . . . . . . . . 1   . . * .   . . . . . . . . .   . = . = & . o . . . . . = . .   . .   . & - & . & -   = . . = o . . .   . & . = - . . & . . o . o $ . . o $ $ . $ $ . . = - ; x ; . . = & o - o = . . & 2 o . ` ` o & . < < $ * d $ * - o -   . - z ; . . . = o . . . . . $ $ d 2 $ 1 ; . . = . = . . . . = ; L . . .   - - o     1       i   . =   o . o - L ! #   o     # X o X   . . o o . . - - o o o . . . . o o   .   . . j l . . = . - o . . .   . . & e   u   o - o o o   . . . o         X w   .       - P - . .     . 1     o     - - w w .   - +.R     -       X X             o -   X X X . . - - o - .   .   . o o   # #   X _ -     e i         X     . X                                 w                     . X .   X     # t       i # # X     X         X     X .   X X                               # i   +           w                   X X X X                                     # U...+             # i 1                                       X @ X             X X X X     X   X         X     .                                               ",
"        .         . .         o .               .     X   X         - #   .   .             . . & . . . = *.l L . .     . . . . .   . . . . . . =   2 ;     . o   . . . . . . .   2 2 . * $ .   o . . . . . . . & .     - j & o .   . = .   . 2   . . . o - 2 -   = x . .     & - o . . . . . . - ;   . $ . & . . . o . . . . o $ o o . o & 2 e . . . & 2 o &   . & $ 2 & . ; $ e h &   N Z Z . o 2 . . & - - = $ o . $ . & = .   . . = & . - ; $ & . . . . .   . = = - = . . l = . . o .   . o z..     o - o -   o o . . . . X .         o w w X . . . . . . . . & - o     - ~ l =     o - .   . o . . o . . = o   . . . . . & -   .   .     . . . - - - & . o .   . #     . .   o e     o .     o . e P t .     - o   o   -   X - R X # o N ,       X .     . X X         - 2   X . X #         = o o   . M o   X # K X o       . X     o X         .             X X   .   .                 X e w     X X o -   X   w X   X p.9X# 1 t     X     w t .                                     X X X     X X . 1 X                 X X X X                     X               X +                   X                           X             X # X                         X                 .                                                 ",
"      . X       . . .   w     - .                 &   X     o   .             X           . . . . . . =   o     . . . . . . . .   . . . . . . .   -   .   . .   . o $ . . . o o o f.` . * $ .   = o . . o o o .     o   . o   &   o - ; . . 2 ! - .   . o .     o = =   = - . . . . & & o   . ;   . = - . . o = o - - - = & & & $ $ . o o = & ; ; = o . & o 4...$ $ j . $ - . ; . o   ; $ . & Q 2   j 2 . ; = . . & . - . . . .   o . = & . . . $ & . . o o & . . . . . = .   . . - .   2 &   l 3.e   o &   & o o   .   - . .     . o .   . . .   . . . . . . . o .   . o     & w o o       . - = .   . = . . & o   o o & - . o o o o       -     o 2 - o . . 2 # .     X     X . o - o   .     1 .   w L -     X .   o W # .       7     o W j       X X . . X 1     - .   f.uXX           o   * N t o X o       X     .       X       .     X                             .                     e -     X   .     o   X w     u.F.    X X         j j   . r   o o .     . . .           X           X         X X                 X         X           X                         # X                   .                   X X               X                   X                       o t 1 X       X                     M t - X         ",
"X     . .       . . . ; ;.;   . .               Z rX=.  #     w w   . .   .     . X .   . . .   . =   = =   - - . . . . . . . . . . . . . . . . .   - j.2   L - . $ = . . . . o   2.N $ C $   X $ . . . . . .     . o . . o   o   o - o . . . . . & o   & z l . . o . . . . - o . . . $ e - . . R.l   . & o   = . & - & . o o . $ $ . . . . . . . . & . o   ;.L . & & $ * $ ; . o o & . & . . d - o .   & * $ $ ; e . &   = = z   o   . ; ; j e . o . . & . o o . e 2   . . . o o    .E . $ . o .   W . . & . . . .   o   o . o . . . . o .   .   . o o . . . .   o .   . . . o -       X     o . . o .   . = . o   .   . - . . ;   L - .       o   . .   . . 2 - o .   #         . o 1 . .   . M 1   . X           X   P w   o X   X .     o . .             .   X     . . 2 f     X   X   #   . . &     #   X X   #   t 1 5.2     + X .                 .       X X   o   1 .                   o     X               # +.X     X     #           o .   ! +.  o & & .   . . .   X X           X   P X.X   #   # X X                       # #     X # 1 # X     # # X                             X X                       X # X                                     .     X             X -                               X t -             ",
"+ .   X     +   X     o w #                     X z.T   #     X X X .           . . . . . . . . o   =     o . u & . . o -   . X . . . .     . o . = . z o o ;.w   - .   X   o   .   . - e & 2 . o - & o . . . . . . . . . . . . . = $ . . . . .   &   & . 4.` . o   -   e ! o . = o . . = = . . 2 . ; x & . $ . . . o - . = . & o . . . . & & . & & o & e & . . & $ 2 * . $ & $ & $ . & o - $ & o . P E.. & $ d 2 & - . P   - ~ -   -   = . =.d.R   - . . o =   . & - . 1 z & .   . e j o . o o 2 N . -   -     o . o   . j - . o   o o     .   o   - - . .   #     #   . = . . . & & .     . . . -   o . . . . . m W . o   . . o   z & &   . o . o   . . . M . X L X   - ; .       . X .             X X .     . -   X   .                   X o -     -                       X   . o .                   . . X X   . w 1 - # .   #     e X           X         X   o W M .                       . .         O       O     X X                       X             . .       n f.X   X   X     . 7.8.o   - . . . .             #       X K |     . o - # .   X X X X                                                             X             X X                                                                               .       X # ",
". . 1     #       X - t t o                     o -     . .     . .           . . . . . . . . . .   . . .     . - . & - L . -   .   . . X .   . . . . =     1   -   o u   ! T.    2     & & - o   o o o . .   . . . . . . . . o & . . & $ . . = o   - o o . & . .   o . u L . . . o . . o . . .   . = = . . $ $ -   = o = . o & $ . $ . ;   . $ 1 2 . . o h - o d $ < & . & 2 & . & E N o o o - . o z p.- . . * . . j L i.2 . . . . o L . & $ h z . . = . . . o . $ & . & 2 . . = . o .   . 2 x - &   .     o o   l -   o  .L   o .   - .   .   . o o     - X     [ 7 o   l $ = o - - o   . o . . . .   - . = . . e ,   . & o . . & W z & .   .   . .     - z   X z .   o - . o X             X     o # o . . . . -   X   .                     .     -     - .   . X X         X     o .     X                                   # X.T X .     - o           X X       tX..                    .     o -           X     X                                         . . . .       3                 o .       +   .                   X     + X         . . . .   X X                                                           # - # X                 # # X                                                                   X         w R ..",
". j 6X[.o     .     o - -                   . X       #       - . . .     . . . . . . . . . . . . . . - 8   -     .   - o . . . . .         . o . = & . o o   . o # X X   | M.  i.R.2 o   .       o = . . . . . . . . . . . o o - . . * $ . . $   ; :.o . . & - L 2 .   . o . . ; l . = . . . = o . . o ; . . ; ;   ; - .   ` m   1 2 & . . 2 . h h - z o $   $ & & . . Z W $ o & . x 2 . & o . & o   o o & ; ; d $ .   - . . ; o = & x . .   .   2 o . ; . $ ; . $ & . o & . o . . = = o . . . o . . u &   . . -     -     - & . o   - o   w -   . o   l L R # w cXK   2 e e . . o & .   . . o . o .   e - o   - j . . . e o o . . -     -     .   = X     # .   -       . . . .         . . .           . . . . o   .   . X                     X X l ].T       X X X .     . o           .                       .             . ! R     .   i X   X w #   X     . .     X                     # # . o     X     X                                                 . .           X     X # X   o     + +   #                                                                                                                 X # # X         -       H P w                                                                             X X X ",
"f   N t   o   - X . . . - o                   . # i #     -     . . . .   . .   . . . . . . . . .     o -   -             & . . $ . . .     . o . . =   o -   o X T     e     # - ! . . . 8 . . . & o . . . . . . . . . . . . . . & . o 2 l . . o   .   = & . h h - . . o . . $ = l = e & $ . . & . . o = . . = . - . $ o & H.f.& 5.2     & $ & - o & L - $ . 2 & ; . . Q ` - 2 * . . $ o * o . . 2 z . . = . & $ . $ = . . $ * ; . & . =   - - 2 o $ h C . $ . . . o . . . . o . o . . = .   . o & - ! - o .     .     _ 1 o .   .   .   . u t     o . ;.L ! u # i X o   o   -   . .     . . . . - . . . =   o - e o -   - . - ; .   -     - ! z   .   X     X       .   . .         o - o .   - e w o   . .   . .   .   . #   .               .   - z T.-   o   . # o       .   o o     w w                   X         . . . #   X     X X   -     X i r X     #     . -   w                   X X     o .           o .   o           X X                                   +   #       X       @ @                         X           X                                                                                                           > 0 O                                                                                   ",
"j .     . +         . = w -                     o z X     X     . . . . . . . .   . . . . . . . .   . . .   .   X # ;.. o . . & . . & - # .     . . . .   . . .   u.z   - X X . o - o o . w .   . = . . . . . . . . . . . . . . . 2 & .   2 - -   - . o o $ . $ . . . . o . & . . - . = . = & = . = ; . . e j . . e . $ & . &   2 N ; E & o o o 2 $ o & o - - o * . 2 2 & 2 h 2 . - . ; - & . 1 j 2 M - h ! - & $ $ o = . . $ * $ . . $ = . . . - ! . 2 . & $ ; . . . . . . . . w ; . . o o . - o o . l   o ; ; o - &   o o   .   o 2     . . - . . . o R o - .         X . . .   . . . . . o o   - . . . .   & . o o o     . - = e o   w t _ X - . -           X       . . . .     X - - - X     1 l w o . . . o . . .     -   . . . . .           . -     o .   . o o           . .   X z z                       X     . o 1           .         X X X               X     K   . X           .   # o   o 2   o     . 1 2 .           X - #                                           #       X     O     X                       X X                 X                                                                                                                                                                                   X @ ",
". X . @     -         . o                             #     - -   . . . . . o .   . . . . . . . . o . . . .   o   - i.- .   . ; . . o . .     . . .   o . . - . . X   o .   .   -   .     o o . . . $ . = = o o - = . . . . . . = 2   . o -     . .   . . . N j.. . $ $ . . o . . - & . . . . . $ . ; & . e x o j . e N   & = ;   $ & x ` &   - j - = . . . . . $ . 1 2 . & 2 2 $ - . $ - 1 . 1 o   & . o 2 . 2 * $ o & & & $ . . . $ - - = . . . & .   - . ; . . . . $ $ o & . ; ; & = - . . . . . . .     u 2   h.[.  ! - 1 o   - z .   &   o   #   .   .     o o       . . o   . . . . . . o       . W l     & . o . o   . . . . . 2 z   i -     -   . .     X   .     . o o . . . o = o . . . . .   . o o . o . .       #   . . . .           #     . -       . o . .     .         o w -                       z t       o   o .   X     .   X           X   o X X   X     X # - o                 o ;.:..   - e o o - . .         X - #                                     +     #     X   .         X X                     X X       X X                                                                                               # X       #                                                                                     ",
"  -     #     o   X           #                 .   X       X       .     X X     . . . . . . . o z       .   . X   .     ;   . = .     . . . .       o . . = . . . . . . = o . .   o o . - & . . $ $ $ & & $ $ - = . . . . . . o . 4.^.    l . . = = . $ h * . . . & h ; & = $   - P - - .   o ; . . $ . . o . & o :.x.- - .   - . - & - . - o & $ . ; & o o j & & . . o & & k k $ j . & 2 $ o - - & & j 2 . $ k 1 & . & & & & . . = . - . = = &   ! 0Xo   $ ; $ $ . = o = 2 . = . . . . . = = . . o . =   - .   z t -   o   o   o w o o &   - . X X X   o . o     X o   o .   . . . . . . . . .   . o _ M o 2 2 o o . o   . . o     . 2 & w o - . . . e - .       -     . . . . . . . .   . . K 1     . = o . .   .       w . o o . . .       X     X #   o   . . . . .     . X     .                             L z X .     X .             +       X X X o o           X . X - - o X o X   . _ X.#   o -     # e X       .           .               X X                     X           +   #                                 #         - X                                                                                                 X X         O                                                                                 ",
".     X     m &.        .                         R 3.  X o   .   . .     .       . . . . . . . L i.. . . . . .     . . =   . . . . . , 3 e o     o & o = . . = . . - o       o . -   .   & & . . = . . . $ o $ . . . . . . . . . - $ e . .   = =   o $ . d . * z . & ; . . & z o o P       e ..; ; & . o o . o o 4.` Z ; . o - . . - = . o . . - j o & o j 1 h o . 2 2 & $ & * j $ A.j o & & & . E 2   2 . 2 m & & & . o   . $ $ & . $ . $ . ; ; o M G.t = o . . $ . o . . w . = . = ; $ . . . . -   = . . . .   .   . -   #     .   . o . . w -   w   X   . .   . .   o   . o . . . . . . . .   o .         2.& .         . . .   o .   o . =   L  .w     o -   o i X o .   . . . . . . . . . X     . . . . = .   . X # - K w o o . .     .     o   X       . . . . . .   .       . .     X                   #   # .   . . o w .   .     .         # #     .   .     O X               o .     &     - .   -           X                             X # # X                   X 1 t   X     O O   .     o                       - X                                                                                                                   X                                                                                     ",
"  .       . j - = - o         X     . . . = . . X | R     X                     X   -     .   .   . . . . . . . . . .     . . . . .   P ! . o   . . $ m . $   o   -   . .   -   = . - 1     & =   o   . .   = . . $ - - .     . . . . . . . . . o .   . = . . & = . = 2 . & . .   #     o   P A.$ & & o o o   & $ j j . & . , N ; - . $ . . 2 & - & 2 ; - & o o % . ` ~ o = = = . $ 2 $ $ -   & $ . = . = . ; 2 $ * $ . x N . & . $ = . $ $ . & ; - & - & o . = & * $ $ $ o .   . . ; x & o . . . . & . . & o . . & . . .     .       1 - . = . . -  ..     o   . .   .     .   . . . . . . . .   . -   . . & .     X   -   - .           . . . = o P - .   - . .     . . . . . . . . . .       o       . .       . . . - o   - w - -   . #         . . X o X . - # .         . . . . . . . . . - o .   . . . . .             w e o     X     X     . . W  .            # e #     X +   O   O @ - -   o   . . .       -     #   X           X X                 X                 X # # X     X                           . .                       X X                                                                                                               X #                               O O O O                                 ",
"& . . 1 & 1 ` ;.  e -   # -     o     .     o     1 #   .     X                       X .   = . . . o o . . . . . .                 . o       . o . o h $   .   &   o . -     . = = & o o . . =   .   & = = . . . . . . = o . . . $ = = = $ . . . = - .   . = . - 2 ; . - -     E.K X o   - =   . 2 o . & o o o & & ! ;   -   1 . = - l - . * 2 N 1 ; 1 ; 1 - $ $ $ . - . . . - & o & o - . o z & . = . = . $ & $ $ . . j N $ . = . . = . = - . . $ $ o o . . . $ & ; . . . -   . . - & = . o . &   . &   . &   L 1 .     -     X     o .   . .     # X   -   o   #     o -       . o .   . . .   - z 2 -   . . w -   o X   X     X X       . . . . .   o . . -       . . . . .         . .   .   X o . . = o .   o     .     . .   .   . #   # o X . . . . .   . . . . .             . . . . . o .       . . . .   . .         X           # ..+.X   o j u   -         X - o           7         o   .     . .   X           o       # K                                           X X                                   .     X X X X X     X X X       X X                                                                                                         # # X                             X     & X                               ",
"t           - o . . .             X     #   . X         # .                     X  .X   .       = = o . . . . . . . . . . . .   o   - . . w . o . . . - - . - . . P S.o     o   . - o . l u - z - = . &   .   . & o . . . . . . $ $ = = $ . . . -   . = . . - . . o . o - o . o e o   -   . . o . . . ; . & W . o w m.- . . ; . N 2 $ ; ; . $ . . & . & x e . & $ 2 - - t - z   $ $ $ 2 2 . . - & o $ . = . $ $ . $ & . $ $ . & . = . . .   l ~ . o o . . o . . . & . = - .   . . = -   o . = .   .   o & o - . o   . . u L .   X         = . . #     X X P -   . e R i.-     - - u u =   . .   .       . . . . - . #     T o X X e u #   . o .   = o - & .         . . . . . . o . . . . . . .   . X       . . & - .   o .   . . . o .         - X     .     .       . . .         . . . . . . X X X         .   - M t X     #       X     X _ |     .   .               . .   X     X     2 .   .         .           - z t       X ! m.    X                       X                 X X                                       X X X X     X                                                                                                                       X X                       X     X   o S b X                               ",
"  o - .   . o       . .   . 1     1     .       .     X # - o                   e h.w   # . . . . . . . . . . . . . . . . . . . o   o     o e 4.. . . . .   . . . l h.o . . . . . ; .   1 - . ; - - . o .   . . . . o . . . . & . . . . . . . = o . . . . . . . d.Q d :.- .   . . . - . - - . . $ . . e . - ! &   - $Xz = & . = $ . . . . o d m 2 2 & - . & - & -   o -   S.;.o 1 d . & . o $ & $ . = . - $ & o ; $ . . . $ $ o    .u . - . z j.o o . . . . . . & $ = . - o . .   - w . = . . . . ! 2 - L - . o .   . . - e . o     - o . & . . .   . .   - .     ..P e   - . .   o #     . .       . & - . . .   # X   +.E.    . - - o . . . . . . o o   . M .     . . . . . . .               X     X .   o e o - - - - o . o .   . o .     . - .           o X .                       . . = 1 # +             . - X   .     X   . X .     #     - X   X X   . . . . .   . .   X   o X   j *                   +   o   5.Z     o     e   o                                   X                                                                   X       X # X       X X                                                                                                                           #   m Z.<.                                ",
"        1 R z     o   o -             #   e i.z     . . . - -                     X   #           . . . . . . . . . . .     . . j . . & - .   o . . o .   = . 8 .   - . - .   . . = .   . . o - . =   o 2 . -     . o . . . ; h . . . . . . = & . W E o   . . . &.f . W . o = o * h $ . . . - . . $ $ . & $ o ; e o     . - . . ; - ; = . . $ $ 2 ` & . $ & . 2 1 P 1 z   . 1   h 2 . $ & & 2 - $ . & $ & $ & $ & $ . $ $ & ; o - j.E   o     . = . . o o . . . . . - .   l o .   - = & . .   .   P - = z o   = . = .       . &   - L e . .   o     - R o     z -     .   . - . .       .   . . o     . . . . . o     #     - .     . . .     . o       . o M     . . . . . . . .     . . .     1 X     .     o   o & - - . . . .   . o         o .   X .     # o X           .             . o # # X           .         X     .         .         w #       @ .     . . . . . X       . - -.j .   . .       #       #     o f.R .   .       X                           r r                                                                               X w X       X X                                                   X                                                                   1         o .                                 ",
". . o     .   . X     - .   , . X   .     . z   .     . . . .                         o   o o - . . . o o . . . . . . .       . = - . .     2 l .   . = . - o e . - = = . . . . . . . .   o 2 ; . = . = o   &   . . . . . . = - . . . $ $ . . . = ~ L . o = . = . $ o o . & - . . x & ; & z . = . . o . $ .   - o . - - ; z . - & . $ . - x j * 1 j $ ; . ; ; . i MXX.& e   & 4XN & & & m & e & $ $ * $ & . $ = . $ & ; $ . $ o   = . . o . = . = . . - - .   . . o . . ! !   & . .   . . =   . . .   o .   . .   .   . o . .   o = 2 - . . .   X # - ! o o   K   2 o   = . . . w o . o o       3.P . .   o     . -     e     . o . . o o . . X   . o . M .       . . . . . . . o o o o o o o o o o     . - o   . . o o .     . = . . o     #   o X o o .     o                     o - # o X X                 o o - . . o   X     -     X X           X X             . .       X t           X       .       #   #     #   w -   X X   #                             # i i X               X                                                       X w #                                               X o o             # w X X X                                                             X   o 7                                       ",
"t X     X #   .   X -     M f.-   #     X X     .     . .                         - .     .   o . . . . . . . . . . . . o o .   . . . . o o o   o .   - -   &   . .   o . o . o . . o       . . . = = =   w . o = $ . . . .     . . . . . . . . . - .   = .   o . . o . o - - . & . & . ~ XXo 2 . . . - . . - o & - - . . & h   . . ; = o 2 h N j E $ 2 & $ . $ # L &   ; o - 6XZ & - . - & 2 - $ * d & $ . & & ; * . $ & . & o ; . . e - . . - = . o - - . . . ; . 2   G.z j - . . . . . . o . ; . = & . . -   = o .   . .   . o .     . o o     X   #   #     L -   o .   . .               .   . . o   . . -     -     o   - . . . . .               e .   L . . . . . . . . o o .       . #   X     - z z - - . . . . . . .       X . - z # . . o X               . .         X # - # o X X & o .   . .     -       o -       X e -                 & w X                   X /.a.    #   X .   -   . .       -   + X iXV.  -     o       #                           + +       X       X X                                                   X X 1 M w                                               # - -             + # X .                                                             @     -     @                                   ",
"X   X     .   . X     o . . h $         . .   o   .     . X   .                         #   .   . . . . . . . . .   . o - - =   . . o . .   . = . .   l ^ . _ , . . - o . . . = . = .   o o . . $ .   - o f.. . $ = = o . . . . . . . . . . . . . = o . . ; e - R.;   2 o e - . . ; . = . h m o . ; . o = . -   ; . . & . ` X.P 2 . o . . & . o . ; $ Q ; . $ $ 1 . & h . . &   & & & -   j $ . $ ; j * $ . ; ; & ; $ $ $ . h N $ $ $ $ & & . . $ . . . . . . . . . . 2   - ` . . & z - .   - .   o - . = L z . .   -     o   = . o . o     o .       .     X   - l . =   o .     X .             .   o   o   . = .   - o . . . . . . .   . X . .       . -   1 . .   . . . . . o o o . . o 1 z e -     . = .   ; .   . . . .   . .   .   - z X   .             . . . . .   . . X . .         X j 2 o           = . o .       o .   - #         #     . . o .     X X           X 1 K 0Xp.  X     w _ -       o . o z X O } @ @   o .   .   X                         X         X                                                                 X     #     X                                             . .                                                                                 O   .     X X                                   ",
"o   . e #   X X & - .   X     . o .       . #   .     .       + .                 . . . . .     . o & 2 * * . $ . . .   - =   o o o   . .   o . .     o w - o - E & - & . . . ; o . . = = . . . $ . .   & _ - X   . . $ . . - . . . = . . ; . .   w . . . - - & z - . ; 2 & $ d k . & &   - j   $ = . . $ $ & o   p.R   X 0X( J.2 $ . $ = . o o & * $ x Q . & & 1 & & & . l x $ d $ ; . $ o o - ; . 2 . d & = & . = . . & ; k.h.. . . . . . o .   o . . .   . & . = . . . . $ $ . = . . . . o . . .   . . - & o . . . . . . .   . -         o   - .     o X   . . . = .   . . .         X . . o = . . o . . = 2 . .   - . . . . o . . . . . . . o   . . . . .   . & ~   .   . . - e o .     - o . .         ;.W . .     o .   .       X       w . . .         X   .   o X     .     o     #   # # X   # X         X     .     #       #       i P .   .     X         X             P 3.i   X X   . . . .           - w X                         X                 X             X     X           X X   X         X     X                             X X                                                                                   .                                                 X   o o         X                               ",
". . o -         o - .   . .   o   . & o       #   e   .   .       . . .                   . . . = . & . N =.& . . . .   o =   . j l = $ .   . . . .     . .   . H.E . . . - $ . . . . . . . . . . . = . . o     . . . = .   o . . . & . . - = . . z ! = o   . . = . . & 2 ; * j 7.. . - & . . o = = . . . . o .   {.|   ..t N   . & - . . & - o . & . 2 x $ & . . 1 2 ; 2 2 h ` . k j . -   . - . $ ; . ; $ . . = - $ $ $ . ; . . . = . . . . . 2 2 . . . o w z . = . . = $ & & . = o = o . .   o = . .   o       . . . .       .   . l e       -   X X     e - . . = = . . .   .   . .     . - = . . o o . o - o . . - =   . .     . . . . . . . o - o . o . # o & E . = . .     X   .     o   .   w # X   T i   . . . . . . . .     . . . - z                   . . .   . -           # -     X   | ! . .   .         . .         w     o     -   o w X   X     X e e #       X     X     X       . o .     X     o -     . .                               .         X       X         X . . o +.#   X   X                                       X         X                                                                     X   #   . X                                     X             # X...1     O           X     X               ",
". 1 1 X   . . . . .     .     X .   .   - w     t !   .         . . . . . . . .         . .       - - .   o .   . . .   . = . . = - .   . . . . o - .         . .   . - & = . o .   . . . . . .     .   o . . o . . o l 2 . = - e . . = . . . .   & w o - z - . = $ . = - . . $ . $ ; .   . . & . o = o . $ = = -     # +.e   & . 2 & . - $ . & & h . ; ; $ & $ . o ; 2 d 2 d x 2 j . j . 2 & . $ e $ . & & . . . . . $ . & $   . = = $ . . . . P L - .       . . $ . = = . $ = . = . . . . - &   . . .   . . . . . .     . - u     . - -   X X       X   - ! P . . o o . . o .       . . . . o & . . . o . . .   .   o . X -   o . . . . .       o . .   o         -   o ; - 8   o         X     -       w   X . . . . . . . . X         . - e       . & & .     - X       X       X - w o X       R z         X w -     X X     w i.e       1 .   X w -         . w w X       X         X #       . o o .   X .     .     .                   .             X   - X       X #   - L -         u.2XY   X   X   .   .     X   .                 .       t _ e                                                                   X X X       X X                                     X X             t w           X X                           ",
"  - o                         . w & o   L O.#   # e   .       . . . . . . . . . .             . =     . - p.- o o . . . . - . . . = . . . . . . . o .   . .   . o             X .   . . . . . . o u 2   = . - . . . . 2 - . . = . . . . o - = . o . . o - ~ - . . $ . . $ . . $ ; 2 & . . . $ ; o & - o . .     . w . w   . 1 . . & ; $ $ & . $ . .   & o o $ 2 2 o . . & * < . d * < g.& d &   ; z . . 2 2 & $ . . & & . ; $ & . = & = . . o o   .   . & o o & . = . = = . . . . .   . . o 2 ; o - o o   o .   . . .     o w z   - o   .   X e X.!     - o -   . . . . . . o . .     . . o .   - o . . . . . .   -     -     z u .   . = .   . o .   o o R w X - . o . . &     o - .       X X     - o     -   ; . . o . o o     .             .   . o - - o   .     o   - z X X                 +     X       X 1 1       X X X   o     #     o     X     . .             .     . # X             . . .               .                       -         X       o     .         . e .   o - - T X   X       X     .     X                         .   e L -                                                                   # # # o .                                                       +         O                   X       X         ",
"- t -   X X   o       .         .   .   o -   X     #           . . . . . . . . o           . - l - & 1 - ..  o . . = . . = . . . . . . . .   . . . . & 2 - . .       - w - X   . . . . . . . .   z t . . . ; . o & . . .   . o   ; .   -   . - . . x . = & . . . = $ . o o $ & * .   & ; - $ . = - l - = - $ & ; = . . = o o e S.1 o ; . $ * $ - & $ 1 & - . o   ; & . 1 & . < &   h h $ d %.*.. 2 . 2 j 2 . . = . ; ; . & . . . = = . . . . o . & . & - .     . & . $ = . . . . $ . . . . o . - -   . o t -   .     . .     . X     - z . u ~.o -   - e . o o - . . . . . . . o o . . . . .   - = o . . . . . X   1 [.o -   # - .     . . . .   . o -   R z         o & - o o     X . . .   . . .   o 1   o o ; o . .   o o       . . . X .       . . o . .       # X   ! i.      X   # X   o   X     #     X     .       X     X   o     X #     . .     - u X         . o                                   . .   . X                       o         X   X .     o     X   .   X -         X   .     #       X -   X w #                     . o         .                                                                                                                                             X X #                             X ",
"  - .               . o . . .   o   & o .     T T.@ X   +       . . . . . . . .   . X # - X o - o o         . . . . . . . o . - -     .   . . . o . . - u - . . . - . . .       . . . . . . . .   o .   o . ; = . - o . . o = . - . . o   - l . . . w o . . . & & ; & . . . . $ & ; - . . x *.N . . - . . . . .   = 2 . &   & . x.2 . & & * * Q 2 - - . . j ; . o 1 & - . o < Q $ $ ! - . * k . . $ . 2 & $ . = - . & & . ; . o . . . . . . . . . o   . & . o o . & . . . . . . = - . . . . o .   .   . . e 1 o o                 # = . - -     t . . u - . 2 o o . . . . . . o . = = .   . - - & = o . . . . . .   X i #         - 8 .   . o   X       - m.i.. - # X . . o o - o X # . . o . o   o - - 5Xe .   . . . .     . o . . .   . . X .   . . . .         X     X     .   w X         R e   X X       # L 1 .             #   X     X               X #     X .     X . o       X X   .                 . .           .                 .   o               o     . X X   - X   # t   X     o .     + +   X - X # i 1 X                 #         .   X                                                                       -                                                         X X   O X                           X # X       ",
"  1 - . X X . = .   . o   . o   o     .     o F {.D     #     X     . . . .         - w w o . X .   8 . & o   o . . . . . . . z  .= o =   . .   . .   . o .       o     & o .   . . . . . . . . o o   . = = . . . 1 o   . . .   .   - o   ` m.  e . . = . - . . . $ . . $ $ $ - o . . = & 1 k * ; 2 x ; . ; . . o . . . . ; . o     2 o o j k %.4. .:.e o e &   & & 1 ) 2 n 1 . . - N e . . * $ ; . . $ . $ . = e = & $ $ $ = . = = . . . . . . . o   . .   . . $ ; . . . . - $ & - . . . . - &   & o o   o .   - .         # w u.X   . .     # M.z     o e j . . . . = . . = = . $ $ . . ; e 2 o o o . o o . . . o     # # -     - 8 o   . .     u z o   w -   .         & z N w o o   . - . - .     - `   o o   . . . o . . . X . .         .   . . . .         i.!   o -   . | M.w       i p.z   +     # X e ` t o .     X     o                     X X     X           . .       .                           .     .           .         . X   o     1         X   X #     O       p.Q.@     K z   & X               #                                   O                                                                     e ` M 1                                                             X     X X       X X       X w i w X X   ",
"  1 e X         .     .     o   & & . .   X #     X                 X X X .     X . . o .     X X -   . . . = . . . . . . . o E !     .   o o   . = .   . . . .   - . . .   . . . . . . . . . . . o . = . o   o N Z -   . . o $ . .   & o   - o l o . = - . ; $ o $ . . = . . $ o - . = $ . $ $ $ $ h $ . ; $ & . h . $ & .   n.3X& . h . * d . o o ! 2 . . . $ ) ( & - . W 1 o o o   = j.- . h z . $ o . 2 - . . . & $ & . $ . - & $ . . = . .   o . o & . . . ; j & . . - 8 & . = . . . . o   . o   . o t -   .           o w P   w x . o -         . & o . . = . - - = . . . & & . . ; j 2   o . . . o & .     o   X o     - o     . o . . .   . .   - .   X . . .   . . - & X       # -       . .     . .   o o   . 2 - .         . .     o         . .       w #     . X   O.E.  # #         #     X   X i .           X   .   o         .   X .     . . . T w X       .   .                                 X   . - #         .         . X       - P 1 .     #       X 3X2X  O @ y w.    #   -   .   X X o       .                       O         O                                                                     O   & N &                                                         X       X p.%X9Xs.X   X     X     X X         ",
"                .   o K X   . . o   o   .   .   . .     o X   .     ;  .o X i s.o   =   . e $ . j - . . o . . . o . . . . o   .   .   o   . . . . . . . . . . . . . . . .   . . . . . . o     X     X o . . -   .   & e . . - .   o = $ . . o   = . . ; $ . $ . o o   o (.` . & . ; = . . & & . $ . $ & & $ $ & < d o o . o . z :.. - ; $ . & * - o . $ & $ o $ Z j o . & $ . & . . & j ..-   1 m - . . . . . ; m & o o 2 h $ $ . - = . . . & . . o .       . o . . . . . . . . o . . . o . . . . . .     o .   { w .   X #   w     w e . . = . . . w - . o w . ! e   m.w - = . ; . $ ; x . . & o -     o . . . . . . o - - o . = .   .     . .     X M     . o   &     -   o = ..    1 t . &   . .   .   .   . o X   o     #   .   . o o . . . - - X   o +   + X   . & . . +       #   i # . .         X     X     X   .   o X     .           z e #           i w #                       .   . . . o o o . . o     2 h - & 2                     # X .     X .   o   2 N   l.P     X   X       .     O       O       .           X     #         .                             X     X                                                                       X     O                                   w +.T.+.i               X             ",
"    X X     . . . . w | e     .       o .     - - . o     . X   &       .   u ;.    w = . & o e - .     . .     .   o = o   . z W     e W o . . . . . . . . . . . . . . . . . . . . . . o . . - L .   . . . . . . = - x $ & & u - - . & . . . . . $ - . . 2 o . . o ; - W 2 & $ - . . - . j 2 . $ $ $ $ . . . & - o   &     . L . o . . 2 $ . d & & o - - o & - f & o 2 x 2 o $ . o .   f.L o   2 - & o o o . o e . . . & - . . = . . & & . . . - . o . o &     . . . . . . . . . . . . . . . . .   . - - . . . w . .       X R M . . o   o .     . 2 & o - l - . .   w o - h . - *.; = . ; . ; . = . . o . . . . .   . o o o . = & - o     . o M 1 X 1   & o   o o . . - . & e T - .   . & - -     X - X       o   o   o   X o o . . o     . . o X                 - -           M   #   #       - -           .       #     - .               - X             X .             . X             & .         o 1 M -   . .     &                 -   o .   . #   o   X , C.x.#   X   #           j M #     X         X 1 1 X     X X         X   o 2.o   #   .                         #                                                                           X         X X                       X         +                       @ X     ",
"                      #     . - o o   e   o - X.6Xz   - -     X o L L   -       = - e o   . & ! o . . . o o . .   . o . 2 ; $ 2  .$ . = 2 . o   . . . . . . . . . . . . . . . . o . . . . - 2 2 N o . - $ . . = . o . . . . . u   ;   . = $ . = = - h $ $ & . z & o & & . $ - . $ . . . . o m.e $ $ . . . . $ $ . . o = 2 2 M N . & & $ $ 2 2 . . - & 2 & . 1 h d o . & ; & o . = . o e  .L -   o - & o o & $ . = . . . . . . .   . . . - & o - .   -     o   1 . . . . . . . . . . . . . . . . .     - - .   .     o o .   # ! M     o . o . . . o 2 o   . -   . o = . = . . . - f.- . e .   = . . . o .   o . . . .   . . . . . . . .     o o u L P z . . = = . . - . .   o -   X #   . l -   X       X           - o   o   - 2 o . o . o = .         - - o o     o o     X X . X.X   .   o     X     .     1 ;.  X o                                                 . .     X X .                 o X   - M t o                                           #   X     - o         X     #   X j t                   o # X           #     #   =.(.i                                 X     X                                                                   t P n X   X                     X         X           X     X #   X           X ",
"X         .     X r X     X         z i.  . .   -   & o   X -     W `   o           o . . .   - . . .             X     - & . . . . o $   u l   . . . . . . . . o o o . . . . . $ . . . . - e - & $ & * . . o .   . = . - o o     - . . = $ . . . . $ ; e ; e :.& & . . $ & . & $ o - . .   D.z . . o o = - & . m & & . =.` Z , 4.* . Q . . j k . . . . . . . $ e - $ .   & ; o . . - N & & & & . $ $ . . & & $ . . . . . . . = o o .   o -     =     . e z .   . . . . . . . . . . . . . . . . . . . . . . . . . & - - o     - o   o o . .   = .   & . .   & . $ . $ * ; * . j 2   -   . o .   . . . o     & . . . . . . . . . .   . o . . . . o & - o . . . . . & z .   . .   #     o e .   o     X       #   o .     .     - - . . - . o &     .   o e t 2 2 .     .             o     . 4..   +     X - 1 t X.  . #   X #     . X     .                     . .       . . X                               o         X X                                       X   X . o     X     X X                       X                 #   X X y.|   . -                                   X #     #                                                                 1 M 3     X                                   X X                       # #     ",
"w X     X       w K #     X     X o       o   l n       . .   . . o .   . . . = . . . . o o     . . .           X     . = . . %.e . . - . u e . . . . . . . . . o o o . . . . . . . . .   $ - o ; * $ . . - $ . -     o     o . .   . ; . . - o - - . = & ; z & . & . . ; . . h ; . = e . . o . . . . . & - & . o . . 2 -.f o f $ $ & -.E . * C E $ $ . 2 N & o . . & = . = &     = &   . . = $ o o o o . $ & & . . . . . . . . .   o   . . e h.  o     o . o . . . . . . . . . . . . . . . . . . . . . . . . .   o .   . . .     . o . . o   . & . = o = . = = . . % s $ h & h - .   - . o &   o . . - o o - . . . o o . . . . . - l j o   . o o . o . .   . - . . u .       .   X . o u   - X     X X #   X   o     e h.# -       o - . o .     .   . 1 1 o .       . .       X #   . . 2 2     X     o - 1 z     X   o     X .             .                 X .           .             .   X                           X                     X     -     #       X       X       X     .         X     X                       u   | xXB.  o   - X   X                     X @.P                                                                             .           X                     X                                           ",
"# X           . X -   .     o z ;.o   .   . . . 1 .   . o .   . .     & . .     = . . .   . = o . o o o . . . .   . = = = . & :.W o . o o   o . . . . . . . . . . . . . . . . . . . . . . . . . & $ . . . o . $ $ . u z.z e o ;   W e . . = . .   $   . . - L . o . & . o . & & ; & z N e -   = $ . . . o $ o . 2 Z ; ; o $ 1 C.$ Q d $ $ . $ $ 2 . $ . & j $ & - o . o .   . o & o . 2 & ; $ . - & & ; ; $ $ $ $ = . . . . . . . . o         P h.3.o . o   =   . . . . . . . . o . . . . . . .       o . . . . . - .   . o - . . o o . u z .   - o & o =   . . - . s % $ % & -   o   z u   o . o - & 2 ; - - . . . o o . . . . . & e e &   . . &     = = o . . o   . X o     r M.    o   R ~.  t X   - i   .   X X   - ! # K X . .   o e u &           . .       . X .     X i .     o . z -   o     - o   - M   X o       o X o     e e     X                                             .           X X .       .                             X         -     # R # o - .             1 N &   X         #                   X     X X @ X   .   X       X X                 r T.p.    w #                                                                     X     +                                   X +     X                   X # X   ",
"          X X     .   e -     - M     . . o . . .             o   o . .   = = $ . . = u o   .   .   . . .     . . & - .   .   $ .   o o = . .   . . . . . . . . . . . . . . . . $ $ . . . . . .     . . .   . & o . - X.e - . 2 - f.L . - ;   . o & . = .   = . &   o . . o ; . . = 2 . -   & o $ o o o o . . . & j - & . - . $ $ * . . * $ ; * . $ & & o $ ; e z 2 $ o $ . o e 2 . . *.& ; . $ & $ $ & * $ $ $ $ & . . . . o   . . . o ` ;.#   1 e . . .   = o . . . . . . . . - = . . . . . . . . . . .     . e j - o .   . . . = o o z M o . . o $ . = . o o - . $ % % $ - e #   - -   .   . o - & - - o o o . . . . . . . . .     o o o .   . o j ! & . . - - . . o t X # r | # . . =   - w L w   - w o # .   -   -     -   # -     t z o           .       X o         # K # # #   - -       . o     e z o #     .   #  .1 .   X i i X   .                       .                   . X X       X             . . . . . .                 X   . #   h.].X   # K X   .       X     - M L &       o X                         #         #     - #   -                         -                                                                                             .                                                     # T o.i   ",
"  .     # z i . X .   . . . . X   X .   . o   o X   o #     X .   .   . = . . . h . ; L -   - . = . = - - . . . . . . . . o o - . o   . . = . . . . . . . . . . . . . . . . . . . $ . . = . . = . X       . . $ . . .   X   . .       = . . = = o & .   = .   = . . . & o . . o ; . = o o -   & . o - ; - . . & & . ; & . . - . * k d $ s $ * $ $ 2 . $ o   - . . & $ & 2 - . . o $ . ; = $ . h $ . . . $ $ $ . . & . . . . & . . . .   - -   -   .     . . . . . . . . . . . . e & . . . . . . o w -     . o   . o   o - . o & . & o   o .   t < h h o - & =   . & $ $ $ & . o M 2X    . o   . o - o . .   . o o . . . . o o . o . . .     o . o   o z   .       o     w       X   = . o z     = l = w o . - . R #   - o         - o   o     o               O . .   . o     X X   X X     #   w       . z z     . . o     P X . .         . .                                           X o o       .     e _ o .     . . o -                   -     . # e         - . -       -     & . o       # _ n     +                       X       .     o +       .                       X X   X X X X                                                                 X       X X .                             X         X X       X       X     ",
". . .   X - o .   . .       . .     . .         O . . $ o     O           . o . . o - - & o o - . o o . . . . o . . . . =   2 L .     . . o .   . - . . . o z = ; . & . . . .   . . . . =   . . =   o   - = . & k & d ; z z.e   3.[.o & . $ ; o . . $ . . . $ . . o = . $ . & . - . . - . . . . & & $ $ & ; & . o . - 2 & o & & - j d o . $ $ $ $ . . = o - . ! W $ ; . x . $ . = . . . . . $ $ o   o . . & $ $ & . & . . = . . . . .   . . . . - . o &     = .   .   - o o   .   o   . $ = & . . -     .   u   &   . ; z . . ;   w o   . o . = o &   o . o . . = h & . . - . . t z..   =   o   1   .   . z w o - o   = &     o . .   & . o .   . o         .       .   .     w . . . . = = .   u L - o o .   # t   X     #       o     . . .     .           X o .     . o o   . & o   . . . .         . X .       X           X             .                 . X X             X .     e t X     X     & &.K.  .     .     X   o o                               o   X .           X     X         w .                     w P                                                                 . o o o .     X X X     + +     X       X                                               X     X                                               ",
"o = X   . X .   - - - # X . . .       . . .   .   o . $ o   X X o X # = . . . .   . . . . . . X . . . o o o     . . -     . . . . . .   . . . .   .   . = . & o   . - & ; . . . . o   . . . o . o   . . o $ - 2 d j k $ W jXz   _ E.o . $ ; L . = . . . $ 2 h = o = . . e z N & . - = . = & . * * & . . & 2 - . . . o & $ $ & - $ & $ $ & ; $ $ . =   u ; o   x h . = . z - = . . . . & 2 2 & .   . - ; . . & . . . . . . = o   . . . . . . . .   .   . . o       - t W - .   - o   = - . . . &   - o     . M e   & - & o . . e o N z o . = .   . o e .   .   . ; j ; $ . = . .   . o   . o   # - .   -   . e 1 e & o = o . . o . o -       o W   .     . . - o o     . o o   o o .     . o o . o - o .   . X -   #     ;.u.              .             X o .   o o X . . .     - e - .   .   .       . . . .           .   L 3Xi #     X o                         . .                   X #   X       .   . o       . o X     . o # X     .                         X           X .             X # X       o             X w | 7   X                                                             . . o             X       #     X X       X                                     + +             X   K a.Y                                   ",
"  .         .     .       . . .       . . . . . X   A *X)   j W o         . o         . . .     o . = o     & - -   . . & .   o . . . . . . . . = . . = - . . . - .   -       & . .   -   . o .   P 2 . o = . . . & . . & .   -   o . = j & o $ = = . . . ; 2 $ . & = . $ o ; . . = ; = . . $ . * * $ . . & & . o - $ . . . . o . . . $ ; & $ $   P !.= . & . $ = . - . - . . $ . . . & h - . . - o   ; $ . = .   e o . .   . o . . . . . . . . . l & . . o   ; e !   o   . w   . - =   o ; . $ o     & ;       . z - . . & . -   . o o . . . = - - W = . = . = . & $ . = . . = & o . . - X -     o u . . z   p.l o - = . o . . . -   o 1 . - !   o . . . . - -     - -   .   . .   . o   . o . .   & o     - -         z ! # .     .     . X   o - o           - o .           - - o     .   .         . .       X .   .   M ].r X     # # X                 .     X .         .     X               X # o         .         X   . o                           X K X 1   - X   7     #   O # X o         o                   # #           X                                                                     X     X         E.E.1       X                                             X X X       v y.K                                   ",
"          . . . . .         . .       . . . . . # . g Z.Q     1 #           .         . .         . u l .   o o   . .   . & -   . . . . . . . . . . .   . o . . .   . & & j   . . . . j     . . o ` 1   . - . - $ . ; - e   X   1 - e . . =   . . . $ . . . $ . = . . . - . $ . $ . - l . . ; . . & & .   . o =   - = . $ $ o & . $ $ $ & $ $ & X l ].& - & & k = . = . . . . . $ & . o &     e   - . . 2 . . = . .   o =.u   . . . . . . . . o o N - .   .   j       o o .   o p.-   o     . . . o j     . - - - l = . . o . ; h .   $ $ . . $ & = j o . = . . . $ . . ; . . . . 2 e &   K ].X - o   .   - o . .   - o   o . o .   O.- i . 1   o - . . . . & o   o M t     o - . . - 2 .   o   o   . . o       X   w -   X -   X   o .   . X .   o X       . o o .       . . X   .                       . . X     o X   X . .         X                       X X .       . o .     # .     X   . .       X #     X o .                       X X .           p.8XX   X     X     o           X   w       X     X           X       X                                     X X                                           #     X B.s.X   X                                       + X X         O         X                                     ",
"      . .       . .     . . . .                   . $ .   # X .     X #       .       . .       o   - e o . .   # -   o .   w = . . . . . = o . . . .   . = . . . = o   .   . .   . 2 =.j - o & & .   j o   . . = . ; . . e . o O.O.. $ o . -   . . . - o . . o & - o - & . . . . . . $ = . . . . $ & o . o & - . 2 ; $ $ . . = . & & o & - & & - o o o & . $ $ = . . . . - . . . & . . o   o P 5XX   N & . & .     l   - 1 e . . . . . . . . .   = . . . - . o o o - . -   - . - o   - &   .       u . . & .   . = =   = . . e j & $ $ . o &   o o . & . o . . = = = . j 2 & . = = =   -   # X . .   o o - _   - . N e   o . . = & - L [.-   - - - . . .   o   . . 1 -   o = . . . 2 u o . o   - .   . z o   . o o - o . .   o .   X     .   .         X X     .     o - o       .     . .   . .           X # .   . X             . X                                 . . o - .           X   . . .           X         X X                   X X             r   X X   1           .       X     X X #   X     X     X       X X X                                         X                                 X X X                     X X                                   O .         X                                                   ",
"              . .           . . .               7   . .   O   . -         . .       . o o .     .     .     . .       =.! . .   . . . . o & o . o . . & . . .   . . X n.i   ;.t.X     2   . o h 2 o & W k & . . j ; . e h.= -   1 2 . ; ; . . o N & . . . . & ; . j l ; . . $ . $ = . . . $ j . & o . o o o o . & ; ; $ $ . . = = - $ $ ; 2 & . M h & $ & $ & . . $ ; = . . . . . $ . o & . o t U . & = . = . . . .   ;   2 yXz . . . & = . . . .   . . . . = .   - h.&   o   . & x.u   - . . - i.-   . - .   = . . =   & = - = o . . o .   o . . o   - . . . - . = . . l h - o $ . -   ! i   X . o -   . - !   2 - z e . .   . .         o . L - - . . . . o       .     . .   .   o - .   . . 2 -   o M -   o o o     X     o     X   X -   . o .         . - w #   . X .       X     . . . # X             X   . .   o .   7 X .                                   o X . X - X .         X     .     . + O   .   # #     . .                                       X X   X     t ,           X   .     n.9Xu.                                                                                                          X X       # X     #       X                               .     +               X X                                   ",
"X           . . w - o X .     .     .             . . l i   X D.| w     . o .     . . o o . . X .   . = o .   . X     o . h 2 . . . . . . o o . . .   =   . -   . . w 1XP . - $     X l e o . $ . o     2 ; . = . . . - ! .   o   - 2 . . &   o L 2 o . . . - - . 2 . = - x z . = . . ; . h =.h - o . & & . . o o . . $ $ & 2 e ; - o $ 1 < $ . &   2 o o . . ; . & j - . . . $ . . . $ & .     X   .   . . . o . = = . - . - ! . . = - = . . = ; . = . - . = = o . o . o . & ; o u .   .   .   - . -   .   o o - . = . o ; -   = . . - o   . . . . . .   . . o & 8 = . = -     . -     X.w   o - .   - - M T.  o . . .   . . o = . . o w . &   o & . . . . o . . o & . . . . = .     . .     o o o   . o .     .     o X   .   .   .   u z   .             - ! u -           X               # .     X           o o   . =     .         X     # X       .         . o X     X X .         X                     o L P -   .                                     #         X     (.f.. - # . -     .   P vXcXz               .     X X #                                                                           X   o ..;.w         X         # #                             j Z.<.- @     X                                               ",
"t # X       . . - .         . o     . . . . . . X .   e       - #     .     . . . . . . . . . o W u .   & o . . +   o     ` f . . . . . . . . . . = . =   ; ~ - . .     # #   =   X     . . . . o   $ & Z j . . o o $ . .   - . . h * $ ; . . o . $ 2 z e - = . . & . = $ 2 ; . . o . = . . 2 $ o o & 1 &   o j j & $ & $ $ * & ; = . $ & & & 2 . * o 1 $ ; - . 2 $ & . & = . . . . $ & . . X X   #   o = . . . $ . . $ . =   . = . . . . . . - -   .   L - = .       - o o   . . & o .     o   .   . . o . ; e . . = ; . = = .   . .   . e e o 2 . -   o - . o . e . . . 2 o o =   o .     -   o = o .   e P   W z o . & . .   . .   . o w . . . = . . .   . . . o o   . . . . o . . o = .   . . . . o   . o o             #           L W     X     o o     w X   . o o     .         X           X - #     . -   . o   . o       .           e - .                 . .     #                       X . .     .   X X     # .                                   X   X e e   X . 2 , 3   # _       X     z #     .                                                                                             X   X     t K X     X       X   X - - X                           , 1.S . +                 X                                   ",
"P u # X X     o X   .     .   o       X X       .     o . t .     o .   . .   = . . . . . . . = :.. -   L _     . o o .     . o   = . . .   . o   X .   . - & . . . e   & . . .       . . = o   $ . & - E & . .   = . & $ . o . . o . . & ; = . - o f j C.m j .   o   o o   - . -   = . l  .=   o ; & . . . & z j . . ; . - - . k * o $ & h . o o - . x z $ & . Q m o - u o . . .   .   2 W o o   N i.  -   -     o   1 - . o . .   . . . - o . . . . o o   . u & . . .   . o . o & .   . o . .   o . - . . W L . = ; e - . . . $ . . -   & e z l - . . . . = o . -   o - j . . = . . = .   . - = . . o .   . . - o . . . e .   . . . . o & . . . . . . . . .   .   . . . . . . . . . .         o     .   . e j   . .       #   .   . #   o X     X       . o   .   . X     X . . .             .   - m.. o   - X . . . .             X . . .       } aXH O       # X         X                   .             .   . .       X l .   . o .                           X T !                                         X     o       X                 o o             -           .     .     X                                                                                           X                       X             w 7               ",
"=             o     . o . . o .               .   - .   - 3.L   . .     o .     . . . . . . . .   = .   -   .   e - o . . . . . . -   .   = .       . . . o o $ u z.!   &   j . . . . . = - - = $ $ = . -   . o . . &       - . . . . & ; . . - - $ . . h . $ $ i G.;.o & . o ; ;.= . . - -   e $ ; & . = . . - o o $   j & . =   ; ; W j , , - =   = . & . . ;   & $ . . . . $ . = L t - 2   .   o e   =   . . o   .   o . o &   . e - . .   . = . . .     o u - o o o . . .     o o o - -   . .     o o & 2 .   . . = o . . . . . . . o . . . = . . . . . = . . o       o . = & . . o . . = ; j =   . . . o .   -   = . i.i   . .   o o   .   . . . . . . . .   = =     o . .   . .     X # # # t z X o   1 e . #   X   - h.z . X X   - o X . X     - -     X X           .   . . .           X   . w   .     X     . .                   . . X   0 v.O   #   X   #   X                         .                 o     o X X     o X     .                           # X   -                                 #             X         # #       X o . . X X X .     o     # X   #         # X K #     X X X X                                                                   X +       #                 X           X t ..r #             ",
"          . o - + +             .             . .     o . X   X = . - =     - - . . . . . . . .   .     o   .   - o     . . . . . . = = . .   = . . . o .   . . z.P   .   j R.- . . . . . = . . . & = . . . . . . . . . = ;   o   . o $ & $ . .   . . ; & . . . t  .P u - . - - ! ; . . .     2 & ; & o & o . . . h h & z W & . - o . j 1 . & o & . & - = - o ;  .. o ; o ; - . . $ W j . o . o o   . . $ . . -   e e o   - -   . - x l o . . = . . . = . . & - o . o o . . o .   o . . & .   o o . &         o - o . . = o . . = . o   - . o o .   . $ . . o o . . . . o . $ . o . . . . . o - 2 . . . . . .   o   - . -     o . .   o .   z u   . o o . . . . - .   = .   . - . . .     . X # o l t   -   l W   X X . X - i . o X   X       o       . X .       .     . o       . . . . .       . .       X .       . .                     .   .   O     -     S.T.    X +                                   X       .       w .   .                           #                                               @ '.b.        X     X e e X     X               X       X     O         X   i ..r     X                                                                             X         o X .             X             #               ",
". .         . .     # o . #   .     . . .       . . o         .   o     2 o     . . . . . . . . - . o . =     o     . . o . . o & . l . = . . . . . . o o . o =     . . - . o o . . . . . . . . . = . . . - .   - . . ; w z   o   o o . . $ & ; o .   $ . & = . e   e f.` 2 2   . - = . . . o . - ; o . = $ . = 1 2 . & o .   ` ;.- . o . & . $ o .   D.W   j. .R.o   - . . ; * = . ; $   & . . . . . = . $ . = o 4.4.XX;.. . = . . - =   . . . . o e e . . o o .   . .   . o . . o     .     o . . o o - - . o e - o o = o . . . . o o = . - & = . $ = . . o o =   . o     = . . o = o . . . . . . o = .   . o .   o . . X -   . .   o   o P z   . o o . . . .   .   - . X .       . .           .   o &     . . . .   . o   o     e G.K # X   . . o     o . .   X .   - - X   . . . . . .       X     X     o       . .               .         .     #   o . X a.+.  X X                                     X             z P o     . .                     X .   . o   o                   .               O w -Xn.  7             X X       X     +     7 X   .         W.xX-X5   @     X #             X                                                                                 - # o X         . .     X +                   X ",
"- - X     . .     o     c.m.  -     . . . . .     1 z o   # X   & . & o &   o . . . . . . = o . . o . o =   . . . . o - & . . . . x d.e . . - = . . . . & w e - N . -     = .   . . . = & = = = . o . =   o . . .   -     = - . . . . . . . d %.8 = . . . . . . w o . ; $ . $ - . = . o o . = . = - . . . . . -   S.S.  - e & e ..- 2 - o o $ & . o 2 o e e o     - o e j $ . . o . $ . & &   . . . = . . . . $   -   j.;.- . . o . .     o . . - - ; -     & - - . . .   . .   . o . . - o   .   o   . .   . o o . . . . . . . $ . e L = = - . - = = = . . . .   o u W . . . = . = - = . . . . = o o o   . - w ; . o o     -   .   o &   . -   . . . . . . . .   e   o w -   #       . .     . .     - .   o   . .   -     e o .   . +.    X . o     .       X   o . . - - o . . . . . X .     X     #   .           . .               X X         .   X   - = #     #   .   .                                     X     #     o X X     . o                   .     ..!     X                 . .               O                               +     .     .     X         }.aXw.      #           X       X                                       X X                         +                             o - o                           ",
"; - .     . . . .   P W n P 2 , . . . . . o - -   . - -       X o   . o - o -   . . . . . & = . . o x - . o . . = . . o & o . . . . - -   o .   . o . . o ; 2 o   o & . . . . . . . . = = . . o . & ; j . . . = o o . . = = . - & X . . $ . $ d = $ 2 $ & . . .   - - . & & $ o . = . = = . = . $ - = . & $ . & & 4.4.o . - . $ o . . - & . * $ .   2 i.. . . - o e . o 2 * ; $ . ; ; . $ $ . z l . . . . . . . . o . - o . . . o . = . . = . . 2 = . . . . o & 2 o . . . o o   . o . o 2 & . o   o . o   o W 4.. . . . . . . . - $ e L . = - . = . . = o . . . . & u ..w - . . . . . . . . . . o . . . . o - o . . .   oXl   o .   o .   o .   . . . . . . . . o   - ;.e   -   - .     . . o - #   #       ! i   o - - .   .     #   X     X .     - . . o     . .     . .     . . . . . .         . .     - - X     . .       X                   .     - - . . X # z   .   # .                             X X   X X     . #     . .                             o X._                                         X     #     #         X X     X X         -     X       X X O O     w #   @   X X                                                   X X                                     X                 o o                             ",
".               X . j j     o . . . . . . = - - . .       L w . . e . . m. .. . . . . . o & = . . o ;.e   $ . ; .     o o .   . =     l - 2 2 - . . . . . o .     o . o - . . = $ . . . .   . . . o e l & = o . $ - - & .   * j o - . . = & $ $ . . = . o . . 2 ; . o . . & & .   o & . . - = . $ ; = $ ; - . & .   . N - 2 . . . & $ $ & . 2 $ - - z i.. l . o E . . & & & & . . = & $ . . & x z . o . o . . . -   . - l = . = .   o .   . .   = . . o - o   . & . . . . o o . . .     o . . e u . . . . o . . . . $ o . . . . . . . . . . . . . . . = . . = = z o   o   o . = . . . . . . . .     . . . o o . ;   - o L   & . . o       o - o . . . . . . . .   G   .       i e #     . . . o     -       u . . = ;   . ;   ;   .     X         - z X . i -   .     X           . .   . .         #     . w e X     . .           X #     +     . . . . - o     X   # #     o . .                   X     X - ].i       X     -     .       X                   X         X                                   X   #     #                           X   P p.& X     X         +                         X X                                                                   X         r i X                 *.L o   X X                     ",
".   . - - .   .   7     -         . .   . . .     - o o . M &   . . o   e   . . . . . . . $ . . o . o . . . & .   . - 2 &     .   . . o . e L . . . . . . . . o - . . . . ; ; . = . . . . . o w o . . .   o - . o . S.z $ $ rXD.    . = . . k -.. . . . & &   ; ; . $ o o ; 1 1 & . = . . o . . $ & . . & & . $ & $ ; . . o & o $ s C $ $ o . $ =   2 o $ $ = . 2 . $ . . . . 2 . . . & . . . . .   o o   o .     w . & . = - . o . . . . = . . . . . = - .   o .   . . . . .   . . .   .   o j l   - .   =   o . . . . . . . . . $ .   l - . . . . . o . . - e j o   o o . . . . . . = o . . . . o & o   . ; e . .   . . . & .   2   . o   o   . o = o . . . o . .   ! w     . w X     . . . . X     # X       .     o . . o = -     #       .     -     -     X   - e #   . . . . .     .     X X     . o     X     . .           r i X X #   X X X   .     X X X X     . o   . .                   X     X w X.X   #       .   . X     . - .                   X     X   X                                           X         X .         o .         3.H.&     X   X O       X     #             X X                                                                           +   X M.Q.#                 & o                             ",
". . o - #       .   . . o . .   X     . . .   . . . = o .   . . . . . . . . . . $ .     - . .   . . . . . . . .   . = o o o .   . . . - . .  .m.. . $ . = ; - . = o 1   o o . $ = =   . X   i cX}.  1 . . =   -   & & .   - z L . . o . . $ & - . . $ . . ; l . . . * & ; ~ *.; h o   . -   . . $ o . . $ $ & * - -   o o . & . . - o 2 - . 1   1 o   = = . . & & - o $ . . 2 o o . = $ . $ = . - . . . o . m. .. o   .     1   . . . . . . o - o . .   . . . . . . . .   . . . o   . = .   o . . 8 l $ . o   X . & . 1 o R...  - . . . o o . - w . o .   = & & . . & w . o . . . & . . o . . .   o j u   - = . &   =     -     #     r # 9Xs.  o . . o - & o . . o o T -     o o .           .         .   . . -   . - - . . .     . . .         o = .   X X   #   t t   X # . X   #   X X   X   . o     X .     M       o . .     aXaX6 6 ` .         .       = .   . X .   X         .           o .       X     .     . .     .   . .   .     . .               X   X     .                     X                                                                                             .   X X   #                                                                           X X X +                                             . . ",
"      o o                 . .       . = = .     . . . . .   . . . . . . .     . . . - . . . o   . . . . . . . . . . . . . . o . . - .   . e z o . . = . . . o o . . o . o . . = . . . . .   7 [ K # -   o   - . o . .   . o . . . . o . . . $ $ . . o $ . . = $ . . $ . . ; 2 . - & - .   &   j $ $ $ $ $ $ $ $ . . & & e &   - e 4.- . ~ e   o . - 1 = . = - . . ; o . $ . . .   o . = ; . . = . . . . . . z o .   - . t o ! - . . . . . . . o . o o o . . .           . .     .   . . . . . o . . $ . ; u .   ; .   - e ;.t . = . = . . . . =   &   o - - u 2 l j     . o   = . = . o - o . o o   & -   - &   .   . 2 -     #   o i.t u ;.w   . . . o o . . . X X   o   o           . . . . . X           X - w . X - - . . . . .     . . . . o .     X   X | p.X X o   .       X #       X       .     .     X u.X   # . - = w @ ] D O @     - - o .   . . .   o o           . .                 .     # X     . .     . . .     . .                   o X   X     #               X X         X X                                                                                                                                                                                                                                           ",
".     . # o           . . - . .     . - - o .     . . . . . . . . . o o o . . o o   . = o   o   . . . . . . . . . . . . . . . . . o   . . = - . . . . . o .     . . . . & ; . = . . = . & . . .   . . o - h f.x o . $ & = . . . . . . . . . . . . . . = . . . . . . $ o . . . . & o = . . e & ! & & & = $ $ o o & . -     o e   . j - o & o 2 e &   . =   . . - $ h - & e =   . o .   . . = . . . -   . . .     .   2   z . L o . . . . . . . .   . . . . . . . . . . . o o .   . o . . . . . o . . . . - ; . . .   .   o . . x . . - . . . . . . j -     . o 2 e 2 e j . . .   o .   . & .   o o . e &     = &   e   & ; . e - R ! e       + X . . o = . . . . o   . .   X   o     .                 . .   . o o     X . . . . . .       . . .   8 .   o   . T +.X           o   # w T #     X .     . .     .   X X     .   - # @ O O O .   $ - - .           o     X o X X X   .             X X o         X   . .     . .                     .       # # .     i i.w #           1 w X                                                                                                       # #     #   X                                                                                                                                 ",
"o     . o o       X # = o .     . . . . . . . . . . . . . . . . . . o - & o o & - o . o o . . . . . . . . . . . . . . . . . .   o     = . . . ; = .   . = = = & . $ . . . - . . . . = = . - . W W = & $ $ ; E . . . o o .   . = . . . . . . . . . $ . . . = $ . . $ $ = & . . ; 1 $ . . ; . . & o . . . $ = $ $ . -   , `   o -   .   . o . & . . . & & . - & . . $ . . 2 - o & e   o e . . u - . -   . . -   - . o o o .   o   . . . . . . .   & o .   . . . o . . . o - = . . . - =   . .   . o . . . . o . # R #     o . . ; . = e = . . . . - w j . W 4.o &   . z ! .   o   . . . . . . . - l = - . . . o . .  .w     . M u 1 L   - o       . o & = .     . o   o . - #       .             X     . .             .   . . . . . . . . .       u w   . .   . X         .   o   X X i.w X   X . .         .         # o   o o 7     X   . = .                   . o .     X                       o - o .                                       X X     . o o     w ..      . .     w w X                                                                                                     @     X     #                                                                                                                                   ",
".                   # . w   . - . .       . . . . . . . . . .     . . o o . . o o W z .   . . . . . . . . . . . . . . . . . . .     . . . = $ . . . . .   . e E . - - . . . . $ .   o o   - . ; $ . . . & $ . = = o .   . o o . . . . . $ = = . . $ . . . $ . . . = . . o .   = & & o = l o .   o . . . . . o o o .   j *.& 1 o & . $ h 1 o $ . ; . o .   . o & 2 $ o o o = o . ].z   - .   -   . . = = . =   . . o   o   .     . . . . . . . . e - o . . . . . . . . . o o . . . - &   . . . . o . . . . = . o u.w   o o - o . . - e . . . . o     &   z  .    . & o - . . . &   o e & . o o - l = =   . . .   . z 2 - ; .     t o o     X   o o o o o . . .     w i.z X   . -         . X X   M w .           X - w -     .   . . = o o . . o ; . . X         . . .     X           e   # X     X         o     e             . .         .             . .   X     X # # o o           .     X   X o . o                     .       . .   .           . . . X             .     . o X             . X . .                                                                                     _.N.y                                                                                                                                         ",
"          . . .   a.R.o   . w   . .   . .   . . . . . . . . . . . . . . .     . . z e . . o   . . . . . . . . . o .     . . . =   . = .   - = . . . . . .   = e & . . . & = . & $ ; o   z . . . . & . & ; . . . $ = o . . = $ . . . . . . = = . . . . . . . . = . $ .   o .   . $ . & = w  .2 o - & . . . . . . o . h.:.  . ! z   ; $ . 2 .   P ~ - = = .   o ~ N ; - & . . . . z - - ; - . . o = . - = . . .   . . .   . . o . . . . . . . . . - o . . o . . . . .   . . . . . . o . . . . . . . . ; - . . . . M.K . &   . = o . = - .   o . o   u -   .   . w - o . & . = . .     e =   = . . - = - .   . . o .       . .   - e . o   . - .   . . . . . o . . X . u                 . .       i -           . . # w - .   .   . . . . . . = - l     o     X   = .                 .       o     X   X o . - .     .     o       . - - .   .   X .               X .   .                           -       .                 . .           . .         .         X     o o       . o                 .                                                                                         s.NX7X        #                                                                                                                                 ",
"          . . .   . o   8 . - e o .     .     . . . . . . . . . . . . . . . . .   . o 2 = .   . . . . . . . . . - o . . . . . - = . = .   . . - .   . . o . . .   . = . = & .   $ l & . P   . - = o . - . . w   = . . . . . . . . . . . . . . . . . $ & . . & . . . . . = . . & e . . . . E -   ; & $ o $ $ $ o o   z l - &   . - . . o   . & o . . = . o -   o $ . . . . . o u 1 - . . . . .   ; & . . . . o o . . .   o . . . . . o o . . . . .     . . . o - . . . . . . . . .   . o . . o .   o e - . . .   G.| o . . o o   . . = . . o . .   o . & - . - = o   - j . o o   o   - .   - . . - = .   & t o     X 2 w = .   o . e   =     - .   . . . . o o . o       .   . o .     .       o .     . X . .       X X     .     . .       . = - . . .   . .       . o       X . o e o .   . .   X   w u . - . .     X.t   M # -   . .   . -   o .           .   u.u.#   X o                 # X   X # . . o           .     . . .           . +     .     o e   o           X   . .                         X X                                                                               @ 5         +                                                                                                                                   ",
"          . .   .   . . o   P /.= .           . . . . . . . . . .     . . . . .   . j P . o = . . . . . . . . . w - - & o . . & & . = . . &     . . . . . . & -   L O.- . . =   $ $ 2 X   # +     - . . ; o   X E ; . . - & . . . = & = . . . . . . $ $ & j j . o . . o o   . = j o $ = .   h - $ . . . $ $ $ $ o . o . . o   & . 2 N j ; & . . $ . . & E E   $ . $ & . = .   N ;.= . ; $ . = . = ;   o o o   . . . . . . o   .   . o o o .   . o . . o . . - l     . . . .   . o   o - o . o . .   o . . e -   # u - . . . . . . . . . . = . . -   o & . . . & . -     . o   2 M   . . . e & = . = . . o u .   T._     . . o . . & .   & .   . . . o . . . . .   X X .   . -   .     .     - K .   . .       . X     .     .   . . . . . . . .   . .   .     X - . . .     X     e -     W 1   .     i z         o   N -     X     o + + .   . .         . X X   r #   o     .       X .   o i N.r     . .                     .                     .     M 4.. .   .   .     .                           o 1 X X                                                                             O   O @                                                                                                                         . . .           ",
"                  o =       X X                 . . . . . . . . .   o   .   . . . . = o . . . . d ; $ . ; . o w   # o   . . . $ . . m.i.  . o . . = = . . = = .   P L   -   . . . . . . . . . . .   o . $ &   o W - ` j . $ . . . - - . . $ . . . . . . ; h $ $   2 2 . - o & . & o . . o . & & . . * Z 7.C * . . $ & . - = - .   e ` d $ $ . = . & . . h h & o . . . . . . . . . . . . . . . . . . . . = - &   .   . = o     . . . . o . . . . . . . . .     . . . . . . . . = . = . . $ . . = . . . . . . . . = e   . &   & - o - & $ h h o o = & $ . . .   & w   o   -     M ! . o   ; e . $ - o . o - .   - 5X...     - - - . . . . . . . . . . . . . . .   . . . . . . .     X     w - o z     o & .         . .   - o   z 6Xj   -   u T                     X   X X   o   X X .   . # o   X   . X     o   .     . . .   .                   o     . - w .                             o w  .-                   .           R       X X             . .                 .     .                 X     X r # X                   1 w X                                                                     o     . o         X                         X                       , Z 2   X                                   w   1 R N       ",
"            . o . . . . .       X .             . . . . . .     .   = . o . = $   . . . . . . . $ = $ . = o o &   . X . o . . . =   z u   - .   . = . . . = = . W i.  -   - - = . . . . $ & & ; 8 o . & & & &   &   h - . o . . . ; ; o . . $ & $ $ = . $ = . & o 2 o . l ;   o . & = - & . $ . = . & f 7.&.o $ & ; = & . z e 2 ,   . . * = . . $ $ $ = & & $ . l e - o . . . = . $ $ . . . o . . . . . . . . . . . . . o - o   = . . . . . .   . . . . . - &   . . . . . . o = . . $ . . . . $ . . . o = . . . e z = . o o 2 e . = & . & - . . . - - & 2 = . o -   . 2   t 1   .   & = e ; = $ - - o . o o . .       e .   o . o o . . . . . . o . . . . . . . . . . .           .   o u -   . o . .       . X X # X         l 4.=   - o - e                   . X X     #   #   .       o .           u o . t . . . . . . . .                 #   -     -                     .             o o     o .         . . . .       @.n.-         #         . . . .     . . . . . . .           . .   X       w w   .                     o # .                                                                       2 e                   .       X     X                             o j -   X                                     U dXMX3X#     ",
".       . . . . .   . . o       o o .         . . . . . . .     . . .   . . & * o o o . . . . .   . .     o     .     . . . . . .       . .   o . . . . . = $ . $ = = .   -   = . - . . . . . = . . . 2 &   ; o . . . $ . . . . . - - . . . . . . . . = .   .   =   = .   o . o . = $ $ . . ; 2 . ; - * o $ & & & = e . - .   . , . o & & . o $ 2 & 2 h & $ & . ; ; - = = = $ $ . . . . . . . . . . . . . . . o . . . . o - - . o . . . o o . . . . . = .   . . . . o . . . o = . . $ = . . . . . . o = & o . . . - =   . o o . . . - $ . . . . . . . . - . . . o . l ..o  .z   . & o . .   $ . - - .   . o .   - - . .   o .   = o . . . . . . o . . . .   . o . o o .     o -   . . . . . . .     . & o .     X     . . - o   o .   X o . o ,                     ..z.  X               . .     - X o   o   - . o o . . . .                         X -           . .         X .   . .           X X     .                   # w   X                 . . . .                 - # .           X   -     $X0X                                                                                                  - ` _ -   X #         X #   X w K #         X #                 O   1 4.` .                                       r z.p.#   w   ",
"# X     . . . .   . . . o .   . o o . .             . . . . o o . . . . . . * 2 = = . . . . . . = . o   X X .   .   . .   . = .   o . . .   . & . . . . . = o . $ $ $   -   - - . - = . . . . $ . . o 2 2 . . . . - . = . $ . . . o . . $ $ . . * & . o   X R T . . ! ! - P l . . = . $ . . h N l . $ & & j & f.h.. j ; & o l     o o o $ . j ; - . & ; o . $ $ . . . = & = $ . $ & & & & = $ . . . . . . . . . . . . . . . - l   . o . . . . o . . . - . . & o . . . . . . . o =   . & o . . . . . . = o . . . . . - . o - . . . . - $ . . . . = . = z ~ . 2 &   . & o   o   .   . . o = . o . .       . . . =     . - z i.& . . . . . . . . . o .   . .     . . . . . . o 2 z . . X     X w - o .   . .     X   X - o       -   # .   . . . -                 . o X w       #   . .       .   -     o   # o     . .   . o o                     #       . #       . .       . . .   . X X     X X       . .                         -   # - -         . X X .                 w - .             o X   # w # #                                                                                                   - o                         w u.z X                           O   e p.2.-   X                                           X X   ",
"- .         . .   o = .   . . . . . . .             . . . o o =   =   . o . $ $ .   . . o . . . .   . o u         . = o . = - . . = . . . . .   . . . . . . . . $ h 2 & o o     . . . $ & . . - o . . & N z   . . -   o . = . $ . . . . = & & - & ; & &     R T . . - . . z = . $ $ $ 2 2 o - 2 ; $ m g.< * x 2 z o $ = . - . & & 2 ; o & = z 2 . . . . $ . . = $ . . . $ $ $ $ W k & . . . . . . = .   . = o   . . . $ .   = u   o . . o o   . . . o . . N L . . . . . . . . . o . . = o = = . o . . . . . . . - . = . . = o - . . o .   . . . . . . ; N   2 . . - o   o     - o   . o = & . .   . . . o .   o .   o . o P   o . . . . . . . . .     . o o . . . . . . . o - w o     . o e u   o o   . o     .         - &   &   X o . . .   .                   .         X     . .       . .   o i           . . .   . - - .                 o -    .L         . . . .   . . . . . . . .             . .     .                 X           -         . . . . . . . .         .                                             X           .                                                                             # X   X               # #         X +                         .                                         X     X #     X ",
"    . o - .   .   - - .   . . .   . . . . . . . . . . . . . o o e m o . .   . $ . . = ; 2 & . . . - . l W o = . . . .     o & . . o . . . . =   . . . . . . . . $ = ;     o   - . . . . . . . . . . . . z x   $ . & . . . o $ . . $ . .     . ; . . . o o . o   . . = = . - . . $ . . ; ; . o $ & . & m $ h & &   . - = . = . - . $ o o 2 . . . . & . . - = . - . . . = = & $ $ . . . & e ; $ . . . . . = e e o   $ $ . . . o   - - .   - 2 .   . . .   . u u   . . . . . . . . . . . . o - = . . . . . . . $ = = . . . .   . . $ . .   o - . . - - o   o o j o . o . o o - .   = . . .   .   . . w e o . . .   w u . o . o   o . . . o o . . . . . . o & o . . o o . o o o . . .   X . . - -   . o o - w o   . X   l M     o . . . o o   . .                   X   X   X     #     .             P h.M.- . . + . .     . o .                   e z   R.m.  o X   . . .       . . . .                   .     o o X .   . .         X # X X   .           . .     . . .                         .   X -     X               X #                                                                                       . o               # #         X X                         X #         # O                                             X   ",
"    o 8 8 o .     X o .   . . . . . . . . . . . . . . . . . . . W ` & o . . = ; - - - 2 2 = . . o W   o - . . . . .   . o o o & . . = . . . . ; o o . . . . . .   .   1 z.2 z . $ . . . . = - . . = & o . . . . . = - . . . $ . $ $ . . o .   . . o .   o l - . - . . . . . = & . $ . o . . & $ 1 . & j.N . . . & & .   $ $ $ & * .   & ` W & . . . . . . . . =   . . = - & . . W j = . . . . . . . . . = e e ; . $ $ . . $ .   - 2 o   - ; . . . . . . .     . . . . . . . . . . - - . . o o . . . . . . . $ = . . . - o . -   . . . . 1 2 . = . . = . . o -   - - . =   2 - .   = . o . 1 -   . e e . . o .    .P . . o . . . . . . . . . . . . & - o . o o . o o . o o . .     X #       .   - - . . & . . u i.# l L   . 2   . . o .     o o                 o     #   X #                   o   - N.- X   X .       . . .                       X o o         . . .                         . o     .     o X .     . . .   X           o                                   . . .                                       . X                                                                                         X X   X               X X           X #                       X X                                             @         ",
"    . . .     o       . . . . . . . . .     . . . . . . . . . . < m   . . . . $ = . . . . . . . ~ H.. o . . ; & . . . e L 2 . . . . . . & .   j & o . . . . . . o   1 M M.- . . . . - - = L ~ l . .   o   o N & . . e o . . $ . & . . ; x z - . . u L = o ; . $ . - . . x ; . . . 2 ; $ o $ ; . 2 d . 2 h e h o .   x m.. . & . $ & -   2 & . & . . - = . . ; . & o . . . . . . - = . = & $ . . . . . . . . o o & $ $ $ . . . -   - o   . .   o . . . . . = . . . . . . . . . .   w w .   . . . . . . o . . . . . =   . . o l o . . . . e e . = -   . o   . . o . - . & . .   . l ! . .   1 z     o o . . . . o .   o o = =   . . . . . . . . . . - - o   . o . .         . o =   X # X . . .   . o     =     - e     . o .   o . . . . . .                     o '.K   X     o                   X       X       . . . .   . .                 X       -   # o   . . .                   X .           o o               X . .   #     #     .                     .       . .               .               X                 X             .                                                                 X       X             X     i u.K +                               X           X                                   #       O   X ",
". . . .         . . . . . . . . . . . . . . .     . . . . . . . -.m $ . . . . +   2 & o   o .   e w o   . o o . $ . . e h.& :.i.  . . . . . . . & 2 $ $ . $ $ h N   -.j . . . . . =   . 8 L e . . . . . . d Z < $ 2 . . . = = & . . . = ;.:.. . . L x . . & $ . . = . ; x - = . . - . & .   - 2 *.1   - j 2 %.-.N o e =.. ; ; . * d . . . - . $ & . h h . $ $ $ . . . . . $ $ . = . = x . . . o . . . . o = . . W z . . . . . . . $ . . . o . . . . . . = =   o .   . & . . . . . . o .   . & o   -   o & . & . . . . o   - N & . o - o . . . .   o o z   - ;       | L u - . . - & o . . . . o   . = . . . . . = . . . . . . . o . . . . . . . o . & - o .   o . - - u .     z ;..   .       . o .             . . .                 .   .   .   X     . . o . # 7     L S.  . . . . . . . . .   . . . .               X # .   . .             .           . .           . & V - o             .                 . . . .   . . . o .                   .                     .                         . .   .   .             O O     X                       . .             X     m B o         @     #   X                             T `.e.5   O     X                                                       X     X                     ",
". . . . .       . . o o . . . . . . . . o - - - . . o . . . . . $ .   o - = .   l N - - . . .   . o o o o o . . . = . = -   2 e . o = = . . . . . $ . . . . . d h   - . = - .   & - . . . = . . . . . & . & f . 2 j . $ . . . . - - =   $ = . - $ = . $ & . $ N . . & $ $ $ o N -   . . - i.o . h . - e . 6.x.& - &   . & $ $ ; ; . ; o & l ; $ . h 6.* * * k d $ . . . . $ $ . . . . . . = &   . . . . . . . . . . o . = $ . ; h 8 = . . .   . . . o o   = j   o . = - . . . . o . . . . & - - -     -   - . . o . . o   . - o 2   o   . e o o o - = l o   o e z . - . o & o . o . . . . . o = = - - & . . . . . . . . . . . . .   . . o & - &   & e l N w   . m e - - - . . - ^ - . o .   o .   . . o       # .     . . . .     # . . o - o   # .   . .   . =   + . - e !     .     o .   . & . . . .           . X         . . .                           . o       # - o < = . .                   . o o o   . . . . . . .   o - .         .                         .   .                     X                   X +     -   X X                             X               o j M # X     #                               X             O     O       X                 X X                             X     X X     O                 ",
". . . . .         . . .       . . . . . . = = & . . o . . . . .   . . & ; - o . O.! & .     . o   . . .       . . -   .   . o   . . = o . . . . . . . . = $ d W * 1     ; = . .   .   = . . . - . . . - = . o . . $ . . . = & = & = & - o . o o . . . . . . & x & . $ . . & . - o - . & W A.- & o & - $   - m J.j . e E . . d . . . - . 2 & & * = d.^.$ $ $ d * = . . . . $ . . o & E ; = = - . . . . . . . . . - . . - . . - . . . . . . . . . = . . - . . - . . . . = . . . . .   . . . . = &     :.;.$ = . = o o - - o o = ; o   4.:.- - .   . L w   . & = = M o . . o . o . . . . . o = & - . o = & o . . . . . . . . . . . o o & & . . - u - w - o w - . u & .     .   . o - w . o .   = . . . . . .     X       . o # X   . - 1     u . - w X . .   .   .       w .   .   . - -     . o                   . . .               . . .           .         .               . .   . .               . X o # #       .     . . . o o .         .                       . .                     .       . X X X                   .   X   #                     -     X     X     .   . .       X X.t   +   X #                   X     X @         X X                         # # X                               X     w @                   ",
". . . . . .     . o . . . .   o . . . . .   . .   . o . . . . . o & = . . . . . o o   . . .     . . .     o & . .   = = . = = . . . = o . . . o . . = . $ $ d m - z = & = .   & . . . - o . .   . . . $ = . . . . . . . . . . . & . . . . . o   . = - . . . $ . o f 2 * $ . & o & o . . & & . - 1 $ $ . ; o W OX~.m.. ; ; - . & & . 4.Z   d $ * & o . . ; $ . h - $ . . . $ . . . -  .; . . = . . . o o . . o =   o =     = = . . . . = o . .   . .   . . . & . .   . . . . = o . o - 2 o   . o o . ;.j . . & . . o - . . o   - . & l - . .   2 2 z w . - .   . . . . o . . . . . . . o = = & & . . . = o . . . . . . . . . . . o   . . . . o . & o .   o o   -     o o -   .   . - . . .   . . - .     o .           . o o X . 2 XXW     -         X   o i #   X     o     # . . w w .   o o   .         . . .       . X o .     . . . . .       . . .       .     X         = .   . .                 . X X .       .   . . . 1 .     .     .         . .           . .                                           X # X X     g 8.o     X   X                     X 1                         p.dXS.  X                                     #         X O                     X X                               X     K n.O.                  ",
"    . . . . . . . . .   . . . .   . . . . . . .   . . . . . . . . $ = . . . .     &   o . o .     . . . & l u . . . z ; =   . o o = - = . . . . . . - . o o & . = & . = . o   o - $ & o     o .   = . . $ . . = o $ & . . . . . . - . $ - = l j . . . = $ . . . o f k d $ . & & o   2 $ $ . & 2 2 1 & 1 N o . $ z e & 4.$ . * d ; h 1 . o 2 1 & & ; & & . & . - & $ . . . . . . . . -   . - - = . . o o . . . = -   ; o . - . = = . . .     o . $ = - w . z :.& . . . . . o = o . . - - .   . . o   2   . . - . . - 2   . &   . .   o - - - - . - w z - &   o o . o   . = - - . .   . o o . . . o . o = = .   . . . . . . . . .   . e l - . . o =   o = . . . . o     o   o X   . . .   . .   = e o .   #   .       . .   . . .   .   1 .   -       #   X e o   .   .       . o o . . & o   . & X .               . o o       .   . . X X . .     . . .         .         X   . . . . .                               .     . . & - - & o .               .           . . .                       # #       X         .   X X   8..Xj         X                   #       X   O       X +       X X   o     X                   +               X 1 o         X                                                   X #     @                     ",
"      . . . . . . . o o . . .     . . o o . . . . . . . . . . . . o = . . = = . u z - .   . . . o . . . . e e   . o w - . . $ = . o = = . . . . = . = . . $ & . . . . o   =   o & . $ .   o L !   = . . . . = . . . $ . 2 - . = . 1 o o .   - 1 . . . . & $ $ & & & Z d $ 1   o   N . $ k 2 o . & . 1 :.2 $ j . h - j :.d . 2 ; . .   z 0X/.1 . & .   - $ . . . $ $ . . . . . . - &   . o w - . . . . . . . . . . O.z   .   . . .   . .   . & . . . . . . - z   . . . . . . o . o     . . & - .   o . = = .   = o 2 - . o - o o - W - o u .   e o & j     & 2   . & . . = l - .       . . . . . . . . . o . . . . . . . . . . . o w N z -   o w ;   = = . . & .     - t   .   . .   .   . o   - &   o   o         . . .       . M o . -   o ].w = o - o       #   . -   . X   . o   . o o     o             . X - # X .       .   . . X X . .                       # X         . . .                                       . .   e j o   . o . # o .                 . .                       X       X X       . 1 1           .       #                     X   - W o .     2 -             X - .   . +   X                       X   X X   # t w X X                                                       X         X   O                 ",
"      . . . . . o o l z & o - . . . . . o .     o o o . . . . . . . .   . . . .   o   . . .   . - . o .   . &     .     . = . .   . . . . . . o $   . .   . = = . . = = . . . - d . = . . . K P . o . . $ . = . . . $ . N l . . . . o $ . 2 `  .. ; & . = & $ $ . & %.m $ * . - | ~.& $ k 2 & o . 1 $ & . o & z < & & $ ; . $ . d ; o i @.p T.Y.$ h x = . . ; . . . . . . . . . . e . = . . o   . . . . . . . . o dXS.  -   & . . . - -   . o   $ = . . - .   . . . . . . . .   & o o . o w e & o =   . . o   .   o .   . . o . o o   . o   . . -     . & o . .   . . . = e   . .     . . . . .   . . . . o = . . . . . . . . . l o     . o .   .   - - . o . .   - ..i.M .     o . . . . . . o .   & X w       . .   . . .             - w P o . .   X .   - i   . o X   .     . o o . . o .       .     . o - u -     X o .       . . . .             . .       X t w X   . o . .                                               - - .     o o # X .                           X .                   X           o L P -       -   X #   X                         ` H.f       m 3 . X     X .     X # X     .                     X X                   X                                                         @         O                 ",
"        . . . .     j N o . & . .     . . . . . & & = . . . . . = . . . . o o . . o   o o . . o o   - e .   . . . o . . - . . $ . . . . . . . . .   . z - o . . . =     = . . = k . . = =   o   = . . o . . & $ . . . . ` E . . o . N E . $ j & . - & = ; o . & o . $ $ $ * - . ! ;.k g . & & . & . o o ;   o  .m d 2 . & & & . x x .     } -X] N h . $ = $ $ $ . . = = . . . $ . j . . . . e = . . . . o = . . . . . . . . = . . . = o   - l - . . = - . o & o . . . . . = o     o & .   o & . . o = . . o . o . &   o .   o o . . - - - - . = . . - o o - . . o . . = w L . & .     . . . . . . . . . . o = . . . . . . . . . .   . .     . o . . = . . . . = #   e t o   o 1 . - . . .   o . o   - - K o X         . X X .     X . o   - -   - ;         - X .     X     .   .     & - o . o - - - o     . o # .                   .         .       X X .       o X   X     .       X .                                           o o .   .                                 X X .             / +.w     = . o     .     X   O O                     X X       o . & . &   + o .                         #                         # X                                                                                 X                     ",
"= - .   o .   . X       . o o . . .   - -   . . .   . o o . . . . . . . .     $   = . . $ .   o . . . . . . . . . . . = = $ . . . . . = . $ . . .   o e j &   . w j - . . - . . . . . $ . o ; o . $ $ & & $ $ . . . . & . . - $ . . & ; $ $ & o   1 1 2 . . * $ j ) . $ = $ j k o & - j & & $ & $ * $ $ * . 2 (.h - - o - 2 o & . &   o -   o j - & $ $ * * ; $ -   . - . = e & . - . . & . $ - . . . . = $ . .   -   - 4.-   . . = o .   K N.  . . . - & . . . . .   . & . o l l & . o o .   o l - . = = . . . .   ;.G.  . -   . . o ; ; o . = o o $ . e & .   . . . . . . . . o z w . = o   o . o     - - o o . . . . . . . . . . . . . . .   .   -  .u o o . .   . . . .   . =   o     1     o     i n.  . . . . .     . . .   w ! . . . #   . . . o     -   .         . . .       1 t o   . O 1Xu.  -   .     . .     . .   .                 . .   # l e                                   X   o .   =   X             . .   o . . &     X     . .       . .                               @ w.{.    +                                           . .                                                                                                                                                     X                                 ",
"o - .   . .   # .       . . . .   .   . . . . . . o o . .       . .   . o . . . - . . $ E W -   . . . . . . . . $ . . . . . . $ $ . . . . & $ . o . . & & o . . w u   . = . - . . . . . $ . = . . . $ ; - & o . $ . - . E ` . 2 = . o $ . . & = 2   o - . & & $ W %.$ . o $ * . . . . & . . . . & . . * . o h - & 2 -   $ < * k ~ k d N   1 o !.G.W N $ $ d . 2 - . . o o ; 2 . & . ; & $ ; . = $ . . = $ . . . . & .   e . o . . =   o -   X X . . . $ . . . . . . . . .   o e u o     . . - j - - = o . . . . o   o 1   o . = . . . = e z e . . o & . o   . - . . o . . . . . . 2 & . . .   . . . . & z l &   . . . . . . . . . . . . . . . . & - - . ! 2 .   . o - X   . . o 2 . o   - M -   . o X r ..  . . .   . . o .   .   . u . .   .   .     o o . . .             .         - w X   .   7 + o     - .   . .         X .           . X         . # X       X                             . .   .   .               . .   . . - N t         .           .             .                   #           -                                   X X         -                                   X X X                                                                                                     o e M -     X                       ",
"  . .   . . . . .         . . .   o . . . . = o . = & .   . . . . . & ; o . . .   . . . & = . . . . . . . . . . . . . & = . . . . & $ $ . . . . . o . . . . o .   . - . . - . . e j = . & $ = & $ . . & . $ . $ $ . . . d.D.. . . . $ * $ $ $ o o & N h . . * . . $ $ ; h . $ d $ & $ & . $ $ o $ % . $ d 2 1 1 w     1 - & d 2 ~ * N $ . $   :.=.f.2 . * . & o o & o   . - & . . . $ ; . . &   . . $ $ . . = ; .   - o   . .   . - = - . o   . . . . . . . . . . . . . . . ; e = . . . . . . ; . = - . . . . . . .     - .   -   o = . - e ; . . $ = . o       . o o . . . . .   o .   . . . o . .   . - - .   . . . . . . . . . . . . .   . . .   e   o   # .   o w o     . - .   .   o 1 .     .   X # X .   .     . .     .     . . . .   . .   . . o .   .         . . . .   . . o - .   . #     X . . .       . .     o w - o .         . .     . .         o .   - z e                     - . . o   ! ... .                     o .   # o .             . . . .       .                 R u.X #     o                                           # o                                       X X X X                                                                                                   X w M 1                             ",
"    . . . .     . .           .   . . . . . o o . . o . . . = & - o 2 l o . = . o & .   . . . . . . . . . . . . . . - l e . . . . = & - . $ . $ . o = . . . o . - = . = . .   = e j . . = . . . . . . . . = . . . & e $ . . . $ . . $ * & $ o . $ j !.E . x . ; & . - & ; * %.K.. . $ ; & j h 2 . $ & . :.6.. h . 4.~ & 2 & . * * $ * $ ; - o ; ; N & . ; ; e   . e e = . = & ; . *.& . ; ; . & . . . $ . . & e ; . o o   - . ; o   . = . . . & . . . . . . . . .   . .   o 2 ; . . o - . . . . o = = o . . . . . . - . -   . . . . . o . . . . . . .   & o o . . . . . . . . . . . . . . . . . . . . . . . . & . . . . . . . . . . . . . . o - o o       # X o   . & .   . o 2 ; . . o j P 1   . .       e - . . . . . . . . . X     o . o   . . . o     o     . . . o o X .     . . . .     .   # o   o -   .       X .   o e - # .           X     . .     .         # l e                   . ; .   o # N.]..               - .   o e e - # # X               . o - o                         #         . .                                 . X   w _ ! -       X                                                                                                                                         X .                               ",
". . . . . . .   . . .           .       . . o & o .   . o o o - e . . & . . o   . . . . o o . . . . . . . . . . . . . - & . . $ . . . $ - l ; . . . . o . . . . . . . . . E . - . & . . - . . .   . o = . - . . & $ . $ . - W 2 . . . . $ . . = . . :.2 . 2 o o o - j & & $ $ $ . $ $ & o 2 1 & $ $ d . j ` . . o d.~ . & $ $ & $ * * * ; . o $ - . o &   . & .   2 e & = . $ h h h ; $ $ h o   - & = $ . . . = ; . . . . x . ;   - =   . . . $ . . . . . . . . . . o .   . = . . . o o . . = ; - o . o o . . o . . . . . . & . o .   . . . . . . . .       . . . . . o . . . . . . . . . . . .     . o . . . o . . . . . . . . . . . . . . o - &     -   i w . o   . . . . . -     & o o o . . .   X   . w - .   . o . . o .     X   o   .     .   . .   . = . . . . . .         . .         .         . .   . .     .       o X       . . . .             . .   . X       . .                   . o   -   X         . .             o - o     o .               . o - o                       X       o                                             . e w         X X                                                                                                                                             X X                         ",
"X         . . . . . .           . . = =     & N w o . & - o o - -     .   . . . . . . .     . . . . . . . . . . . . . $ . . . . . . . . . e - . $ . . $ $ . . $ = . -   z XXx   . & . . & $ o = . = . . . . $ . . . = $ $ $ o . . o . $ & $ . = & . . ; . - j.&   . & $ * * $ . * & $ $   . .   & $ & & . . $ & 1 . . - . & 2 . & $ * . $ h &   & $ . . !  .o .   . . . o . . - o . . . $ . j L ; - = $ . . . . . . = . ; E . .   2 z . . . ; . . . . . . . . . . . . . . . . . . $ . . . . & ; - .   . o . . . . = . . . . o o . o = . . . = $ o . = o - - -   . . = - = . . . . . . . . . . . &     . . . .   . . . . . . . .     . . . . . o   #     X     i.e     . . .   o = .   . & - .       o       .   . . .     . . .   o   .   . .   . .   o . . - w - o .             . . . . .   . # .   = .   .   .       .     .       . .         .       X .   . . o . .   . &                 o   .   .   X           . .       X o .       # .                   . .                           X       X                                       X     .     X     X                                                                                                                                                                           ",
".   o #   . . . . . . .         . o l -     o M ; = o & & o o o . . . .     $ e ; .       o o . . . . . . . . . . . . = = . . . . = . . . = . . . . . . = . . $ . $ . . . . . . & & . . . . . . & &   . -   - . . . & . $ & $ d . $ $ & 2 * o = & . $ . o e  .& - $ . * $ . . = $ . . & . & & & $ . . ; 2 $ & * $ d d . & ; $ $ & - . - . f.t o k $ -   n.].o & o o . o - = o & & . . j =   f. .= . . . . . . . . . . . . e = . &   2 e . . . . $ . . . . . . . . . . . . . . = . . $ . . . . . = . . . . . . .   - o $ $ . & .   o - & . . . = o   = ; L P L o . . o = = . . . . . . . . . . . z & . o . . = . . . . . . . . . . . . . .   .   w .     # . X ;.1 . . . . .     . o o o     . . . o o . .   . . o .   . .   . .   .   o . . X     P 1 . o   - ; - o .         X . .   . o . . o   o . . . .             . . . . .     . .         . .     . .   .       . . . .                     o . . . X +     .   .       o       o o .                                   .                     -       o                                 .                                             X X                                                                                                                                               ",
"X X e u o . . . . . . .         . . - . . o     . . . . . . . . . . . . . . & h $ . . .   . o . . . . . . . . . . . . . . . . . . $ . . = e - . . . . = - & $ . = . . . e o . o . . & l 2 = = . . . . z ~ . j & = . . $ $ o & o $ & . . * & $ ; ; ; . - ! .     . . . $ . $ & . $ $ $ 2 $ o .   $ . & . . & ; h d $ $ . * d & h & o 2 - o - o . $ . o - X   o - o o . $ = $ = & . . & . = . ;   . . . . . . . . . . $ = . . . . . o w   & ! . - ; = . . . . . . . . . . . . . $ . . . . . $ $ . . o o . . = = . .   . . . . t   o     - 2 . . = & . .   . = 2 . . . . . . . . .   . .   . . . . -   . o   . = - . . . . . . . . o . . . . .     = - -     e         o . . o   . = = . . . . .   o -   . . . .   .   = z z =   .   .   o o   .     m.P   o . .   . . . .         .     . & . . o .   - e o     #   . .                   .   . .       .         . . . . . . .                   X .   . . .         .               . .     .     . . .               . .       . . . .         +   +     +                                                 X                                 X # X           X                                                                                             X 1                                 ",
"  X - - o . o 1 . o   =   . W o . . ;.u   o   . . . o o   L - . = . & ; . $ - . : $ $ $ . 2 . . . . . . . . = . - .   . - $ $ ; . L & . h A.N . . . . $ * ; $ . . . . o - ; o   . o . & -   e z.- $ $ ; h 2 - o & $ & ; & $ = & . * d * $ $ . = & & . . - . . =    .i.. . & . - . o 2 2 ;   G.x.  & $ * * $ . . $ $ . o & 2 j j . $ ; d 2 & . o . o $ $ ; $ . d % $ .     . . . . . . . . o . . . o o . . . . . . . . . . . $ . $ $ $ o . l o ;.m.=   o . . . . . . . . . $ $ . .   & o . & . - . . . . o & o . ..z .   . o $ & . = . .   . . . . = $ . . . . . . . . . o & o . l - . X t   . . . = . . o   . . . = . . .   . 2 X u l - e o . o . o & & o . o & & l -   . o . . o .   o o .   . - - X .   . . .     # w - X     o - o = . o   o       .     . +       . - #           . . . . . .   X # X     X   #   .   o     . .   . . .   . . . .           . . . . . . . .     .       .   .             .   .       o .     . . . o = X     X   o . o   o   .     . # # X                                 .                                 -   X X   X                                   X X             X                       X X X                                                               X X                                 ",
"    . o .   . o o . . -     & o . . P -   . . . =       N E.M o   . $ . $ ; .   $ ; . . $ =   . . . . . . . = .   . . . . . $ $   -   . & & . * & & * * & $ $ $ . - u ; .   . = $ $ =   . & . L = . . . - ; & . . & . . $ & . $ $ d C h $ . . & . * d - $ $ . . o z E . . - ; . - .   ; h & j.N e . & $ . & & h 2 ; & o . . . . $ $ * 1 * $ . o & - $ . . & & k ; $ . & z N 2 . . . . . . . . . o   . l j .   2 . . . . $ & . . . & . o   o   & -   o - . . . . . . . . . . . . & . .     o & 2 . . . . . o o . ! l & o o . . . . . . . . . . . . . . . . . . .   . . . . . o . 2 .   h.N.    o . o -   . L o   . . . . . o - z - e e & e & . $ & - 2 ; - o . . . & o   .     . 2 - o       . - - - o . . . . o .   . X X     . . e       .   & #     X - - .   o X     .     .       . . . . . o . .         X X       .     .       . . . . . . .         . . . . . . . . . . .   . . . # - X         X # 1 2 #     # .     -   . . . o = o               X     .       o o           .                       u - o                           .                                                         . . X X X                                                                                                                             ",
"      . .   . .   . .   o .     .   - .   o & .   u o -       . w   $ 2 $ .   . & h . $ . . . . . . . . = . . . . . . . . = . . - z . . o . . ; d . $ * & . . = . - ; - . . . .   =   o &     & 2 - . . & ; & o & . $ 1 $ $ & $ * $ & & * 2 $ . d $ . . . . $ = & . & o . ; x .   o - . -     X o 1 & . ; & 2 1 $ . . . o = = = . $ & ; 2 2 e l $ & $ & $ ; . . * $ . = e z e - . . . . . . . . = . . - - . o w - = . . . $ $ . ; ; . x u     o   . o o . . & . . . . $ o . . - .     & &   . . . . . . . . . . .       . . = - . . . = - o . . . . . . . . . . . & - & .   . .   & .   . . &   . 2 e - . E o o . . . = . . . o . . .   - .   .     . . . . . . . . o . &   . . ! l .   o - o   . . . . . . . . . .         . . . &   o & . . -             o u . .   . o           . . . . . .   .         . X     # o w X X   . . . . . .     . .         . . . . . . . . . . .     . . # - .           . - -           - - .     . . . . .       X - z.K       .       . .                                   w - .         .                 o   -   e X.w                                             . o o X X             X X X                                                                                                           ",
". .   . . . .   . h o e N . . 8 .     . . & ; . -     .   - o e 1   N 4.W ; o . . . . . . . 2 & . . . = & . = . o . . . . . . o - x . o   - . $ . . * $ . $ -   = . . . o = .   - . & o . - & o d 1 & o - 2 1 o . . . . $ * * $ $ $ & $ $ & $ * 6.j $ & & . . . o . . & . & N = o $ . ; &   w 1   . l . $ . o - . . o $ $ = $ $ $ $ $ $ $ $ $ $ & . $ . . . o $ . $ . . . . = ; = . . . . . . . o - =     o - & = o . . . . $ & . . .  .E o .   w -   . . . $ . . . . . .       . . o L N     . . . . . . . . . . . . o = = - e . . . = - o . . . . . . . . . . o - 2 - .   . .     .   .     o   - . o . o .       . - o . .   .       - o . = & o . . .   . . .   . . . . .   o .     . . .         . . . . . . . . . . . . . o   . - .   .       . . X . o w       o -     # . . o . . . . .   X o .   . .       .       X             . . . . .         . .             . . .         . .   . o #             . X     L W .     .   . .     X     X h.z   X   . .       .                                                                       #   w +.w                                             X X X                 X # X         X                                                                                                 ",
"                o g. .& o o o   . .   o o = & . x l - . . o   .   . o . . .   . & . . . = o . . . . . = & $ = . .   . o   . & - . . . $ . & . h 6XQ . & ; .   o . . . . . . o o = . !._ o =.o = o . . . & 2 * $ - . - o . g.K.f * * ; $ $ $ . & & $ & & $ $ & . & - . $ . $ e o $ * h . o =   h.!.N   ; 2 $ j.N o $ & & $ o . . $ $ $ $ o . . . . . N e h - h h o . . . = $ . . o . . . . . . . = . . - - . . = = . . . $ . . . = . . .   . - o o &   . =   . . . = . . . o o . . o o u w   . & . . . . = - o   . . .       . & . . . . . . . . . . . . . . . .   . = o . . . . o z = o . o e & .     . u - o   o . o & . o & . .   X o 2 o o = - & o . . . . o = & . =   - o . . . o o o . . .     . . . . . . . . . . . o . . . . -     = o o . .     X     . o .   X o . o u o o o . . .     . # - o . . .   .   . -         t - .   . . . . . .         . .                 .   . .     .   o - - X   X . .     o .   - u o . . . . . o .       X   .   o       .     . .                   .                       .                       .             X                                                                     X                           X X                                                                             ",
"    X             . o   - -   ; . .   = . . . . . l     &     _ z o . . . & & .   j.D.o . ; . $ . $ . $ $ . = . . . . . o j j   $ . = . & o . e ` d $ = . . o . . . . $ . . . o . . ^.X.. W . & . . . . & - & .   = = . * -.2.d * $ $ $ & ; o . & ; j k 2 $ $ $ . & . . . = = . j $ . $ o . o o 9X_ o   .   h   o $ & & & = $ $ $ $ $ $ & - - $ ; 2 x o - - t t - & o = ; - . . . . . . o o . . . . . ; ; . . $ L w . . . $ . . .   - - . = . .   o . . o . . . . . . . o - 1 1   . .       .   . . . . & - o . . o o . . o 2 j . . . . . . . . . .   . . . . .   . . . . . . .   o . o . . . o o   z . t u o . . . . o . . . .     X . o   . .       . . . . . ; 2 . .   w = = & .           .       . . . . . . . . . . . . . . o o   - .   - - &     o .   X   .   . o     - . . . . . . . .   . X . . . . o o   - ! t +     L t - . . . . . . .         . .                 .   . X     . . o o o       . o .         . .         . o - o       # o     X       .     . . .                                 . .                                   X                                                                                                         X X                                                                             ",
"  . X           -       o -     . . . = . . . - e   - . o .   S.+.X . - . $ h 2 . - &   - . . $ . * & . . . = . = . . . & N z   = . o   o . o   o . . . $ . . . . . . . = . . . ; .     . = $ $ & $ $ = & = . . - . ; d & . $ $ * $ & $ . . . * $ . . < f & $ ;     o - . & . . . $ h $ & &   . e 1 o = & . $ . - - - & $ . . . & & $ . . o .   . $ & & & o   - e - $ $ $ $ $ = . . = = $ . . . . . . . . $ $ . W u . . . . . . .   . . . . . = o . . . . - = $ = . . .       - o . o . . o . . . . . . o o o . . . .       . o . . . o . . . = = .   . . . . . . o o . . . .   o . o . . -   -   . z   . o             o . . = X . # . o . o . & = o o . .     $ o     - - .     . o - .   2 W . .   .       . . X .       . . & o   . o   -   - o   o P L o         . o       . . . . . . . .         . . - ; 2   . e X     X X       . . o . . .         . .                 .     .         . .           . o X   . o - - .         . o .   . .     - .   =             . . .             .                                                           X .                                                                             X                                                                                                     ",
"  .         X     + . .     o . . . . o . o . j i.  . o   . .       . o $ $ . o .   . & . . ! l & h 2 & o = - . .   o o   o 2 o . =   & . . .   . = o . $ $ . . . . . - - o o o . ; . o j ; $ % & . . $ $ . $ & . & . & k & & 2.>.g * $ $ & . . $ ; & & 2 2 $ . o . j L . = . & . & k * . . e   ;.. o . - z . o o o $ o . . $ $ & & $ . $ & - o $ $ . j o . & m.t - . . & $ . . . - ; - = . . . . . . . $ . . . o . . = o . . . . . o . . . . . .   = . . . . = = . . & o   # K z . . . . .   - . . .     . . . . . . . . . o o o . o - - . . ; - o . . . .   .   . . . . . o .   &   = . .     o -     . . o o w e -   . . . - .   .   . . & . . . .       . o . . = o W 8 .   o     o o   . w o o . . . . . .   . X .     .     . . o   x ~.- . o   . e -     X o .   .     . . . . .         .     . . . . - 2   o       #       . . . . . . . .         . .                 o     .         .       X     .     . . .   . -   . .     .     .   = . . . .                 . .             .                       .                         X             X                                                                 X X                                                                           X                                 ",
". $ * $ $ ; .   .     . o . . . . . . . . . = . . . = . . . . . - h.L   = . . = ; . . = . ; W Z . . . . . . . . . . o . o h x 2 - . . . . . . . . . = . . . o $ . . L o   . & $ $ = $ * $ $ d . . . . . . $ $ $ . & $ . ; . . x.%.& $ & . $ $ 2 - d * . N h . * & . g.K.s $ . = & . $ . o - . $ = . . . $ & . & & . . . $ = o . = . ; h - o o . $ o o o $ o . . . &   . & . & . . & . . . . = . $ . $ . . $ . . . . e ; = . R T . . . . . . . . . . o = .   = .   . o .     o w - = . . . . . . o     . . .   = . . . . . . . . . L l . - = . e u .   .   . o   . .     . . . .     o o   o . . e & & e 2 . . e o j . o   . -   . e l   j   o &   o o - ; z & . . . ;   - - o     o -   . o .         . o         - K o     X . . - w . X w ;.X . . .         . & :.o   - .   . .   o = . . .   . . . .           . X .   . .   .   . o .   o .   .     . . . . X               .     .     o - w . = =       o . & . . .     .                           . X     . . .                   . . .   .           .                           . . .     .             . .   .                       .   . X     .                                           .                                                 . o o                       X     # M ",
". . ; * ; e .   . . . . . . . . . .   . o . . . . . $ . . . . . . W w . .   . o 2 . = = . . & . . . . . . . . . o . . . . = & . . . . . . . = . = . & N z . $ $ $ & . o ! = . & $ ; & $ . . k %.= = $ . $ $ $ o - . . - . $ & . . $ & & $ $ & & ; . & - . & & . o & . $ $ . & . & . . . . $ . . . o & ; k j $ = . = - = . . . o o $ - 1 & o o o o o o o o = - 2 . . j o . -   . . . . 2 2 o = = & . & l . . . = . . = . .   i M . . . . . . . . = . = . o - . . . . . . .   . & o . . . o . . .   . w   - . =   . . . . . . . . . - - & o     o o . . .     . . . . . . . . . . . o .   = o     - l u .   & -     = . j 2 . . .   & 2 & W w w o o o   o = &   . =   .   - o . & - . . . o .   - . o .     . = o     o   . X       X o X     e     . . X . .     & 1   = .   . o = o .   . .   = . . . . .       . .       . - - - = .     - -   o o     . o = . .     . .   . o .   . . . . o - o . o   . w -             .   e                   #           #             . .           . . . o         . . .                                     .                                           X   X o                                                                                                     . .                             X w ",
". . o . . o     . . . . . . . . = = . . . . . - . . . . . . . .   & o - .   = . . . . . . $ $ . . . . . . o . . . . . . . . . . . . . . . . . . . . . E N . = . . ; & W S.L . . $ $ * $ & ; x d.= = $ $ $ $ o . o o .     ; . & * * C.` . ; . d - = . = . & . & .   o & . . o . . $ . . . . $ . . o $ ; Z N $ o . . o = . o N 3.. & & $ o o . $ $ $ $ $ o . & 2 . h N $ o W =.` . . . h j & $ . . j & = . . . . o . . . .   u L . . . . . . . . . .           = . . . . . . . .     . o o . . . . .   . . . . . o o . . . . . . .   . - . . = .   . . . .     . . . o o . . . . . = . . o   t '.; e ; .   . .   . o . l 2   . o - o     2 - e o   o . . o w o . . & e o & & .     . . o o o . . . . . . . o o         .   .   .     . -         . . o X         o . . o . o o .   . .   & o   .       . . . . .             . o     = -   . -         o o     =               X     .         X .     . o o - P w.  X 1     - W                       . . o     o X X .                     . . .     .     X                                                   X     .   . o .                         . z t                                                                                                                                   ",
". . .     .     . o o . . . . . z L e = - & . . - = . o . . o . .   . ; =   = . . . . . $ . . . = . . . . . . . . . . . . . . . . . = o . . . . . . . ; - . - . ; .   . ; . & $ $ . $ . $ =   . . . $ $ = $ $ o t oXN . & & ; . * 2 1 . o $ - ` = . $ - . & & $ = . -   . o & . $ ; . o . . & . . . . . d d . $ . . o &   o f.9X  - & . o $ $ $ & & & & o   . o - & . o h ` ` 2 = = $ & & $ . . 2 OXx . 2 = . . . . . w u .     . . . . . . . . . = = P z . o . . . . . . . . . . . o & = o . o X X # .   & . . . . . . . . . . . . . . . - e o . .   . - =   . . o & = o . . o . . . . -   1 T.- .   o o   . = . - o = . . & o - o . o . . &   w t .     - o   . u l o . e L !   o . .     . . .   . . . . .       . #   o   X .       . .   X . . .       o - . - o   . - .   . . o     . . -         . . . .     . X .     .   - .   o o   z -     X . .   . .                               X     X .   X 3._.X   #                             u |     X X # o o . .                 . . .     - w     .                                                       X     2 n o                   # X   , ` _ o                 X X                       .                                                                                     ",
"  . . . . . X   . o = . . . . . - -   . e ; . o   . . . o . o   . . . = o . . . . = . . . . . . o o . . . . . o . . . . . . . = . . $ = . . $ . . . . . . $ - = =   ; $ . . - . * * h & . = . = . . . $ = $ $ . # X.  1 - . ; $ j & & j 2 . * . - & o . & $ . $ o . o 2Xj o . - - 2 . . . . & . = = . . & * . $ & .   & - .   .   - o . o $ $ $ & $ o $ o o o = W o 1 o   . . W - & & $ $ $ . . ; L . = . . ; . = & o e j & . o . . . . . . . . = . & 2 .   = . . . . . . . . o . . . o . . . o   w h.. - . & . . . . . . . . . . o . . = ; - = . .   . 8 - . . . . o o o . . . . . $ . . .   . . . . . o o . .   o = . . = - o - & o -   . - . t 1   - -         & o o . o z ..  . - W e     . . . - .   . . = .     .   -     . . w   .       . . .     X w i . .   . o   & . &   . o . & o           . . . . .           o 1 2   . =     # p.    #     o .   .       . .       . . .                       1   O           -                   X l  .    . .             . .           . . .     w e     X                                                       .     , t .                             .                   X X                                                                                                 X           ",
"  .   . . . o . . = = = . . . . e =   . . . . j & 2 .   . . = . . o . . $ . . . . . . . . . . = . . o . . . . = . . . . . . . & = . = = . . o . = . . $ . $ . $ .   & . . & . = ; & . . = x ; . . . . $ = $ . . o . - &   h $ $ $ ; & . $ $ . h   & C.C.j . d $ . e l P K - .   & & . . . = - . . $ & $ $ & . . . & 2 o   & - o . o o . o o . $ . . . . & 2 l e e & . . & o   o - . $ & & o . & - . o $ . ; . .       o . . . = . o . . . . . . . . _ w   o . o . . . . . . . = . . . . . . . .   - ;.. . . . . . . . . . . . . . o   . e =   = . . . o = o . . . . . . . . . . . . - . . . o   . . . . . = . . . . . . o . o o e &   o   . - . 1 1   - - o o o . - o - o       . 1 z i.P 1 - - . . =     o               o . X   - L   o   . . . . .       X # .     o   o L     o  . .o   o - . .   . . . . .             . o     o o   - # i K   X #       .           .         .     .       . o   . -       -     o .                       .   X . o   .             . .       .   . . . X   . o     X                                                 . X     .     .                   X   X X                                           # 1 -                                                                                         ",
"& & . . . o , , . . = - = . . $ . . o . . o N 5.Z -.j . o   o . o . . . . = = $ $ . . . . . . . . . . . . . . o . = . . $ $ $ ; & $ = $ . . . . = . . & & . . . o . . * d & . & . ` E ; 2 * $ * . . . $ = $ $ o . $ . ; & . . h $ 2 . - 2 & h . - $ h 2 . $ $ . $ . P .   . . - . . . . & e - $ . . & & . $ o . . * ; . o j j & = . o o . . o o o & $ . & h j 2 2  .& $ 1 o j ; = . $ $ & & . . $ . & . . 2 = = = - e P e & . . o o . . . . . . . . z   o   . - . . . . . . . . . . . o o o . . X     .   .   o . . . . . . . . . . . o ; .   . .   . . . . . . . . . . . . . . o   . - & - .   $ . . $ $ . . . - . . . o . . . .     o & . .   z T .     . 1 o o u o - . o o o       e         .   .   o X   l #   o       X w     - . .   . . . . .           o   - .   1 L   o   o o   . .   o . . .             . . X .     . -   . #   # dXT.7     X .   .   X o .                   . .   X   . .   .   X &   . o       X                   X         . u o . X .               .   . . .           .                                                     X     .                                   # #                                     o 1 o                                                                                         ",
". $ . = = . o   . . . & = . . . . - ; .   = * o o Z -   o . o . o   . = . . - . . . . . . . . . . . . . . . . . . - = . $ $ . $ $ . . $ . $ & $ = - . - & . e = . . . ; * . = . o O.1   C k . $ . . . o = & & & $ ; x $ . ; $ . & & 2 $ ; 2 . - . $ . . . ; . ; . $ .   o z h $ & $ - $ - l $ . = . & $ . o - & * ; & o & e h d ; $ $ & . . - & & 2 2 $ $ ; - . $ h . . h & . & . $ & . . 2 = . j W ; = = . - = . . . e     = $ o o . . . . . . . &   . u.- - . . . . . . . . . o . o - - & o .   #   o .   &   . . . . . . . .   . . . . . . . =     .   . o   . . . . . . . . o . o . $ ; & . . . . . . $ $ . . . = . - o .   . .     .   - 2 . t . - .   .     & o M 1     1 X     ! w   . o X   # o X   - ~.z .     o . X - =     . . . . .             . X -   X   o .   . .   . .   . . o = o . .           .       o o . h - . .   -   p 7   # +   .   . o - w -       .   . .     X o X o   o o   . .   & . =     7                     .   X .     .         .               .   . . .   . . . .                                 X X X                           X                           +                                                                                                                                 X       ",
"  X   o     o   .     . - - o   . ; z -     . & . . . . . . . . . = . . . . & $ . . . . . . . . = . . . . . . o . . . $ . . $ $ . . . . . . . . & 1 & &     ~ G - . . $ $ . . & & . = o   o w   $ 2 $   & & . & $ - = . ; & . j & m N . - $ . $ . * $ . $ Z & E . & & . $ j j . $ . . & . . $ . . . . . . $ * 2 o 2 . & m   . & & $ . $ $ $ . & $ & & $ $ $ $ . 2 d . $ $ . $ . . . . ; . . = - . . = . . & - - . . . . . . . . $ . . . . . . $ o . - o e . . . -   o o   o . .     = - - =   . . . . . . = & . . o T   - . . . . . . . . . . . . o   . . .   = . - .   . . . . ;   . =   . - o o . . ;   - - . = = . . . . . . . . . &   o o z &     w 2XR   o 2 m   X X     L e .   w -     _ P - . #     - # t -           X . .     -   . . . . . . . . . . # o     - l e . . . .   . .       e -   -     o     .       e W           . . .           . X     - ! .   . .           . .   - -     . .   .   o   .               .         . X     . .     .       o     . X   . .             .   X     O.l                                               O                   X                               +     X   O                                             X                                                                     ",
"            o . . . . o & - o . .   o     -   . . o = = . . . o $ & . .   . . . $ $ . . . . . . . . . . o . . . = $ . . . $ $ * = & = = & . . $ & N ; . . . o   = . . . . . $ & o e 2   - h.h.o & z h & & & $ & $ - - . . . * %.d . o o . . 2 $ & & . $ . o ; & . $ . . & .   . $ . ; j ; & & . . . . . . $ & & .   2 & & W o $ & & . & . $ j . $ $ . . . $ $ $ . ; * . . *.h.. l i.; . & $ ; e = - - $ . $ = . $ . . . . . . . . . . . . . . $ o .   o . o $ h - - . . . . & - W.z     $ . . o & o . .   . = .   w _ .     - . . . . . . . . . = . . u   o . . . . . . .   . o . u     - ; . . . = .   = .   . . = . . . .       &     . o M ~.- . o # i   o 2 j   X X # X   o . = . .   o . o -   . o     X     .         .   . . o       . . . . . . . .     . .     . - o   . .     . . .     # e -   . .         .     - t   . o . . X X .   X   u.R     o o 2 ! o . . .           .             . .     o X     .     w                 .       o X       X     - h.e               . .         .     T w                                       X X   X #                                                 X             .                                     X X       X                                                                 ",
"  o u w . . . . . .   . . o . . . . N w - j   = . = ; - o . . o . . = . = = $ & . . . . . . . . . . . = - = . . . . . $ $ $ $ $ . . . $ $ . . .   & . & & o   - . . . . . $ & & . . - = . 2 l o o & & $ . . . . & . . $ $ $ $ d 1 - . o j 2 * . - & * & j & & . = - . $ ; . z ~.; $ - 2 & $ & $ $ . . . . $ $ $ . o   A.&.& 2 & & . $ & - = . . $ o . . . $ $ $ $ . & ;   ; i. .o :.- . & . . = . = = . . $ = $ = = . . . . . . . . . . . . . . . & z 2 - . . . ; ! . . - . = ; [ . . - . . . . . . o - . . . . . . .   . w L . . . . . . . . . . z m.~.    & . .   . o     o . . . o . . . . o . . . o - .   . . . . . $ = = & =     . - z 1 1 e o o #   o .   & j . -   _ R.# o .   o   . o     . u t .   o o o . - . . o   . .   -     . . . . . . .   . . .   .       . . . .       . .     .   . ! L t           .       .   . X X . . .     - # T.a.X X   o & z . o . . . .     . .   .     t e     X .         #   # | r X .                 . # # .       . . o c.,   X . o X .             .       - . X         .                     o             . .       X o .             X X X                     X     X                                                                                                                     ",
"  o M e . .   . . . . . . . . .   & P z - -   o . = - - . . . . = . $ .   . . . $ = = . . . . $ . . o & - o . . . . . . . $ $ * $ $ $ & - . $ 2 e . . & & = . . . . . $ & & = . . . & & . o - o o . o o $ 2 2 . N & $ - * 2 * < 2 $ . $ & x 2.& & . * . ` Z . & . = $ $ ; . l S.; $ o o . . = = . . . . $ $ . . = - . d.N o 1 ; * & & o   . ; . . $ & & $ o . . . . . = . . u l . o = $ $ & . . . . . . . . = = & = . . . . . . . . . $ . . . . . = z   .   ; . = E . . -   . .     = o . - =   o   . - = . . . . .       o - . . . . . . . o = . z 2 -   .   - . . . .   . o . &   . x - .   . . . = x . - & . 2 e ; . . = . .   . w &   .     . . ! ! L o     h d.o z   K O.  e & . & .   o . . o - - . . & o o j =.. & 4.l   .     . . o o   . .       . . o     . . . . . = . . .           . o   . e u     .                 . X .         X       X   .       &   . . . . .     X     X   . P M     o .   X X   .     i X - o .               X # # .       .   . -     .             .       .     .                                         +     . ) L.o .     o = o .           X o X                     O     O                                                                                                                     ",
"o   o .   & . . . o o o . . . . . o o o .   . . . . . . . . . . . . = . = o & . . . . . . $ . . . . o = . . . . = . . . . . ; h & $ $ & ; $ & j h ; N . . . o . ; . . = - $ . . . . .   . & - . o & & . $ N N . - . - 2 & $ $ & & & & $ . d *.$ $ . . . j j . 1 . $ . . . . o o . . . = o . . . . . . . = $ o . . $ $ k j k & $ . . & . & -   1 . $ - & $ . . o $ . . . o = -   -   . & . $ = o . $ . . . . . . = $ . . . . $ $ $ $ = & = $ . $ .     = . $ . .   =     . . .   - . . . - & . w j & . . . . . . . o o   o -   . . . . . . . = & . . .   . . . . o = .   o o   o     ` ].o o o   o . - z   - -   t j - . o = o . = .     - -   - o   .. .l   o   . o - X 1 D 5 y w t - . . . o . .       o 1 - . o   .     1           X .   X         . . . . o       . . . . o . . .           . - .           . .   . . . . o . . . .       . .   -   o X     .   .   . . . .   . . .         . 1 o   X     .   .             o .                   . .         .   o   . #                           . #       . X X                             +     $ &.K.# X     . . . .             .                         O O                                         w i 1     X                                                                   ",
".   o o o = .   . . o o . . . . . =   . o   & . . . . . . . . . . . & . .   -   f.~ - . . . = . . . . . . . . . . . . . . . $ ; o . . . . . . ; . ; N . z $ & Z x & . . = . . . ; o $ ; & . o - o . o & $ & ; o . o j N 2 * & & . 2 * $ * . $ . $ $ . ; . . $ . = = = . $ x L - . . . $ $ $ . . . . . . $ $ $ $ . - . N Q . - $ ; - z z - - -   o $ & & . . $ - ; . = e     & & . & . . & . & . . $ $ $ . . . $ $ . . . . . $ $ . . $ = = . . . ! -   o h . . . . . . . . . . .   . . . - .   j e o . . . . . . . .     M ... . . . . . . . . . = - .   & .   . o .   . & .   o - .   .   .   . . . . . . . o . . o . . o o o o   o j - & . . o &   - o = o X     o . a.T }.lX>XI - o   . . .   . o . . o & & o . -   t t   -     X   . .     X . . . . . . . . .     . . . . . . . .           1   & - o . w o X . . . X o - - .                 o           . . . . . . . . . . . o   . o       .     X .   X         # #   #                 .                 .   . o   . . . X .       . .           o   .   o o o .                       .       X   . . X           . .                                   O         @                                     - e #   X X                                                                   ",
"  . - e & . o = . . . . . . . o   o . o .   . . . . . . . . . . = . $ $ . - M.z.& . . . = - . . = . . o $ . . o . . . . . . . . $ $ . . . . . & ; . . . ` d $ j h & . . . . . $ $ . . . . * &   - . . 1 & . . - & o & o . o . $ ; . $ * $ . * & o $ ; j . . ; .   . = $ $ e j & . . . . . . . . . . . . . o $ & . & . $ o . $ ; . - . N   t 4X1 $ . o $ . . $ - $ . & & o - = .   2 - $ ; $ & . . . $ $ $ . $ = . . . . . . . . . . . . . . . . h 2 j ; ` - . . = . . . . . . . . = $ . $ &   . o   . = = o . . . o o   i z . . . . . . . . . . .   o o     & . . . - - . & ; .     =   ;   - & -   . & & . . &       . .     o . . N 2   o u .   & .   . . o - #     R Y } zXI._.O   . $ . . .   . = . .     . . . . ;.;.              e P     . . . . . .     . .   . . . . . . . . .   .   . - . o     e N   . . . . o o - o       . X .       #   X -   .     .   . . . . . . . & o j L       o .     # o     X                             . . .       .     .     o     o         . - e u . X   X   .     . . o o .                                     .                   .                               X   o &   X                                 X         X X X                                                                   ",
". .   o .   ; e . . . . . . o & o   . .   o . - . . . . . . . . . . & ; . . m.u.. . = . . . $ - - = . = - - = o l - . . . . $ $ . $ . . . . . . $ . $ * d . . $ . . . . . . $ $ . $ = $ $ & & o . & & . . & & . . o & . . & o $ o $ $ * C * . & o . ; . $ h & ; 2 = . . . . .   . . . . $ $ . . . . . . . . $ & & $ . * $ & & 2 $   . o . - 1 X o . . $ $ $ $ $ $ 2 $ . & $ . ; o   e . $ $ . = . . $ = . . . . . . . . . . . . . . . . . . . =   N z o . . . = . . . . $ . . $ . . = $ . $ .   . . . . . . . . .       o       . . . . . . . . . o   . . .   = . = L e   l !   . 2 . -       E P . o ! o o o .   .   . .   o l ;   .   o .     #   = & = . U w i o...i p V.e.r.aXD + . . $ $ . o .   . . . . . .         o .       X   ! m.X       . . . . . .   . .   . . o . . . . .           .   o o &   .       . o o .   .     # - # .   -     w { .   .   . . . .   .   . . & o ~ =.    .     . .         o         1       . .             .           . .       . o   . .       X - -   .   o     .   . . . .                                       O           .       .                                 o 0.0.o   X                         X X # # X                                                                               ",
"o . . . . . . .   . & o w   u -   . o . . . . . & . . . - ; &   . & $ . . . . . . -   - - . = . . = . =   - ; . e & $ $ * $ .   . . & . . . . $ = $ $ $ . . $ - h . & . . = . e . . $ $ & $ o & & . o - . - . $ . 2   = = . o $ & & $ . & . $ . $ & . $ & & $ & *.W - . . . ; $ . . . . . . . . . . = . = . L i.$ . $ & . . & . . = . o = . . $ . . -   -   & . . . . = = = - e - . . = . . $ o o . z l . . = . . . . . . . . o = . . .   . - -   . o o . . . . = l . . . = h . . . . . . . o o . . . . . . . . . . . . . .     . . . . . . . . .     = . . . $ = o . . . . o o . = - & . . . o . . . o . . & 2 2 - .   o . . = -   - . o o . . . . .     - z L Q...v +.2Xr v s.v.  - . $ . . .   . . o     X -   . o . . . . . . . . . . .     . . -   #     X       . o . . .   . . $ .   o . . . . . & - o   - -.  #   o -   . . . . o . . . . .   . . . . . . . .           . . .           & 2 . . o o .     X           X                       . .       . . . . .                           . .                   .                                               . .                       X               X e i #         +     #     X         o #                                                         X       o                 ",
". . . .         & o . o - . o   . . . . o - & o . . . . . . . . $ = . . $ $ $ - o .   o - . . =   o   . = .   ;   . . ; . .   z ! = o . . . . = = . . . $ & & & $ & . = = . = . . . . . & & o o 2 L i.2 $ o & .  .4.. - .   h $ o   & o - ; & . & & e $ . . & . & - .     . = . . . . . . . . . = . . o - . . 1 . = . . $ . ; z ; .   2 . . - $ = =   .   & . o o . . $ $ . . = - - . . - -   . .   = = . = . . = . . . . . . = - .   . & - - = . . . . . . $ = . - . . . . ; . . = = .   .     . = & o . . . . . . . . . . . . . . . . . . . . . $ o . . o e = o o . . . . . . . . o . . . . . . . . . . . $ - o o . . .     o o   . o       .   . . . o .     q 7X] t.xXe.aX]   @ . e & $ . - . -   . X    .+.  . o o . . . . . . . . . . .   . .     e T X       w o   . . .   . . . o -     o .     . o o . j g..   o o . o     . . . . .         . . . . . . . . . .     . . . .           2 . . . - o   & o     X X X #   - X                   .                                             .                     .                                                                                             X                           X #         X                                                         o                     ",
". o o . . . o o . . o & o .   o . . . . = & & . . $ o . . . o = . . . . . . . & . . ; .   = = . & o . . - = & . & - $ . o & u ! ;..   = ; . . . . . o = - & $ . . & . $ .   . . $ $ . . $ o . o . & E . & . h * o &   - o j 2 o $ e 2 . ` W . L *.. $ = = & 2 o     z i.  X   & . . . . . . . . $ $ = e - .   t  .  = = . = $ e - . . L l = . $ . e . . - i.L   & . . $ $ . . . l - . o . . = o . . . . . . . l - = . . . . . o . . o .   . L m.o . . . . . . $ . . . . . . = . . = . . o - & & . - - .   . o . . . . . . . . . . . . . . . . . . . . . o   - o . . . . . . . . . . . . . . . . . . . . . . . o . o o o . . . & o - . . o . o o . .     .     - 6 lX7XO D P.] D w w 1 E . o -     . #       o     . o - = . . . . . . . . .     . . o . - T X     . o   . - .     . &   o w T 2Xi X   o .   . .   e         . . . . . . . . .         . . . . . . . . . . . .   . . .           . . = & . = o       X       .   2 -                 . .                         . . . . . .         .                     .                                     X     X X     X                       o - o       O     X X       o         X   X           X X X                                       X .       X       X                     ",
"  . .     . o .     .   . -   . . $ & $ . . . o $ .   . . . . . . = . . . . . . . . = - = . . -   . . x h.w   - . o - .     o -     - .   . - . o = $ . . . & ; . o - . . - . . . & & . . . . o &   . - ; & - 2 * . - $ . 1 $ $ o . o   1 1   2 k $ & o . = l $ 1 X ..S.o X   . . . . . . . . . . . = z -   o ` m.  . . . . . & . . ! x.-   ; 8 h . . P ! & . ; o . . $ $ . . . .   . - o & o     . . . . . . e = . . . . . . . . = = . .   2 ` o . . . . . . . . $ . $ . . $ . . . . = -     o . - = .   . . . . . . . . . . o . . . . . . . . . . . = o     X . . . o . . . . . . . . . o . . . . . . . . . . o & o . . . o - ;   . L i.. o - . & .   .   - ! K y l.P # 1Xt 1 X       . =   -     -     - X o . . . - & .   . . . . . .   . .   o N .   o     & =   . o   o . o   .   +   y _.i     7 .   .       o o     .   . . . . . . . .       . . . . . . . . . . . .   . . .               o (.f..   +   . .   ..M .   # X       .                                     . . . . . .   .                 o X X . .                                                                           . e z w X           X         . - # +           # #                   O                                   .   w #       X X             X # ",
". . .   . o o . . - ! o   . o w o & - & . . o o . . . . o . . . . ; ; . . = o . . -     o   o   = = - o .   - . . o u j.- o   & - & - o o . . . . . . . . . $ = . . . . . $ $ o $ & & $ & & $ $ o - & N & & . . < - o $ . . Z C & . . $ . . & & C j . j - $ . .   X !   . .  .n.. . . . . . . . . . . e - o   -   2 &   ; $ - . ; - o z w o . $ $ $ 8 . -   $ . . . . $ $ . . . . -      .P = - . . . o o & &   o . . . . . . . . - = . & .     . . . . = o . . . = $ . . . $ . . = . . . . j h.o .   . .     . . . . . . . . . . . . . . . . . . - . .   t 1   . . o o o . . . . . . . . o . . . . . . . $ . . . o . . . . . = . .   - ! . -     o . . o   o L 1 [._ X # =., .   . - . 2 .     . X   e         . . . o o . . o . . . . . . . o . . e   . .   . & . o X       .   .             X     #   . = . - o .   # o   . . . . . . . . .     . . . . . . = . . . . . . . . . .             e   ~ o   o     . . . =.W 2 &         . .             . . . . . . .   .       . .         . .                 X X .                                                     - o       . .               . o .   X               w ,             u w                               X                   # # X       - K z - X   X             X # w ",
"o . . . o . .   . e :.- .   & j = = . . $ = o . . $ - - & . . & . ; - . . = = . u   - e   W R.. . o   . -     . $ . &  .  o . . . o     -     - 2 & . = - = . . o .   W ~ . o - * * $ $ 2 h ; $   $ & d & $ $ $   o $ $ $ . * * . & . $ $ . . $ . $ $ *.h . = m.P o P o     ;.... . . . . . . . . = . . o - .   ;   2 o . .   o =   o 1     = . & . . . = - = . . . . $ $ . . o . .     e - . . - .   o . . - . . . . . . . . .   = = .   . o - . . . . . . . . . . . . . $ = . . = o . .     & =     . . .   . . . . . . . . . . . . . . . . . .   . X   l #   . . o o o o . . . . . . . . . . . . . . . = $ .   . . . o .       w   .   . o   . o . . o .   o   [ u   ! z # . . e   &     -         i e | e . o . . . . . . o . . . .     . X o     o   - . . .   #   ..h.  . . . . o     e e           . & .     - .       o . .     . . .     . . . . . . . . . . . . . . . . . .           .         .     .   .   . . 2 2                         . . . . . . .   .         .     . . . .           .                                     # # X X .         X     o e e o . X X X .       X               X     X X   X t ` . .     X # 3.T.U     +                                     + X         X       X X       #                 o ",
".     .     . & -   &   . & .   . . . . . $ . . . . o & o .   . . o . . = = . . z e . . - - ; . = . . .   X.z.1 ; . =     . 2 . . E.S.o   . .   ~ h . . . . . = . . $ g.g.& $ $ d d & $ * d < & & & . ; * $ ; & . & . . . d * * & . $ e . 2 d . & ; * * . h . L - z . $ :.W     $ $ $ $ . . . . . = = . . . = = $ h . .   t.sXO.o - & o L & . o $ $ . - .   . & o . . = $ . . o = . G u.# o = . . .   o &     = . . . . . . . . .   . . . o o . o . . . . . o = = . . . . . . . . .     . = .   . .   . . . . . . . . . . . . . . . . . . o = o .   R z   o     . . . . . . . . . . . . . . . . . . . . . o o .   o o . o o .   . o   ~ u .   o = . . . . . . . .   u O :XU   = W h..     o   l -   X     +.-   . . . . . . . . . . o o .       . .   -   . o .   # X   l.Q.  - 7     .   . = & o o . .   . o o & . M L     - . .       . .       . . . . . . . . .         . X . . .           .       - .     o     .   . &                   . .           . . . . .                         .         .                                     - - # X                   o o X . . X .               X                       . &       X     1 r             +             X 1             X # W.u.t           X         t n.a.X               ",
"- & . . . . w P o   . . . .   = . . = . . . . . - . . = - = . . . . . ; l ; . .     . . o o   o . . = -   ;.p.X % ; - o - . . $ - ].D.  . . . = d & o & - . . . . o . . . $ & $ d j 2 $ $ & & & . & $ < . $ $ . h *.. ; & k k $ $ $ $ . $ x . $ & . * . &  .. . = z . . m d o o $ $ $ $ . . . . . . $ . - . . = $ . + + 9 v.fX] . = - & P . . = . & = . . & ; - o . . . $ . . . . . e i.  X . . . o   z O.w   . . . . . . . . . & . . = .   o . . . . . . - l N ; . . . $ . . . . . . = .     o   . . .   . .   . . . . . . . . . . . . . - ; ;   # W.X.X     . . . . . . . . . = o . . . . . . . . . . . . . . . o o . o o . o . . . l - . .   . . . . . . = o & . j P X   1   e t   .   = o W - .   X       X . . . . . . .   . & - - & .     . . . . o   e o .     X     X       -     - $ * . . . . . .   o o .   o   .     . . . . . . .       . . . . . . . . . . . X # - . . .             -           o   X     .     o     X o X .   . X .                                             .       .                                                                                   . X                   X               & .       X       #                     . 1 n # X           X i w X               X X   X u.+.- X     . X     ",
"N = . . . . w ..= . . . . . o . $ . $ & . . = . 2 * $ & ; 2 & $ . . . . - o . & 2 - o . . . . . . . $ = . L i.  $ 2 ; . & -   o   o - & . . . &   &   . = ~ 2 .   o $ $ j . * . $ & & . & & . & * $ . & &     # - 2 * . $ h d . & . = - . . ; . o o . . $ . . & $ . =   o . . $ . . . . o .   . o . . . . . . . $ . . . - .   o . = = . . = . . o - . = ; & $ . . . . . . . . . . o .   & . . o . & . L E . .   . = . .  .o   & o   - L z .   o . . . . . . - e - . . $ . . . . . . . .   . . . . .     . .   .   . = . . = .   . . o . . . . . . . . . . . . . . . . . . . .   . . = . . & . .   . o .   = o . o   o   - o   . X     o &   - & o o     1     X X = . . .   1 2 . o . . = - o     . o w   . -                   . . . = . . . .   . . . . = # #   t @..   o . .               X . . . . .     X       .   X o   . -   .       . . . . . . . . . . . . o   $ >.=X. - . . .         o     X     @   . .         .   . - - o . . - # .                               X     o     .                                         . X . .                                           X # -                                 . .                                                           X                                 O   X       X   ",
".   o o   . -   o . . . o o . . . ; = . . & . . = $ . . $ $ $ . . = . . . . k 5.= = o . . . . . . - . $ $ . - . $ $ o o j x = o o ; e - $ . .   . . o . o - = & ; o . 2 *.& $ * $ . $ $ o . ; =.$ $ $ o . - ..S.$ . . & * $ o $ ; = . . = ; ; & . . & 2 & . . . . . $ . . o . & - $ . .   . & .   . . & $ . $ & . - = . = & o o = . . . . = $ e e   . & . . . ; = $ . . . $ $ $ -     l   . o   . .   . o   . = $ . 2 - i.. o   .   . - = . . . & = o . . .     . . . . . . . . . . . . . . . . .   . . . . . . = . . . . . . = . . . . . . . . . . . . . . . . . & - - o   . o . . = . . ; o . -       .     -   ..[.    . - .   -   - - & . u . - o       o - X . $ e     X e   - e - .   . & . - . & &     .   . . .       . .   . . . . . .         - . X   # i X /.m.. & W .       . X   # . . . . .   . - sXn.X   -     - - 2 . o X X     . . . . . . . . . &     #   o < o .             -   -   U 3Xi X 1 e .   e 1       . . . . . . o .                                   o .     -                                           . . . .   . X                                         .                                 . .                                             X       X   X i .                                   X     X O   ",
"o & . . - . . . . .     o .   -     = & $ . . ; . . . . . . . $   . . . .   . 1 . . . . . . . . . . . . ; ; .   . $ & $ = .   .   = & . . - - o o   &   = . & ; j ; . j 6.; . 2 h   . . & & & 2 & $ $ & o o e W . . & * & $ $ & . & & o & $ . & j o o ; ; 2 ; . . = & ; . - o ; ; . . & . . o .   = ; & . . = . . - = . . .     = . . . . . = z R.2 . . . ; . $ & = . . . $ = & . . x k.. o - = - o - .   o . . . .   .   . o o . . . .   . = . x e - o . . . . . . $ . . = = . . & . . o .   . o   . .     . . .     o o . . . . . . . . . . . . . . . . . . .   o - - .   . o o . . . = ; = .     -   - - o .   - P   o .   . . . . =.o   X X   = w e o e o   . - .   X z   =   & - & .   . . . & .   o   . o   . o o     . X . . . . . . . . o   o . .   .   N.u.  p.M   - i.o - -           . . .   .     # ;.z X   W ;.o     .           . . . . . . . . .   .     @   F u.o   - o   X     .     X i W.#   - 2     n j     .     . . . . .                                 # X   .   #   X                                           . . .   . o .                                                                         .                                                             X                                 @               ",
"f rXA.  o o   o . - = = = . = E 8Xz   . . - . . . . . . . . $ = o $ . . . = .   o o o . . . = = N * d ; . . 2 ; & . . . o = . e ; - = . . $ = . o e ! & $ . & & & & . & x $ $ & o . 2 , . & & . 2 $ . . o .   . $ - ; & o & & < $ & & $ $ $ $ $ - & & & . . $ $ . o - - . o . & = . . = & o . . . . o $ . . = . . . . . = . . & $ . $ . = . . ; o   - = . . = h $ . . . . . $ $ .   . - = . . .     o . . - o   . - . .   o . . . . . . . = - . l - . . . . . . . . .   . . . . o - . . - &   . o   = -     . .   o . . . . = . . . . . . . . . . . . . . . . .     . . o . .   . . . . . = . .   -     .     - o 2   - . o   . - e .     #   7 l o & 2 o 1   .     . - X t .   . .   . o & o   .   o .   . L 1   . o X .   . . . . . . . . o .   X - l   X . o           -   o - - -   . . . . . .     .       .       - t   . . -   X         . . . . . . . .     X # O   O.-Xo . L i   .   .   o   o X         .     - -   . .                                                     #                               .                           . .                       . .                                                                                                   X                                                   # X #   M ",
"j m o . . . -   . - & = =   . L ..  o = . = . . . . . . . . . .   . o & o . . . o o . . . . = = 2 . j Q % . $ .   . ; & . . - ~ j ; . . . . . . . & ; . . 2 & .   . $ . $ & d & & 2 ~ j . & 1 - & $ $ $ $ o = - = $ $ $ & $ & < Z - . o $ d f $ . - & & 2 - . $ $ o 2 = o . . $ . ; . . o & o ; h . . $ . . . . $ . . $ . . . . . . = . . = . . . - = $ = = . . . . . . . . . . = & .   e = o = - o   . . . = . .     . 1 -   . . . . . . . .   . . . . . . .   . . . o - o   . . & . . - &   o   . e l - . .   . o   .     = . . . . . . . . . . . . . . . . . . .   . o o .   o o . . . . . . - 3.t w   . -   . x ; o .   -   .   - . # #   W.W . o   . . . o e - o P G.|   & . . . . . o o . =   o o     M -   .   . . . .       . .   . .         o   X X .   o .   . .     o       - o   . . .     . +   . o     o o   . o   .       . . . . . . . . . . . o . .     2     o   K i   .   .     o   X           . .     .                 . .                                 - #   X X # X                                                           . .             . o .                                                                                                 X     i K #   X                                               i ",
"      o o   o & . . . . o .   =   . - . . = . . $ . . . . $ . . & . e P z . . = . . . $ . . . . 2 2 & . $ $ & $ = .   . o = . . = . . . = . . o - . . . 2 W h & & . & - $ * d $ 1 & h d $ & & . . $ & & $ . . . . & & $ & 2 2 & z o o & & f k $ = ; . . W E & o & $ 2 o & . $ $ & & . . 2 o   ; z & $ . . ; e   = & & . . = = . . . $ . . & . . . = . . . . . - . . . . . . . . . . - . . . . . x l . = - . . .   - e     . . = o . . . . . . . . . o = o . . . . . . ; z ; . o   o     o o   . . . - 8 .   . . . .   ; ;   .   . . . o o . . . . . . . . . . . . . o o o . . . - - . . .   . . 1 W & O.z     = = . = o -     o = ! - .   - X   .   -   o . .   N = . # K   - L . . o o . . . . = . . o o       .         . .             . o   . . w   -   . . . o   . . . . =   ; N . . . .   . . .   . .     . o . .     #   5.` - . . X     . . . . . . . . L o . . 2 2.< . .   # o   . . . .       . # .   o   . +     o                 . X .                                 X K .                                                               . o X             o o o                                                                                                       i K 1                                       X       o X   ",
"- o o . . . . . = o . o & = . . . . . . & . . = . . . $ $ $ . . =     - = . . . . . . . o o . . & *.Z $ $ $ = ; = . o o . $ . $ . . . . $ . .   . . = $ . $ . . & . o & o $ $ $ . . $ - o o o & & $ . . $ * * $ . 1 2 o $ j h . & & & & $ * * $ . ; $ . ; - o - $ . o . . o . $ ; . . 2 h - o $ $ $ & .   z E o . $ & $ = l z - $ . . . . $ . - $ . $ - = .   . = $ . . . . . . - . . . . $ = . = = . . e e   . & L z.e o   - . o . . . . . . . . . . . . . . .   .   o 2 o   . . . . . . . . . . . . .     . o . = . z N - - . . . . . . . . . . . . = = . . . . . o . . . . . 1 1 . . .   o .   -   -   . . - ; . ; e - &   - o i.  . 1 . 1 -   - &     . - = . = .   | R   . . . . . . . .   . o   . . o o   . . .     . . X .   .     o - . . - ! K  .  . . o o & . . -     . E 4.- . . - . . & & .       X .   . . o o . X ` B       . . .     . . . . . . +.e & . . ; . $           . . . . o   -     . o .         . o         .         . . . . .     .                 o    .3X# X -                                       .         .           X X           . o $ o                                                                                                 X #       X X                                     X         X   ",
"    .   . . . & . . . . . . . . $ . . & . . - . . . . . . . . . . . = o . = - . . . . . . o o = o L $ . * . $ & z - = . . $ . . . . . . . $ = . . . . . ; x ; . . $ & $ $ & $ d N * & $ $ * $ $ & & & & ; ; & . $ $ $ $ $ $ $ . j e o . . $ $ * $ & & o o $ . . $ o . & o 2 & * . . $ . . L ~ o ; . . & . . - . & . . $ . $ = . . . . . $ . . - = . = . . & . . & $ . . . . . . . . . . ; . . . . . = . j L   =     z !   . . $ . . . . . . o   . . . . = . . . . & .   o .   o .   . .     . .       . = o . . . = . . & . - . . . . . . . . . . . o - & . . . o .   . o o o . 2 1   . .   o   . . . - . = . - = . . . =   o   #   X   .   .   - L - & . . . . .   o X ..,.  $ . . . . . . . . . . . o   L ... X X X .     X #     .     o # . .   X # P     8 &   . - z   . X . o j . &   . . . , 1 o . . - t . - ;   - z       o   .             . . . . . .       . - . . .   X   . X   . .     .     . .     . .         .       X X         . o o .     .                     # - .                                           . .       .           . .             . $ $                                                                                                       X X X                                               X [.sX",
". . & ; - o . o   &   o o       . ; . . ; . & 2   . o . . . - ; o   . & . $ ; . . o = . . . o & $ $ & $ . . . j { 8 . . . o $ $ $ . . $ . . $ $ . . . . $ = $ $ & & & * & $ % % d $ . d 2 & d & K.j . . * o = $ - & $ $ $ . d $ . !.(.. $ $ & $ $ $ $ h o . L o . o j j - - & $ o . = $ . *.g.% ; . & . . & . $ . . . . . . . . . . . . . . . . $ . . . . . . . . .   . . . . . o   . - ; o . . =   & w . . =   .   .   . - - . . . . . . . . .   -   . =   o . . . . . . . . . . . . . . .     O.z .   . o . . = = $ . . . . . .       . . . . .   L h.X .   . o . & x o   . o   . - L   . L l . .   o . o . j . ; z . -   o o . . o o o . . .   h.X   o     o o   t #     o 2 = = = . . . = . = . . . . & &   .     X     .   .     o . . . .   . . . . . . . .   . ~ ( &     .   #   X o o . . . = o   . Z c.      X # - .       . =   X . ; . . .                     . . . .     .         X               #     o   . .     +   . .         X X .     . . .     X o X .                                                                   X     X     o .           . o &                                                 .       +     X     X                                                                                     # u.3X",
". . . = o . . . , & . . O.m.# - & . =     z M - -   o - . = - =   l -   . . . & . . . . . . o . $ . . . & & . . = . . $ . . . ; x ; $ . . $ $ . . . . . $ $ $ . $ & . $ $ $ * & $ ; ; . $ ; . d j $ o * . . $ $ o ; $ ;   o & . 2 Z 2 . 2 & $ . * $ . & $ 2 W e & . & & o - & . &   & & - $ $ s & ; . = - . . . . . . . . . . . . . . . . . . . . . . . . . . . . . . . . . . .   . . . . o o . . = z k.e = . . o . . .   . o   - = . . . . . .       o .   . .   . . . . . . . . . . . . .     O.M & . . . . . . $ . . . . . . .     . o . . . = - ! ;.. - o = o   - e . . o o 2   z :.  e i.- . . & o . 2   . - . . o =     . .     . . . . . - m.t     o .     & X.! o     o & . . o .   . .   o u ;     . o    .w           .   .   .   .           . . . . . .   o o   o . . = w       . - = .         . o X X .     . . . X o . . X   X   . . .                     . . . o .           . X       o         X   . o o       +       X X       .       .   .             .                                                                   X     . P W .           . o &                                       X X             O     o 3                                           X X X                                 X     X       X ",
". . . . .   . o A.i.& X O.h.    . . & o X w e     . . . . .   . . h.!   o - . . - = . . = & o . . & ; . . = $ ; . $ & ; - . . e & . . . . . $ . . . . . . o $ . $ & $ * ; & & $ $ $ . d ; . - . o . - & . 2 $ & t 2 & =   .   e $ . ` $ . & . h k * $ $ o $ & . $ . o o & 2 & . . & $ . = $ & * < m .   . . - $ . . . . . . . . . . . . . . . . . . . . . . . . . . . . . . . . L -   . .   . - E .   e - . . . . . . & . o l - = . . . . . . . -   & = . . . .   . . . . . .   . . . . . . . . .     . o . . . . . .     . . . .     . . . . .     o -   .         u - . . .     - o - o o -   &   .   l ;.-   . . . o   & -   . .   . .   . . .     1 o   1 i -   - X   o .   & . . o . . . . . o - o . o o   # i.e   -     X . o -   o   X   2 - & o . . . . . o         o       o o o 7 .   o .   . o o o .               .   . .     X     . . .                     . . .     . . X .         -   w   o o   .   .             X . o o                 .           .       . .                   . .                                                 e t             . o o . . .                                                     - ( f.# X       . X X                           X X X                                 X               ",
". . . . . . . = 1 o   -     o . $ & .   7   a.o..   m *.k . . . . -   . o   . . & $ . o - ; - . . 2 x & . . & d . - d m N 2 . . * $ $ & $ . $ . . . . . . . . . ; ; ; d d & & $ * * . . 2 . . . o 2 $ $ $ $ * . z :.. . i iXa.  - . :.2 4.W . $ & . $ $ o o   - $ . $ o & - & $ $ $ = e o - .   & k ~ o - =   . $ . . . . . . $ . . . . . . . . . . . . . . . . . . . . . . . o ;.w   . = . . - z . .   . . = . . . . - . & E j     . . . . . .   . .   . . . o . . . . . . .   . . . . . . . . . . . . . . . = . . . . o . . . . . . o = . . . = .     o & o o . -  .u o o . . o o . &     o     . & . o z . . = . . o         1 - o . . . . . . = o   -   w X..         . . .   . o   . e l 1       . . o .     X     X       . - ;   - o #   o .     . . . .   . . & & .     o .   - e P - . . . .       o =                 w =     M Q.r   . . .                     . . .   X       .   . X a.N.-     o   .     o   . - o X       .     X   . .           , & . . .       .                   . . . .                                         X X       .         . . . . . . . .     . .                                               X X         . X o                                                                     X       X X ",
". . . . . . . o . = .   w -   . . . - . X i :XB.. W Q $ . . o . . . . . . & e . $ . . . = - = . . 2 2 $ . $ . . 1 * . . $ $ . - x ; $ . $ $ $ . . . . . . . . $ ; ; $ & & $ * * . h ; . - - *.l . & d.d * k * * . o = . K n.K o & . ~ L h & *.. $ . $ . $ & & E ; $ o . . $ . $ $ . & . o .   ; k o o    .L = . $ . . . . . . $ . . . . . . . . . . . . . . . . . . = . . o . = e & . . = = .   . . - e   o .   - - . = . . e . . . . . . . .   o N =   = . . . . . . . . . .   . . . . . . . . = = = = . . . . o . . - - .   . . . o & - = . . . & &   .   . .   - ! - . o . o w   o w     e o   - o o       .   o .   o o . . w - & o . . . . . . j .     o X . . o o   . . = t l e .   X X   ..t X       . . #   X o   . o   . o o   o . X   = . .   . . . . .   . & o     X           o       .     . o . . e - .             . .     |   X . . .                     . . . . X .   . .       o     #     .   -     #         1 . X X # X   X o X . . .     N t o       . . . .                 . . . .                                                               .     . . . .   . . o                                       X + X                                                                                                     ",
". . . . . . . . . . - .   .  .- = . - o   . #   & . d Q d . . . ; . . . .     = $ $ $ . . . . . o ; o . $ & & $ . o $ $ - = . . & . . $ . . $ $ . . . . . . $ $ . $ . & & o & & =.` ; 2 . & ].;.$ $ x.& . $ . . . $ h =   X   =   2 o . . * Z * ; $ & $ $ & . 2 * $ $ & 2 e $ . . ; . 2 k.. e 2 Q N 2 o L . & . . . . . . . . . . . . . . . . . . . . . . . . . .   o   . .   = . . . $ . . . o = .     . . .   ; ; . . . . .   = o . . . o = = - ! - . &   .     . . .   . . . . . . . . . . . . . . o = o .   o . o 2 2 .   . . . . o o . . . . l 2 . o . . .   . -     o . o . . . . -     o . &   o & o = .   . o   .     o - & o . . . .     o - & P 1   o u =       o o . - .   .   . o o h.P o . . . . o .   -         # & .   .     .   ; - = o . .     . . .     X     . . o X   X   o         X # o . w #               o . . X     X . . .                     . . .       .   . - -   - #     X . o   o     .   1 . o   # X R 8Xe o . X .     .     , - .     .     . .                   . .                                                                                   . X                     . o o .     +                                                                               .               X             X ",
"  . . . . . . . . o   = - - O.. . . . o 2 2   - o o $ * ; $ . = . $ ; . $ j & $ $ $ $ $ . . . . o - . . $ . d k $ = - - o o = = . $ ; ; $ . $ $ . . . . . . = & * * $ * ; & & . 2 & . $ & & . . , & . $ & $ d.k . $ Q $ 1   - $ . . . ; * & . * $ . $ $ $ $ $ $ $ $ & - j h $ & $ ; . ;.~.  o . $ 2 & & z j k $ . . . . . . . . . . . . . . . . . . . . . . . . .   = . . -   . = . . & $ . . - =   -   -   o . $ = . . = . . = . . . . . = - -   & .   .   . .   . o . . . . .     . . . . . . - = .       . . . . . & o .           . . . . . . ; .   . = . . . o . . . - o - - . - & - & - .   & . o       . -     1 . .     = . . . . . .   o         o o . $ = . . o . . = o     . .   . . . o - - .   . o       . - X o R ; . o z .   . . . . . . . .     . . o     #     .       o o     = X .         . .     . X       X o . . o   X . . . .                     . . . -   . o     e M   X o   .       .   . #   2 2.n   e   X   K #   . .       .         . . . .                                                                           X .     X                                                       o o .                                                                                                           X         ",
". . . . . . . . = . o . . o   o . o o . & $ ; . o $ * $ . . = . % . h ; ; N * . $ $ $ . . $ $ . o & . & & . & d . . = = . . $ . . . $ $ $ $ & ; . . . . . . = - Q k $ $ $ $ & $ . & . d . < 2 * !.f . $ $ * x & & $ * $ . o $ $ o = . & * . * $ ; & & = . $ * d & & & . . . . ; $ . - o . = . - & $ & & . 2 $ * . . . . . . . . . . . . . . . . . . . . . . . . - . ; - - e . o   . . . $ - =   . . . . . . . . . $ . . $ .   o . . . . . . . . -   & -   . . . . - - = .     .     . . . . . .   . . . .       . . .     . .         . . . . o . -   & .   . =   o   & . .   . .   -   . - e   . . .     -   o   - .     ~.R.  = o . . . . .       & & . . . . . .     .   . = . . . . . o o   = . . .   o o   X .         . . - . -  .& .     . . . . . .     =   .     o   . o   .   . . . . +           . . = . .         X     . .   # . . . . .                     . . .     z ! -   .   . - z . .   -   . = X       m o e 1     O     o           X .   . o # .     . .                                                                                                                                         .       X                                                                                                               ",
". l -   & $ . $ . . . .   o o   . . . . $ $ . = . . . . . . . . & $ ; . & . ; $ $ . . = = $ . . . 2 & & . . . m & & . . & & . .   & ; * $ $ $ o $ . . $ . ; $ * 1 . - o & . = . & & . . 2 1 . & l . . * $ $ % % & * * - * & . o $ . & 2 & $ & o h $ . $ $ $ & d ; . $ . = $ % . W A.. = w o $ $ 2 o 1 h . . & $ . . . . $ $ . . . . . . . . . . . . . . . . . . . . & & = . . . . = . . $ . . . . . . . . . . . o . . . . . - # X t i.X   . $ . . - - $ . . $ . . . . . . . . . o     . . o . = . . . . . . . . o . . . . . . .   i L . - .   w   o . .     X X . . . . . o ; l .   o o   #   o N     & .   . = . . -   =.tXz   o . . . o o .     -   ! - .   o . . . . . . . . . . . . . . . . .   = . . - . = . o . . .   .     . .     . . -     . . .         .     .   X   . . .             1 P   .   . . . . .                 o o       . . . .             . #   . .   .   - i # . o   .             .   o   . . .   w M . . e .   .         . .       .       . - -   X   o     -                           .   . . . X                                                                                               +             O                                                           X X                                   ",
". ; &   . $ 2 E = . . .     . . . . $ e . . . . $ $ $ . . . . $ ; . . . - . . . & $ $ . . . . . . o . & o $ $ h & . ; *.. . . $ . $ $ $ $ * = . = = . . . N h ; 2 & & & & . 2 = . . $ o . $ $ . . . $ $ $ d k $ . $ $ $ $ . . . . . $ ; $ . $ $ . $ & . $ & $ . . ; . 2 E . ; $ k k & . . o . $ . & $ . & = . = . . . . . . . . . . . . . . . . . . . . . . . . . . . $ . . . . . . . . $ . . . . . . . . . . .     . & = - w #    .a.  # o   . . . . . . . . . . . . . . . . . - o     -   = . . . . . . . . . . . . . . . o .   z e ;   . =   X   o . - & .   . . . . . & w j . = . - . ..e - h.u     . = = . -   & E o - . e . . = - o   . - .   & i.j o =   . . . . . . . . . . . . . . . . . . = . . - =   . . . o .   .   & &     . o X # .           . . o - u.X X       . .               . u   .   . . . . .     .       o o 2 - . - t                 #   o -     . . .   X -     .                       . X     X   o     o     X .       . .                 . o     X L u       #                             .                                                                                                     . # # X                                                       X # #         +         . . .                   ",
". . o o . . . . =   . . .   . o . = z :.h ; . . . . . . . . . . . & $   . & . . & $ $ . . . $ - E e o & . . . & & $ N S.2 ; . = = = $ . $ ; $ . - 2 - .   2 & . . . . 2 & . & ; & . & & . . & . . $ - $ * N C * $ & $ $ = . . o . . $ . . . . $ = . . o - . . ; & < 2 & & . . $ $ & $ . . & N ; $ $ $ . . $ $ $ $ . . . . $ . . . . . . . . . . . . o . . . . . . . . . . . . . . . . . $ . . . . . . . . . . . ; . . . . . .   o   X - -   X o . = . . = . . = . . . . . . . .   o - z S.e 4.  - . . . . $ . . w o . . . = o   t W . . . -   X X X - o   ) B . . . . .   . . o . o . .   P - . o   o - .   . . = . . e     -       . o .   2 W & o   w .   . . . . . . .     .   . . . . . . . . .   . . . -   . o . o .   .   o o . . o .     .               o X i.  o X     .                         .             . . . o . .   o .   1 z                       # X     . o     o     .       . X X .         #   X           .     . X       . .             . .     .     o K u .     .                             . .                                                                                                   X X       & < X                                                       & &               . X                   ",
"= . . o . $ ; 2 .   . . . . . o . . = z . . . . $ & = . . . . . . ;     o . o = $ $ $ $ . . & ; *.l & - . . $ . & & $ & . . . . . $ = $ . . . . . o o = . o . $ - o = $ $ * $ . & $ . $ & $ & & . . $ $ $ * ; $ $ $ $ . = $ . o $ & o . . . . . . = & . . e L - ) o f N 1 o o 2 . 2 $ x z   2 & . . . $ . . . . $ . . . . . . . - = . . . . . . . o o . . . . . . . . . . $ $ $ . . . . = $ . $ . . . . . . . . ~ l $ . . . o o . . - .    .h.  . . . .   . . . . . . . . . . . . . l - - - . - - . . . . . .       o - . .   . t z . . . 7   +.N.    - & & $ . & = o . . .     2 = o   . &         & - .   . . . . . . & - .   o .   . .   o 2 . 2 .     . & o . . . .               . . . . . o o   . .     z   o . o . . & o   . o . .         . o # o X         X   .   .                   o     X   e , o         . . o = .       .   . .             . .         X .     .   . o .   .     . . X o .       ] Y   # .   .   o o     .                   . .   . .     .   X   o .   o                                 . .     .                                                                                                   . f ) 1.X                                               X +   - _ ` 2 .                                 ",
"= . & - . o x ~ . . . . . . = . = = . . . . $ ; z h & . . $ $ . . .   L i.o o . = = & $ . . . = -   . - $ & ; . 2 f $ . & & = = . $ & $ . . . $ o .   $ o & . . . $ E $ $ . . * . d . . - $ $ * = . . $ $ $ $ . $ $ . $ ; e ; 2 = & . . o $ . . . o . - . L ! . k 2 & m h ; ,   e   - e . & & j & ; . & x 2 . $ $ . . . . . . . - = . . . . . . . . . . . . . . . . = = $ . $ $ . $ . $ & $ . = $ $ o . . . . . ; . . . & o     . e . . o e i   o . = ; . . - . . . . . . . . . & o       o .   . . . . . . o = ! 2 . o o . . . .   . -   . X T D 1X|.  G u . . o . . . . o o o z . . . - = . . - & o o . . .   . - -   o     - . . o o . .       . - = . - z . . . . . .               . . . .   o -   - w T oX  . . . . o - - . . .   . .   o   X - - - o . .   o   #     X o                       X   e e $ X         . . o   . . 1 1 .     .           . . . o       . . .       . .       . . . . . . . .   _.`.@     X     .     . .   . o               X           .   .   .       .                               . .                                                                                                     O O     & <                                                         1 1 . .                                 ",
". . ; e o . . o . . . . . & - . . . . . = . . . ; & . . $ $ . . . . o W i.. = . $ $ $ = $ . . = .   $ & . . ; . . $ & & $ . . . $ . . . . . $ . & & . o . $ $ $ . =.!.k * 2 * . . ` x . & $ o & . = & $ $ $ = $ * & $ & e h 2 2 . . . . . o o . o .   - . . e . . f & . . ; . 1   o o . . d.S.  ` j . & j 2 . $ . . . . . . . . . . . . . . . . . . . . . . . . . . = = . . . $ . . . . & = . $ & $ $ . . . . . . . . ; h - . . . x - . - .   . .   ; z = . = . . . . . . . . .     2 . ; . . . . o .   . . . - m.M     o o .     -     o   .   @ Y Y 5 o   . = . . . . . . o o . .   = . =   . . . . = . . . . . 2 =   . o -     o - o . o o . . . . . . . & = . . . . . .               . . . & o o - i.h.- # . - . .   . & o . .   o e 1 .     . o o .     . . . . . . . . .               .   #       o &     .       . . .   . o - #   . . .             .     .     . . .                 . .           . #       #     X o .     o .   X - X     X       .     .         .   .     . X                                 .           X .                                                                                       O O O     .                                                   X           .                               X ",
"= . . $ $ . . . $ . . . . = - = & . . . . . . = . . . = & . . $ = . .   . . $ & $ $ $ $ $ $ = & ; - e $ . . ; $ $ . . $ . . . & $ . . . = $ $ $ $ * $ * $ $ < k 2 . $ N ` & . * - *.x & - o $ . . . $ $ & & $ . $ $ $ . $ $ . . . . & ; . . $ $   ; & . 2   - . 2 $ & $ ; - . T.2X  - & . 2   1 Q $ . $ . . = . . . . . . . . . . . . . . . . . . . . & = . . o . . . . . . . $ . . . . & = . . $ $ $ $ o . . . . o o o & .   . . . . . o . o .   - u - .       . . . . . . . o u.X.  = . . & . . - .   - &   o .   o - .       o ! -   & .   o   +         - . = = = o o . o o   = = - . . . . & o . . o . . . . .   e - . ; . 2 2 - .     . o . - . . - o   o . . . . . . . .             . . . .     1 e     o - o .     .       . - e -                     .   .   . . .   . .         . . o e o X     . . . . .             .         . o           . . . -     X     .     .           . .           .               .   o o     .       - X                 o - .       .     .   X o                                           # 1 -                                                                                   .                                                                       X X                     X     X     X 1 ",
". . . . . . $ & l = . . . . . . . . . x . $ . . 1 $ o = . . & j ; . = = $ ; . $ & $ . . . . . . . = h & $ & h * $ $ . . & ; & & $ . . o . . $ $ C k * C k * * g m C . $ ; . & . & 2 . $ * . & . $ o $ ; d ; $ & $ & & $ & $ . o = . h x & . & - - & . & x.= . ; o < $ ; . . o R D   o $ * . 2   . . $ & $ . . . . . . . . . . . . . . . . . . . .   . ; ; . . = $ . . . . . $ = $ o . $ & = . . . . $ $ = o . . . - & $ & o . 1 -   . . . . ; e .  .! .   & o o . . . . . . . = R w   o . . . =   &   . N j . .     . . . . o   # X X     -   o X X   i /.w   . . . . . . .   . = . .   - . . . . . = & o     o . .   = . . . . o .   . o .     . . . .   o . . . . . . o o . .             . . $ . . & .   . o   .     . . =   . .           o X .       . .     .   .     . o . .       . . .   o     .   . o . . .           o o   . o   .   . .       . X o u.-         . .   .     .     . . .         .     - .     o   X     .           .           . .   . - 2 &             .     o .                                         - e -                                                                                                 O                                                     O       X O                             X 1 ",
". . . . $ $ . o ; = . . . $ . . . . $ = = $ . . & $ $ $ . . & ; - = . . $ . . . $ $ $ $ $ $ . o $ . $ $ $ * ; . . $ * A V * * & & = . $ $ & $ $ j j & * ; $ ; $ & ; $ & ; $ $ & o 2 & & & . & $ & . . #   # o o . $ & . . & & $ $ . = & & o . . & $ h & ~ ; j ; o & 2 & . & $ . . $ $ $ $ & & & . . . . =   . . . w X X   # . . . . o . . . o o . . . . . . . . . . . = . . . . . . & & . . $ .     o o & - . o . . . j . & . E ; . . E A.. - ; . 2 . . . e . o . . . . . . . . . .   o o . & . . . - - . . = o . .   . X.o     . . . . o o   - = o   } xXr X - +   . .     P.H #   X . . - . o . . . . . . . . . . .         . . ; . . . o   & ; . . o   . - . . o . . .         . . . .       . . . . . . . . . . . . . . . . . . . . .       . . . .       .             . X o . - .   X   X . . .           . . . . . . . . w R     .     o   .   . X     # X.t       . . . X     - #   .   .     o o . & m # X .       . .           . . . . o X     .                             X   o                               X X                   .       .                                                 X X                                                 o 1 - .                                                       X                 ",
". . . . $ $ o o = . . . . $ . . . . . . . . . . $ $ $ $ . . . & = . . . . . o $ . $ $ $ . . . $ $ $ & * $ $ $ & & . . d < $ $ $ = $ . . . $ $ $ & . . . $ = . $ $ * $ * * $ * * * * o * ; . . . . $ - o }.R.  - & $ & & . $ * $ & . . . . . 2 .   - . x 2 $ h * . . . - 1 & $ . & & $ . o $ $ o & & . . . . . . . -   Q.n.  . . e =   . - u -   . . . . . . . o .   . . . = = . . $ . . 2 2 o $ X t u.- -   - . $ N * 2 j . . - . . o x ;.o o . & o o w . . . . . . = o . . . o = . o   . .   T z = . = . . .   . . o - ..&     . o   . o o   o . #   # i         . = . . w B.H +.Q.#   .   & . . . . . . . . . . . . . . . o & . . .     .   u l . . o . . = . . . . . . . o o     . . . . . X . . . . . . . . . . . . .     . . . . . .       j - .   - - o                 . . . o     .   . . . .             . .   . . . .   -   -     .           .     . X     . X .   .             .       . ; - . . &               .           . . . . . .     . .                             .   -                             . X                               X                                                                                                 . o #                                                                           ",
". . . . . $ $ $ . . . . . . . . . . . . . . . $ . . $ = = $ . . $ . . . . . . $ . $ $ $ $ $ $ $ . $ $ $ $ . . & & . . $ $ . . . . . . $ $ $ $ $ $ . k * . &   * * $ . $ $ $ * * . & d k d . & k d * o - S.... $ $ . $ & $ 2 j & ; & . & $ j =.d j j.; j ; & $ . ~ ! ; * ; . . . ; & $ . . $ $ . . . . $ . . = . . -   O.R   . . ; = . . = - =   . . . . . . . . . . o . . = = . - j e ; 2 $ . o   u.E.  . . $ . & 2 . o j   & $ = ; . o - .   . - &   ! ; = . & . . = = . . . =   = o   P r w pXW -   . - - o . . .     -     o   &   .   o . o   o X       - w   . . $ &     O Y M   - . - &   . . . . . . . . . . . . . . = & o   o o . & . ! z . . o . . . . . . . . . . o &     . .       . . . . . . . . . . . . .     . . . . o o .       X - o   o g.j -   .             . . .     .   . . . .           . .     . o . .     - z . - - o . .   .               .       . o e o       .   . . o & o . . . .             .             . . . .       . X .                       . X .                                   .                   # # X                                                                                                           . .                                           X         .                   X ",
". . . . . . . . . $ $ $ . . . . . . . . . . . . o . = - - & o . $ . . . . . . . $ $ $ $ $ $ $ & . & o . $ & . . = . . $ . . . . . . . $ $ $ $ & $ C g.W . . . m f * & & $ * k d * * d k d $ $ & & . W (.. o 2 . $ & * $ & h 2 . . . . . . & j . j 4.& & 2 $ $ $ *.4.2 . & $ 2 - & & $ . . $ $ $ $ & $ & $ & ; & . . o .   X   & . . o . .   . . . . . . . $ . . . = . . = = . . . & z z . . & - =   -   . = . h ` $ < 2 h & - $ . - = . . o   . & o . j 4.. $ & . . o . . . . o -   . o K U   O z - . . = = = = . o . . o   . o   & . -   . o - = . .   - o u ;.. = . . = - X   X w       .   o . . . . . . . . . . . . . . . . .   . .   . . E e . . . . . . . . . . . . . . o   . X .         . . . . . . . .   . . . . . o - . . o o .       o     .   - h . . . .           . . . . . . .   . . .           . .     X # o   X   - 1   o & o . . . . . . .   . .       . . . , N 1   X .     o . .     . . . 1 o       . . . . .         . .         . . X .                 X           m.t       X # # X                                     X .                                                                                                                                                                 . - - .               + # ",
". . . . . . . . $ = = $ . . . . . . . $ . . . . . . . = - = . . $ . . . . . . $ $ & $ $ $ $ $ $ & ; $ . & & . $ . . & & o $ o . . o $ $ . . . . * * $ . . = o   * * $ & $ * k f $ * d 2 $ * $ . ;   &   N h . & $ ; $ . ; 2 $ $ o & & $ & & $ $ . . . j ; & ; o 2 E $ . & $ ; & $ & & $ . o $ $ 2 ; . . . . & = . &   = . . = . . . . . . . . . . . . . . . . . . . .   . . . . .   o - . $ ; $ . . . - 2 . . k.) * d f &   . . . . = . o = - l . . . - *.. $ . . . . . . . . . o . - .   + @ O = & o . . . . . . o . = . . o . . .   & . . = -   o . .   . . - ; . o .       # R   . . = o . . . . . . . . . . . . . . . . . . . -   .     o ; . . . .   . . . . . o o . . . .   . X X .   . . . . . . . . . .   . . . . . o -   . o . .       , /.    o o . . . .   . . . . .   . . . . . .   . . .           .       o # o             o   . .   . . . . .           . o .   . 2 .   X     .   . . . . . .   w # .     . . . . . .               . X X .                         o     w ].h.      X # # X                                             X X #                                                                                                                                                       X - - .               X # ",
". . . . . . . . . . . . . . . . . . . $ $ . . . . . . = $ $ $ & . . . o $ . $ = o $ $ $ $ $ $ $ & $ . & $ . . & $ . & $ . $ o = . . . $ $ $ $ & . $ . * $ . x ) . $ . $ . . * $ $ & d * . * * & . & . $ j d $ 2 k ; . . ; $ . * . $ & $ ; & . d $ . $ 2 2 ~ ; . * 2 . $ & . . $ . $ & = . . o $ $ . . . ; . . . . ;   . .   ;   . . . . o . . . . . . . . . . $ . - = . $ . . . o - .   & $ . . & . .   . $ . = m *.j d - o e L & . . . . . 2 N . o   j . . . . & o . . . . . . . -   . e     7 . = . . = & .   . o   . . . . . o   .   . o . . L N.  & e . - = . o   - W w   u.{.. o . . o e e . . . . . . . . . . . . . . . . = u . - o o w - . o = . . . . .   . . . . . . .             . . . . . . . . . . . . . .   . . . . . . . . . X   t L     ,   . - .       . X . .   X   . . . & . . . .                   . X .     X     . &   . o . o & . o - .     .       . .   .     X     .     . .   .     X       . .     . . .                 X X                       X         .     .         X                                       X X       # w                                                                                                                                                           X                     ",
". . . . . . . . . . . . . . . . . . . . . . . . . $ & & $ . $ * . . o $ $ . . $ . . $ $ $ $ $ $ . . . $ . o $ $ & . & $ . $ $ $ . . . $ $ & ; ; . * o & $ . N W $ 2 * & $ $ $ $ :.2 & & & 2 & . o 2 . * < . & $ C d $ $ . . . . * ; * * * $ $ * $ d . . & ` & 2 * $ $ $ & $ $ * . $ = $ . . . . . . & - ` - . . o . . = = . . o . . . . . . . . . . . = = . . $ . x z o . = . .   = . . = . . & . & . . ; . . ; d ` & . . . - j . . o o = . = . . . - o o   & . = o . . . . . .   o . . . . - . . o . . - - . .   o o ; l & . . .   z .   .     r i.  & `   -   o N .   u. .  #   -     -   e - . . . . . . . .   . . . . . . o = - . = . o - . . . . . . . . . . . . . . . . . X .             . . . . . . . . . . . . . . . . o . . . o X X X     +     1       .     . X . .   o   . o o e 2   . . .                           -       . . . o . - - . = - . +           . o   X   . .   .   . . .         .       . . . . . o . . . .             .                         X       e z   o .                                                         .                                                                                 X + X                                                                                               ",
". . . . . . . . . . . . $ $ . . . . . . . . . . . $ ; * $ . $ * $ $ $ $ . . . . . . $ $ $ $ $ $ . $ & . o m N . * . & $ $ & . $ & $ . . $ $ & & = h * . . & 2 . $ d * $ $ $ & ; d.< o & $ $ . * - o & d < * $ ; * . $ $ . e N $ . $ . * $ . d $ * $ & & . $ . ` . . & . . ; $ . . . . . . $ $ . o . o .  .. . . . o = . . . . . . . . . o . . . . . . 2 2 $ . $ . E L . . - = . .   o = . . $ . . * . $ . . - . & . . . = - . . . = . .   o -     - &   - & . . . o = o . . . . . .   . . . . $ . . . . = .   o o o     = . . = . & 4.-   . . . X   o .   = . - . o - X F z -   X   # = u x     . . . . . . . .                 e - . =   .     . .   . o .   . o o o . . . . . - - X .   . .   . . . . . . . . . . . . . . . . . .     . .       #   + -   X   .       . .       X     . o j z . . . . .                       e i   .     - = .   = &   . =   O       . .                 o       . . .                 . . o o . . .                       X                             .                                                   .     o i l #                                   X X                                       # w r + X                                                                                             ",
". - $ . - . = . $ $ . . . . . . . & . . = $ . = . . . . . . . $ = . . ; ; .   o $ 2 ; $ $ . . . o $ & $ $ e h . . & & . $ ; ; $ $ g * . . - . . = $ . o $ $ $ $ $ & $ $ & $ & g $ * * & $ $ $ & & * $ $ . d 2 * g * & o . j N & . - $ $ $ & 2 & $ . . = . ; d $ $ & & $ . . & 2 2 . . o o . $ & &   . $ . - & . . . . . . . . . = $ $ = & = . . . . o o o . . . . . . . . . . .   & . . . . . . . .   = . = . . . . . & $ = ; 2 . . . . . $ $ . . .   . o . . . . = . = . & . . - . . = .   . = . . . o . . . . . o o - -   . o o o o o . . . . . . . . . - - .   ].` W 5..   . . . o   1Xm.    . . . . . o o       X         . X . . .       . . . . . . . . . . . . . .     .   . .   . . . .     o o . . . . . . . . = .   . . . . . . .     .     - .   . .   .   1   X . -             .   . . . . . . . .   .     o .   . z i -     . .   . . . . .   . . . . . o .   & &             . .   . .       . . . .               . . . .   . X   . .   .     O                                     X     K ! o                                     >   ,X,X6   X   O     X   X                                       O     X   X     X     w #         O     O       o           X                                                             ",
". & . . $ . . & . $ - - $ . . . . $ . . = . . . . . . . . . $ = $ . . . . . . $ . j h o . 1 2 - . 1 = . . .   - $ h h $ . & & . A >.m $ . & = & . . o . . . . ; $ & $ $ * & * f k g * $ $ $ o . * 2 . * . . d k g $ . & . . $ $ . - & $ ; . . . &.2.. . & k d * ; . . $ ; . & 4.L 2 & & . . 2 N o 3.E . ; = . . . . . . . . . . $ . . . . . . . . . . . . . . . . . . . . . . . . .   . .   . . . o - l - = . u z - . o . . . $ . . . . . $ $ . - &     . . . . . $ . . . . $ l e .   . . . .   o . . .   . .   . o - j u o . . . o . . . . . . = .   = - .   o   -   ` -.    = .   o   #   o X .     .     .   o   . X 1 e   .       . . . . .     . . . . . .   . o .   . . . o - o . . .         o . . . . . . . . . . . . . . . . . . . .     o . . . . o   X . X P w - . -               . . . . . . . . .   .   . o       X X .     . .       . . .       . .   . . . - -             . . .     . o . . o . . .                           .         X @ y # .                                       - e         . .                       # P 3 r D I 5 o X         X   X                                   O     # X       # X                     X -         e - X X X w e -                                                           ",
"= $ . j 6.k . . . & ; ; = . . $ . . . . . . . . . . . . . . . $ $ $ & . . o $ $ . & . . $ $ . - $ . . ; . ; & & $ h h & . $ & $ s d d $ . . $ . & ; $ . $ $ . & $ $ . $ & & $ < k d * $ & & $ o < < . h ; & * . % $ $ $ . . . $ & . * $ . $ ;.x.) -.& * . * f . = . =   & 2 m & . . . ; ; & * *   z L . $ ; . $ . . . . . . . . . . . . . . . . . . . . . . . . . . . . . . . . . .   . . . - . & . o = . = ; 4.L =   . o . . $ . = = $ . $ $ = ~ L ; - o . . . . . . . . . = l & . . . . . . . . . . . . o = .   . o w 2 . .   . . . . . . . o . .   o -     o -     &     -   . . . #     -   &     o .   . .   #   L | - -   . . . . . .   . . . . . . .     = - & . - l e   . o .   . . . . . . . . . . . . o . o o . . o o . . . . . . . .   o     .       .     t X     o     .         . .     . . . . .   . . . o .             . .     o o . . .       . .                         . .                 . . .                     .     .   . -     v.sX- X                             .           .           .                       M c.4 o     X B #                                               X         X X X X     X X   X   +       o ) &.&       w o       - w #                                                           ",
"& ; . h N . * m $ $ . . . $ $ $ $ . $ $ . . . . = = = $ . . $ $ $ ; ; * $ $ $ $ & . ; . . . 2 & $ ; . . o i.`   & . . & & = $ & . . $ & . . $ $ j j & . ; ; . . & $ o $ $ $ $ $ $ $ & & $ $ & & - . . ` E 2 ; * $ * * $ $ $ & $ & ; . ; $ . oX(.. . o $ $ * Z & . = = . ` P e . 4.E ; $ . . $ $ Y |.  . & . $ * . . $ = = . . . . . . . . . . . . . . . $ . . $ . . . . . . . . . . o .   ; z . - o = = & .   - ; .   = & $ o . $ - - = . . . . . .     . . - - o   . . ; . . = . . o .   . = o   . o . . - ; = . .   o .   - 2 . . . . . o = -   - -   . .   . . X o     . . . . ;       .   . .               .     D.S.    X       . . . . o . . . . .       o = .   & t 1     .     . . . . . .     . . . . . .     . .   . . . . . . . . . .     o .   - -   .       . . .               .               . .       o o .   X X .           1 - o .     . .       o #   X                 .   1 t o     .   . .             . .     . . .   . . . . .   5 Y # X                                     .     .         .                               X   o o #                                                 # X 1 {.~.X     X         X X     #     3 A *       -           X                                                             ",
". . . & $ . k C $ $ . . . . $ $ $ . $ $ . . . . = = = = $ $ $ $ $ $ ; ; & $ . $ . . . . =.j . . . & o h & $ < 5.& . . $ & $ . $ % $ $ $ . $ & * - 2 * $ & $ o & * & $ $ $ $ $ $ $ $ & & & $ $ o $ & $ . e x.*.. & $ . $ $ $ . $ $ . h $ & o .   - & $ . l ; $ . $   & = -   & . 2 . . $ $ $ $ . O.W.  o . . ; . . $ & ; - . . . . . . . . . . . $ . $ $ $ $ $ $ . . . . . . . . . . o . . ; z . ; o . . = - . - . . = & $ . . . . = & $ . . . . - ; - ; - . = o = . . . l - . . . . . . . - - . . . = . . o = . . o   . . . u L . . . . . . = - . z u   . o . .   . . & -     o .   o . . - - -     . .   o o     . o         X - - o . . . . . . . . . .         . o . . . .     o . . . .   . o . . . . . . .   &     u 2   . . . . . . . . .     o o   8 ^ 8   o X .   - -           . X X   .                   . o . .                   . - & .                 X X                         2 t #     X   . . .           .       . X .   . . . X # X           .                                 .                                         X #   +                                                             t iXiXT X M /.a.X X X         X         . X     #       #   X                                                             ",
"oX2 o   . * . . ; h j ; o . . $ $ $ $ . $ . . . . . . $ . . $ $ $ $ $ & $ . . & & $ . 2 ^.W . & . & $ & . & & m $ & & $ . . . . & $ . . . $ $ * & & & $ $ & & . & $ $ $ $ $ $ $ & $ . . $ & $ . $ . & . $ x o & & & . . $ ; * $ $ * . . $ = X.t & . . . 8 x & ; & E N   = . . & . . . $ . $ $ $ +   o = . = = . . . $ & o . . . . . . . . . . . . . . . . . $ $ . . . . . . . . . . . = . . - .   . = . . . o   . . & = . . . . . . = . . . . . . = = - =   . o . . . . - = . o . . o . . = = . . . . .   . .   . o . o o   - - . . . . . . . . o 2 - . . .   . o - .     . - . ; . z 1     .     o - o o e e X .   . . o o   . e w - .         . . . .         . . o o o .   .   . . . o .   . = o . . . . .     -   o L l   . . . . . . .     .   . .   . z -           . . . . .   . o = o . .                 X w e o             .         . . . . . . .   . .           .         .                       o . .                           o     w M #   #       .                                   .                                     y s.K   O     #   #                                                 # X           p...  X X   X         5 @   O     e 3._ -       X                                                             ",
"S..   . $ = . - * h j 2 o . $ $ $ $ . . ; ; . . . . . $ $ . $ $ & $ . $ o . o - $ . 2 & . . 2 . & . $ e . . $ . . = & . . $ $ $ . $ $ $ ; * $ * e . . $ & f f $ & o $ $ . $ & $ = . . . . $ $ . $ . . . . =   z - o = . $ h j $ $ . $ ; . $ ! - $ . ; ; . & & . $ $ * = . . & o . . . . . . $ $ o & . . ;     - . . . . .   . = $ . . . . . . . . . . . . $ $ $ . . . . . . . . = = . o . . . . o = .   . -  .E o . . $ . . $ $ . . . . . $ = . . = = - =   . .   o . .   . . . . . - & .   . . . . . . . . = . . o . o .       . . . . . . . . . . . . . . . o .     = . . = . . = z w   o ! `   . o o o - -     -     . . -           . . o = . . . .         o .     . .             . . . . = . . . . .           . - o       . . . . . . . o = . .     . . =         . o = . . . . . o . .                   . 1 e .   . . . . . X .         . . . . . . .   .   . o & h z       . . .     X       X .   X o . . .                           # X                                                                                             r 5 #     #   o M -   X                                               X X           X           X X         O X     t #     X                                               + X               ",
"  .   . o   ; . . . o . . $ & $ $ * . $ j j $ . . . $ $ $ $ $ $ = . . . . . . o ; & . . & $ . $ o - . . . . . . = . . $ $ $ . $ $ d ; = - $ . $ = . & ; & f Z f * & * * . $ * $ . o $ o . . o $ $ & . $ . . ~ 4Xt   . - $ $ & o , o . $ & ; . . . < 2 . * . * $ $ * $ . $ . . . ; - $ . . & & $ . . & & . & .   = . . . . . = e & $ . . . . . . . . . . . . . $ $ $ $ $ $ $ . . = w = . . . = .   . . o . . L . - . . = . . . . . . . . . . . . . = = ; - . o .   & . .   &     . . . o . . .   .   . o . . . . . .   . o o & . . . . . . . . . . . . . . . .   . & - . . . . = $ =   &   2 ` o $ . . o . . o     . o . . .   X . . . . . . . . . . . .         . o o .     . . . .     . . . o . . . . . . .   o     o     - o       . . . . .   z e . . . . . .   .     . . . . . . . . .                     X     .     X   .     .       o . . . .       . . .   .     & -       . . .       .             . . .                                   X   . . X                                                                                 X           O & P -                                                 @               X X         .       X X     X   .   . X                   X X # X                     X # # X             ",
"o . . . . . . . -     - . = ; . & $ . . $ . . $ & $ $ . . $ $ $ . . . . $ & $ o = & $ $ $ . . % & . . & . . ) d . $ = & & . . & . h ; . & $ & . 4.&Xd 2 o x.yX=.a $ * * $ . k $ . . ; $ . o   & = = . . . & - & . & $ . & ; & & $ * * * * $ $ d < < j $ & C ; $ $ . * $ . $ $ . $ & . & . = - - o & o . = & o . . . . & . . . $ $ $ . . . $ . . . . = $ . . . . % . % : . . o   - e . . . . ; . . $ . & . ; . = $ &   o . . ; . . . . . . . . . . .   . - .   . . . . o . . l *.. . . . . . . . . .   = l ;   o   +.!     = . . .   . . . . . . . . . o . .     . o o   = o   . . =     o = - = . . . . . . . . o . . o - - . . . . o .   . .   . o     a.i   X   . . .       . . .   X     o _ X   . # .     . .         X .         ;.:.    + . . .   . - . . . .       . . .   X X     .                     .         . . . . . .     = -                   o   . .   o #                   . . .                           .           . . .       . . . .                             .   +             X                       O                 X X                                                                                                                                       - - $ . . .                                   ",
". . . $ = & & ; . - u o - o 2 e $ $ $ & ; & $ . . . . . . $ $ $ $ $ . $ $ & $ $ . $ . . . $ $ * ; . $ 2 ; $ d & o . . & . $ & . . . . h . . & $ E *.$ & ` H.!.' < g * ; . . * & & . & .   o -   . . . $ $ $ $ . & ; & . = $ . $ $ $ * ; & . $ 2 j & $ . ; k $ . $ . & . = . - $ . . * . . & o . . . . o . ; 2 $ o 2 - . . = $ . $ = $ . . $ . . . . . . . . . . . . ; $ . . . - . - . . . . ; = = . - . ; . . . $ .   -   - . . . . . . . . . . . L E =   = =   . . . o . . - x . . . . . . . .   .   . 2 - . &   b.=.. - .   . . . . . . o - o . . .   - - - . = . $ . . . . - . . - o   . = =     . . . .     o       . . . . .     . . o .   .   . # u.K X   . . . . . o - e   . .   .     - o         . X .   . X X . . . . X X   ! ! . o o .   . . o = . - . .         . . . .     X .   . . .             .           . . . . - - . . .             X . . .         o o     . .           . . .                           .                           . .                       #       o       . X                                 X X     X X                                 X                                                                             X X     X                       . . .     X                                 ",
". . . o $ = & &   j.^.& o . ;.R.$ $ . $ $ $ $ $ . . . $ $ $ $ $ * $ $ $ $ & $ $ . . & ; & $ $ $ $ . * ; 2 $ . . = & . $ . $ $ & . . .   . . - . . . & * 4.2.f < g Q & . % ; . * $ $ . $ ; . . o $ . . $ $ . . o & & $ . . . . & . * ; $ $ 2 d . & $ & $ . . $ ; ; . . . o P - & * d 6.2 . ; $ 2 $ . . $ . ; j $ $ . . . o . . . $ = $ o . o . . . . . . . . . . $ . . . ; .   e . & . . . . ; - z z . = . ;   - . & &     . . - . . . . $ . . . . j z = . = o   . . . . . . . o . . . . . . . . . = . . = .   o 8     .   . - . . . . .   = - .   . . .   z M   -   & o . . = - -   j .   . . . o o & - - & o .   o . = = . = . .     . . .             #   . . . . . . . o - j o   e u.X o . . .   . X - - X       . .               # -       o   o .   .   . . . .       . . .       o       X X .                           . . - - .   . . . . .   . o o o   o   . .     o . . . .         . .                                                                               .       o     . 1                             X X           X       # +                             X X                                                                                                             . .     +                                 ",
". . . . . . . . ; ; o   h.;.e   & $ . . $ $ $ $ $ $ $ $ & & $ $ & & $ $ = & & & = . ; k h $ $ $ . $ 2 . $ $ . . . . & $ & .   & o . . . - . = . . & & . j & . & * $ 2 ; $ $ ; $ $ * . $ ; . . . $ . . * * $ o $ $ o . . . . $ * $ $ . $ * $ . o . & o . . $ ; & . . -   l D.  - $ . k . . j $ . = . . $ . & 2 $ o . & & $ . 2 ` . . . . . . . . . . . . . . . .   o = .   . L ~.$ - . $ . . - & 2 i.& & =   -   . .   1 e 1 !   . . . . . . . . . . . . - & . . . . . . . o .   . . . . . . . . . - = . . . . . . & & . . .     . . . . . . .   i.u   e .       =   = . . . . . . o W w o . . = . . o o o o . . . o   - - . . . . . . . . . . .   . # X     . . . . . . . . o o -   i m.  - - o     X . - - o   . .     o - o             .         .     . =   . . . . . . . .         .       o X .                           .     .     . . . .     . o o . o o       t _       .         .                                         . . . .                                   X         #   W X.2 . .                               X   X P _ .   + .                             X X                 X                                                     X X   X r r X                   O       X                                       ",
". . . . . = $ . . . . = L -   - $ . $ * ; & $ o $ $ $ $ $ $ $ $ $ $ $ $ $ $ $ & = . = h * . & h & 2 * . $ . & . = & . . * . W B = . = i.- . . = ; ; $ . & & 2 2 k & . . . . $ * $ $ & & . x :.= . . & h h * $ $ $ o o $ . . . $ $ j 2 $ * $ . $ $ & $ $ $ $ & $ ; $ oX;.  - o   o . . o $ j * $ . = . . $ $ $ o = $ . . . $ j L . . . . . . . . . . . . . . . .     . . . . . o . $ . . . . = = & z w . e 4.-   = =   z - '.1X  = . . . . . . . . . . . = & . . . . . . . o o . . . . . . . . . . = o . o - = = .   o   .     M - . . o . . . . & o     - - o   .   .   . . . .   . .   . . . .     . . . .         = :.:.o . .   o .   . o . . X X   . = - . . . . . . . .     o o & . . . o   . . .   X . X o . .     o - - . .   .     o   . . X . . . . o   . . . . . . . .   - #           . .           .                 .         . o     . . . . . . .   . e o   j.$Xo     . .                                                         .                               X # !     #       ,     .   +                           X   . ( i.1                                                                                                                   X i i #                                                                   ",
". $ . . $ & & . . = = . . = . . $ $ $ $ & & & & $ $ $ $ $ $ $ . $ . . . . $ $ $ . . & $ . $ ; h * & . . 1 . & . . $ . * $ . H.f.. . $ ` e $ . & & . & ; * 2 * < Q k * k $ ; . ; & $ & $ . x !   $ $ $ * & $ $ & $ . $ $ . . $ . . *.` . . & $ . $ . $ ; * . . * ; . W 2 . . = . . & . & . . $ $ . & $ . & $ . $ - . . j & & . . . . . o . . $ = . . . . . . . . m.z . . . . . . . . . . . . = - -   -   - ].. - . . . -     - . - = . $ . . . . . o . . = = . . . . . . . . . . . . . . . . . . . . . . . = = . .   o o -   - {.w . . . .   . o . . o 2       o   . - = . . . . o o     . . . . . . . . . . o o .     - -   . .   .     = o             . .   . . . . . . . . . . . .   .   . .     .   -   . X . - - .   . .             .     . X     X     . . . .       . . o w w .   . .   .             .             . .   X # X     X     . . . . . .   -     u     -       .                                                           . .                               1 R.P ,     +   1     X                         X           X #     X   + X                     X X           X     t z .                                                               X                                 . o X                               ",
"$ = $ . $ & = . - . . = . . . - & $ . . $ $ & & $ $ $ $ $ $ $ $ . . . . . . . . . & - $ $ $ $ * $ . ; $ - $ $ & * h C k ; z j   . & $ . k & & $ * $ * $ . . $ d g & &.D.$ * ; . = = . . & .   o & $ . . . . $ ; o . o . . = - . $ 2 h & . . . . ; . $ * ; 2 $ * C ; . - o j l & & o . $ & ; d $ . $ & * $ $ $ $ = $ W C.d . . - $ . . $ $ . $ - $ $ $ . . . . o 1X|     = = . . $ . . . . = = - . - & . - o & . . & & - p.-   - - = $ = $ . . . .     . & . . . . . . . . . . . . . . . . . . . . . . . . . .   & . . &   o L e - . . . . . . .   . .   & .   - X   K  .o . . o   o ! ;.- .   = . . . . . . . .   o .     o =   . .   . -     - X   o - o   # M   . o . . . . . o   o z .   . o     o X K o     - e e - . . o . X .     . . .     -     X   . - . .         . . X - - .   .                         .       . o # X o o                 . X .     -     - o         . .                                         .         . . .                                 +     ` p.  1                                             X         X                           X X X       X       . z m #                                                         X       X                               - h #                               ",
"$ $ $ $ & ; ; $ = - . . . $ $ $ . . . $ & & & $ $ $ $ $ $ $ $ $ . . . . . . . . . . . $ & $ . * . & ~ ; . $ . * $ $ k . Q OXo o $ . $ $ ; $ : . . * $ . * . ; * g < * * * d $ *   . - = o - j g.. & & & $ $ & $ $ o $ . . = ; . & . . = . - 2 . . & E 2 . $ $ k * . $ = o e ; . - = & . $ . * . $ . ; d $ $ * . . . k 6.. o . . = $ . $ . . . - . $ $ . .   . X   - u & . . $ 2 - . . . . . . . = . . - w . . = . &   L h.. . . . . . & = . . . . o . . . . . . . . . . . . . . . . . . . . . . .   . . . . . . . -   o . # M   . . . = = & o   . . & - gX;.  L X   +.T.-   . . -   L ;.  o . . . . . . . . . . .   . . o o   .   . . = -   o  .R X       # X.B.  o - - .     . . . o   . . .   .   X . L o       . .   . o o     X         .   # X.L   . . .   . .     . . . .   .           . . . . .             . .     X # i .                         .   .   - -       .   . . .       .                                         . o # -                                         o   X                                   X     O           O X         X                   X X                   . X                                                               X # X                             - N - X                             ",
". $ . . e z -   . 2 . . . . & . . $ $ $ $ . . . $ o . . $ $ $ . = . & . & . h x % ; ~ ! .   . . . ; h 2 $ . . . ` d.. = . . & $ $ . . o $ = = $ s * $ & . o 1 E C * & $ o $ . - '.T.o 2 $ . L W . $ ; . %.j & & . ; . . $ . ; . . & 2 & o 2 f o . & j * * k 2 $ o . - h g *Xm   . & . . . ; * $ o ; 1 & . $ $ $ . o & $ . . . .   + . $ $ . = . . . . . . . . . & z x ; . . $ = = . o . . . . . . . . . -   o . o   . .   . - o   2 . o - . o . . . o . . . . . . . . . . . . . . . . . . . . . . . . . . . . . . . . . . o - . . =   o L z o . .   = 8 i.-   X   K x & . . . .   #     . o . - 2 o     o .     . . .   . . .   . .   . - o   L 1 X . . o .       . . . . . . . .    .L   .                     . . . .     . . .     .         . W 1 o     .             . . . . .       .     . . . . . .       .     . # X         .       . .   o   . p.n.    1 l e o     .       o   .                 . .                 . .       . X o                         #     X       X     O                                                     1 ! o           X   X   X X                                                                                           #                                                                       ",
"$ & $ . . . . o o   o - . . . & . . $ . $ $ $ . $ . . . $ & & $ $ . - - N 2 j 2 * . j &   o $ . $ $ $ $ . $ & - c.` & . = . . . . ; ; = . $ & $ $ $ . .   . $ f f . $ 2 1 & $ x iXi.. ; $ $ h . . . & . & $ $ & $ . . & - . . . . & h & . . - $ o   $ . . * $ . . . = h < <.& . . $ . = . $ $ % & & & $ $ $ . . $ & & = $ o . . w |.= . & ; . o . . . . . . . . . = = . . . . . - . . .   . . . o o . . .   . . . . = = . o - . o e . . o   o . . o = . . . .   . . . . . . . . . . . . . . . . . . . . . . . . . . . . . . - .   . . . o o . . . .     w o   . X X = . = . . o   P P o   . o ; w & . . o .   . =   & e     o . o   o o     o   X     . . .       . . . . . . .     L u   .                     . . . .     . .                   z o .     .     . o X                   . . . . . . . .       .     .               .   . . . o . .     e t     . o .       .       .                     . .                 X .                                 # .     X           X     #                                                 X   - - . .   X   O                                                             .             .                                                                                                 ",
". . . . . . - E ~ . ; . = E = . $ $ . $ $ $ $ . $ . . $ $ & & & $ . . . e $ $ . & o j   1 ; . ; $ . . . o 2 N ~ `   . . = . & . . ; - . . . $ s &.s o o G L . & $ . 2 d & & $ .     ; & . $ $ . ~ = o ; . * & . = . = . . - $ $ . $ = = $ ; ; $ o . 2 d - $ . $ . . = 2 & & o . * & . o $ & . & . . . $ $ . . $ o $ = $ o o . . t.3Xe ; & & . . . . . . . . . . . . . . . $ $ . . = z u o . . . . . . . $ - . . . . . . . . = . . ; . . .   . . . . . . = - - o . . = . . . $ . . . . . . . . . . . . . . . . . o . . .   . . . . . . .   . o     -       X     o   .   . . . .   P P o   . . . = . . . .   . . o &     o o   . . o S.W   o           . . . . .   . . . . . . .     - X   .           .         . . . .     . .   . .     . X . w P w - o X .     o - - X     .           .   . . . . . . . . . .   . X   . o .           . . . . .     .                             . .     X                                 . . .                                 X   #     O   #     #                     .                               X         # X y y             7               X X X                                                               X       X .                                                                   ",
"= . . $ & $ ; L e = - . ! x.l & & $ $ $ $ $ $ $ $ o . . $ & & & & $ & o & . . $   S.E.  o - . % $ . $ . o 2 ~ f.4.& e o $ . = ; & $ . . & . $ V &.. e + :X^.. f * * d & . & * . & ; % . & - . & ;.; ; x . = $ o . . . . . o . . & . . & j k 2 . . $ h j & . . $ o o = $ $ . & . $ = - - . $ . ; E h & & & $ . . . $ $ $ . o $ o . . . . . . & o . . . . . . . . . . . . . . . = . = x z & . . $ = = ; $ . . . = . . . . . . . .   o . . . . o . e - . . . & o . . = - o . = = = . . . . . . . . . . . . . . . . . . . . . . . . . . . . . o &     . . -   o   X     o . . . . .   - o   . .   . .     . . . . .   . - . .   - o - W :.e . . . .   . . . . .     . . . . . . . .   .     . . .       .           . . . .       .   . .     . o .   o               o - - .     . X X . . .       . . . .             .   . t z .           .       .     X .   .         . X         .   o                                                                                 X X M.kXY   X       .                                 X X X             # .       o.cXeXy                           X w - X                                   X                               X                                                                       ",
"= = . . $ $ $ ; . = = . - 2   . $ $ $ & $ $ $ & & $ . . . o o . . $ 2 ; ; . = = . M.m.  . o - . . $ $ $ . $ h W - . . . . . $ ; . = . . * * $ $ * < L |.e . * f . . $ & $ $ * $ $ $ $ & & . . $ ; . - - o . . . . . . N N . . $ $ $ & ; 1 * $ . & $ . . . . & . = . $ . . ; - $ $ . . . o h & . 4.m o . $ & . . . & & & $ $ & & o . ; . $ = . . . . . . . . . . . . $ $ . . . $ = . . .   . . . . . . $ = - = . . = . . . . . . . . . . . . & . ; & . . = - = .   o = . . . o . . . . . . o o . . . . . . . . .   . . . . . . o   o = . . . . o o     =   . . =   X   X .     =   .   . o     - o . . . . .     . &     . o   o . j     . .   . . . . . . . . . . . . . . . . . . -     o . . .           . o o . . .       . .   . . . . . . .   .     o . X X     .           X X . . .         .             .   .     2 e     . .     .     . . .     o o         . .         .       o .                                         . . . . .                   .           z.aXD   X     . .                                 # # +             X   . r     Y.P.    X     #                 X w - .                           O             O                     X X                                                                         ",
". . . . $ $ $ & & $ $ . . & & & $ . . $ $ $ $ * & & . . . . . . . . $ $ $ . . . & & - - ; . k $ . . $ . . . . o m N & & & $ . . & . . 2 $ . #.=Xk . $ = = ; . . * d * & $ $ $ . % s . . . . = . . & l . & = $ . . & . N N $ ; & . $ $ $ $ . . $ $ $ $ $ . = 2 & = . & & . - . * &   = - & m * . ; . . . $ $ o & $ & * & $ $ $ & e h - . . . . . . . . . . . . . $ . . . . . . . $   .     o . . o $ . . ;       . o . . . . . . . . . . . . & $       . - e ; = . . o . . . . . . . . . o $ & - . . . . . . . . . o . . . . . . . & .   . .   . . . . . . . .   K R         .   . o . . . . . & o . . . . . .   .   W E.& & &         - . o   . . . .     . . . . . . . . . .   . o . . . . . . . . . . . o - - . . .       . . . . . . o . . . o . .   .                 . . .                     . .         .   . X     .     o o .         .   . .     X                 .       .   . .                                       .   . .                     .     X   X         #     o                                     X X               #       #         5 X                       X         X .                           . o                       . . .     - e                                                                   ",
"; ; $ . $ $ . $ & $ $ $ & -     ; $ . $ $ $ * < * & $ . . . . . & & $ . . . . o . $ x x $ $ x * . $ & $ . $ $ & ~ N $ . . $ . - . & = . . d V V . $ j $ . $ $ & Z %.f . . $ ; $ $ $ . ; . - - - . j ~ $ $ . $ ; . = . . . . & $ $ $ . . $ $ $ & . $ & ; o . - & = . < & . . . & . . { {   $ & * . . - ; & . . & $ $ $ $ $ * * * z ; . ; . . $ . . . . . . . $ = = . . . . = . . . . - & . . . . . l h $ z o u.W.  o . . . .   . . . . . . . = . . . . . = = .   . o . . . . . . . . . . $ o * j o . . . . . . . . = . . . . . - 2 .   . . . .   . . . . . = .   R T # D w.  o   . . .   . . . . . . . .   . . . - . . P   .   . # #   o .   8   . . .     . . . . .   . . . .   .   . . . . . . . . . . . . o & . . .   . . . . . . . = = . . .     .   X . o . . . .   . . X .                   . . .               .       . . o - .         .   . X       X .           . o     o j   .     . .                             . .                                 # X     # X O #     X     O                                                       X     O @   +       #   O                                                     X e t -                   X         . z L -                                                                 ",
"x ; . . - ; $ $ $ . . $ h & - x.z - . $ & * * < & & $ . $ = = = . o $ $ . . = - & $ & . $ & . & $ ; ; & . = h k o . $ & & $ . . = . . : & $ $ % ; * d * % * ; : & g $ $ ; $ . : a $ ; e   x.A.. & $ & . $ . . - = . $ . . $ $ 2 $ * $ $ * $ . $ * * $ * $ . - & & * g & & . $ . & .  .;.. o $ $ & . . . . $ $ . $ $ . $ * d d ; . . $ . ; 2 . . . . . . $ = ; ; . $ = . . . . . = . .     . . .   2 . . N   ..v.  o . . o o   . . . = = . = = . o o .   . . . . o . . . . . . . . . . & & o 2 Z o . . . . . . .   . . . - - w L -   o w     o . . = . .   . . o X     P.qX    -       o . . . ; & - - o .   . .   . .   . o .       7   . .   . . . .     . . . . .     . . .   .   . . . o . . . . . .         . . .   . . . . .   . - - . . . +   o       .     . .                             . .             .       X     . - - o         . .     .       .     . .         . , =.& &   . . .                                                               .     #                   O                   X             .                         o             -                                                               o & .                 # w X - z t     o .                                                                 ",
". . . . $ $ $ $ . - = = o o 2 z & = . . . $ = $ o . . $ . $ $ . - $ . o $ . . $ . o . = . . & & o = . . $ = . . $ * d s $ $ $ = . d z . * & . : d * * $ . $ ; $ * $ 2 $ - $ . $ $ . *.) . k ; = $ & . $ $ $ $ . . . o = . . & 2 $ * $ % $ . * & $ $ ; d & $ 2 ; & $ $ . . & - $ . = . . . . & o . . ` h . . - - $ . ; .   . . o . & o . o o   . & . o = . . ; x . =   o . = . . . . . . . . . . . . .   . .     . . .     . . . . . . = = $ . . = = . o . X ! p.  o   o . . . $ &     o . o 1 < o o & . - l   . . . . .   . L i.  o . i       . o   & .   = . . = . . X X   O   a.0X  - . .       &   o . .   = . . = o     X #   .   . W e . . .     . . . . .   . . . o .   . .   . . . . .   . . . . . . . . . .   . .   . . . . .     .       .   .   o       .       P -   .         X .   .   .       .   X   X       o   o & .     . X             .       # y.Y.  X . .   X   X X   .     .           2 4   &         & .   o - -         . .                                                           1 X             +     X                                                                                                                       X X # 1 #       X X                                                               ",
". . . $ $ $ & $ $ . & .   .   - $ $ . . $ = $ $ o ; . $ * $ . - . . = $ o o - l m $ . . 8 . . . -   . . . $ . $ $ $ % $ $ $ $ . 8.bXXX. . * . : $ ; . * $ . . ; . * $ & . $ - $ ; . & 2 o & . . $ $ ; . . $ $ $ o . . . = ; ; * $ % $ % $ $ 2 * . $ $ $ 2 . N $ . . $ $ $ 1 ; . . . = & = &     o o j d $ . . . $ . . & & - =   = & .   . o . & o . . o . . $ & & = . -   - ; . . $ . . $ . . . . . . o o o o o $ =   X .   = $ . . . . . . . . . .   o .   i P     - o   . . =   - o . - .   & - . . . z ! - o = . . o . . . = o -   . . . w     . .   - h.w & . .   # #   w b.h.~.    . .   . . & . o   . . . . . .     - K  .  . o . u o   = . . . . . . . . . . . . . . . & . . . . .   . . .     . . . . . .     . .   . . . . .             # o   X     -   o . o X L 1 o   -     o     . . . X   X           .           . $ & .     . . .                   i }   X       .   . .   .   .     o -   o W *X&     + + o .     . o o                 .                                                     X X                       X   X                                                                                                                     X           X                                       X                       ",
". . . $ = $ $ $ $ . $ . 2 N . . . . . . . . $ $ . ; $ . $ . & $ . . = $ . . = 2 ,   - . $ . %.rX:.- - = $ & . . . $ ; * $ $ $ . ) 4.. - & & $ $ . 2 * . * g.$ $ * * Q . $ $ . . $ & . * h . . = $ $ $ . $ $ & & . . . . & ; * . $ $ $ % $ $ ; & & & $ ; ; * . 2 2 . $ h h & $ & $ j ; . o   G T & - & d ; ; 2 $ & - . & o   = - . . . = =     . . o = = . . . . $ . o - w e . & . . . . . . . . .   . .   o - . . . . i.i.  . . . . . . . . . . $ - = & .       . - o . - .   = o &     o . ~ &X. . . . - e . . . .   . . . . . .   - -   K ~.. = . . . o L       w .   r   L wX-     - =     o     . 2 o . . .   . . . .   . X         . . . o   . . . . . . . . . . . . . o o . . . . . . & -             . . .     . . .   . . . .           X     X o             .   -       # X     . X     o o         o . .     X .   o o o & o .     .                 X     O   #   .   .   .     .   # o . . .     , g < j         .                                             . .                                                 # X   O                                                                                                                                                                                                         ",
". . . o $ $ $ $ * . $ & N W ; $ . . . . . . $ & . . $ = . e *.2 $ $ $ $ $ . . . - 4.h $ % s 4XhX{ . . . $ * $ $ . $ $ $ $ $ $ & . $ & - . $ * $ - . $ * *.OXd $ * $ Q . & $ . & . ; $ & j . & $ . & . ; $ . $ $ . $ $ . . $ * * * . $ & . $ & o & . & . . o j j x $ $ h 2 . . & $ h . - = 7 xX7X. 2 & * $ : ; $ j * o . & . .   ; & . .   . L f.. - ; = . . . = . &       . - & d d - . . . . & $ - .   - h.i.  . o   - -   . . . . . . . . . . . $ = . . . o . . ~ E . . i u.+     z  .-   - ~   o - .   .   = . = o .   . . .   -     7   o   . . . o & M ;.. .     . e     + X # -   - - . . o . . o     . . . . . . .       o o . . . . .       .     . . . .   = - . . .   . . . . . o & ;                       . . .   . . . .           .   e ;.    .     .   X   .     #     -   .   X o     X   X     f.` .     X   w e =     .             .   .   . .       X     .   .         .     . . . . .       . &   # X     X o X       .                           . . o o                                                                                                                                                                                                                                               X                 ",
"$ $ $ $ o . . . ; ; & $ $ $ o $ . $ = . . $ * * & . $ $ . 2 ~ - & = o $ = = $ . o E h $ $ $ % . . . . : $ . 2 $ = . $ d E h $ . & $ . . ; & . $ . & $ $ . . . $ * C * C $ . * * ; . . . - . & . . & e - & . . . & . . $ . . ; C 2 $ $ & $ $ & & . & & 2 & h D.; $ $ $ . . $ & . . . h . . 7 [ O   & 2 * . $ . & . & h & . ; . = . . . = . . ; L . & & . $ = . o -   =.2 . m.h.z m m h = . . . $ ; . . - . . o . . o &     = .   $ . . . . . . .   . = .   . o . $ . . -   t.2X  = . z P o 2 m   . . o . . o . =   o - . . . .   .   . - w o . - $ . . o     P   . o   . o   o | e     o     . .     .   o o .   . .     . . o -     o - . . .   o o o .   . o . . . - w o . . . . .       . . .                       . . . . . . .             .   1 ;.  . .         X   .   .   #     &   .   . . i +.    . = 5.( .     o   - 1 .     .           . . . . . X     . X                   X .   o     - -     . -   X +     2 < . o o     . .   .             . .         . o o                         X # X                     X #       X                                                                                                                                                                               - u X               ",
"= = $ o . . . o $ ; . . . . . o . = = . . & * * & $ $   & . . . o $ $ . . . $ $ = & . $ : $ $ d . - $ h * . d . . $ $ k Q h . . . $ $ * . & ; * x . . ; ; $ ; . d Q * C & . & & - . . & $ . $ $ o o k.. - & . o & . . ; ; $ $ 2 & . $ $ $ o $ h $ & . ; ; 2 x . . . . . . $ = . $ . . ; . = -   h o $ * & & . . o o . = = :.= 2 N - . $ . . . . . & . . & & .   . . !.P   L - . & ; & . . . . . . . . . . - -   &   . . . .   = . . . . . . . . = & ; o . .     ; & $   o     o . . o .   , e   .   . . . . .     . . . . = o . .   = .   w .   . . o - - .   z o -   ~ h &    .r     w . o -   o     o 1 .     . . . . . .     - .   .   . o . - 2 - .         . . = - . . o = . .     . . .       . . . .           . . . . . . .             o     . - o                       o   m.pXl       o P a.    - x   .     o .   .       . .     .   . X . .     . o     .     o       X     X     - . X o           . #   . , 4 .   . X     . .             X     . .                                     # 1 #     .             X       #                                                                                                                                                                                   # e X               ",
"$ $ $ . . . o = . . . . - - . . . = . . = d d $ . = z   - $ . ; . . . . . $ . . . . d . $ h $ . $ & . $ $ $ ; $ . $ . . $ . . ; . $ * $ $ $ * A D.$ . . $ . . 2 $ $ * . $ & $ & . . . = . $ $ $ o o *.. - & . = o . o e 2 $ . $ $ . $ . = . o N *.& h . h . . ; ; . . & & . . $ . & $ $ & $ . e ! & . & o   w w . - . = . E $ x x = . . . . = . & * $ . & & . & . =     &   -   . & = . . $ $ $ $ . $ = . . . . . . - . . - . . . . . . . . . . . . - . . = . = - . = .   .     . . . . o o o & . . . = .   . . & o .   . . . . -     - o o   = . . o   o w     o   w x.& . o i   ~.D.X       i ;.o         w . o . .     . o o _ z   .   o     - , - .   . .   . . .   . . . = . .   . . . o o . . . . . . . .       . . . . . . . .             - &   o     & o - . . .   X     o   _ $Xe     .     w   o & & . . .       . o       .       .   . X .       . - -   . .   X     . - X   .               X #     e -   -     o             . .   X #           . .                                     X # X     . .             X X   X     X                                                                                                                                                                               X                 ",
"$ $ $ . . . = - & . =   . -   o = - $ . ; C j . = e 4.-   = % . . . . & h h ; . . ; ; . ; $ x - o $ $ $ $ $ . . . ; $ . * & . . & $ C.* . . $ % $ . $ = $ = - & $ d . $ . & - . j P . . . h d $ . .   $ $ . . . & $ o = $ $ ; k $ $ & . & o o ~ W . ` ` . . -   & $ $ . . $ & $ & . & . % . * $ = . . & .   n.Q.. = = . $ .   o = . . o . . .   * d * . o . o l z   -   . o . o $ ; = . . . . . . $ . . . . . . . . . . . . $ $ . . . . . . . . o   . . . . . = . o   - o o o . . . . .   o &   . .   . . . o . . . . . . . . . . . . .     o . .   - o =   - =   X   . j &   . X T P   X X #   M   o .   ! h.. . . . . .       . .   o . .   .   o & .   . . . . o     o .   o . . . .       . . . o o . . . . .     . . . . . . . .             - o .   o       o     .   o     o           +   O X               X   .   .   X         X .                 . - j . . .         # l -       X X     X             .   .   =                     w z 1                 . . . .                   X                             X l.z.X     X                                                                                                                                                                                                   ",
"$ . . . . . $ ; . o . o e ~ . - . . - . 6.!.; $ $ ; $ $ $ . $ . . . $ & d h * $ o - - . $ . * * $ $ . $ % $ $ $ & $ $ $ $ & & * $ ; ; $ . $ $ . o -.$ * & $ $ $ &   o & $ * ; d z & . - $ & $ $ & . . ; h & . $ . ; & ; & . * d . $ = - & & ; *   '.n.e ; . $ g & $ o   . h h   $ & $ . $ - . $ & $ * $ $ . - o $ . o ; 2 & & ; ; - o . . . . . . - - . ; $ & H.T . o -   . $ . . . . . . . . . . . = = . . . . . . . . . . . . . . . . . . . . . . . . . . . . . . . . . . . . . o . .     . o . . . . .   . . . = . * 2 = w X . . = . & Q . .   =     o o       X   . j   o     o     . .   . . . o . = .   o o     o .   . . e u     .   #     o . .   o   . o o .       . . . .     . .     .   ; = . . .   . .     .           .       X         . . .               . .   . . .       . .   .       . . .                                                 . . .   .                                                       O O           o   < ) b .     .                                                       X X   # R   N p.& . ' 8.&                                             X                                                                 X                                                                                 ",
"o . . . . . $ ; H.D.. o .   2 $ & . . h ; . $ $ ; * . . h & $ $ $ $ & * $ . $ . . - $ & * $ $ . . $ $ $ $ . $ & $ $ $ $ $ $ $ $ . $ & $ . . . . ; h & . . * * $ e = & . . $ * ; - . . = $ $ & & . . $ $ $ . $ ; ; . $ k $ . . . . $   . * & . $ o i.T o o $ A Z.1 & & & $ 2 e $ . . l h $ & ; $ . & $ $ ; - . o & . . $ & $ $ * - = . . . . . . . . . . . & . . T  .= . - . . . $ $ $ . . . . . . . o . . - - .   o o . . . . . . . . . . . . . . . . . . . . . . . . . . . . . .       - . o   . . . .       .   o . ; ; = w - . .   . j ) . - . . . &   . o . X   1 . o o o o - 7 o   . .   .   w   o   . -     # .   . = . . e -     -     w 2   .   - o u & . . . . . . o . . o o .     . = o   = . . . . . .             - o     . .               . .               . .   . . .                   X X .                                                   . . .           . . X X .                                 . X X     # X             o     o                                                     X           v u.z         , ( &                                                                                                                                                                                 X               ",
". . . . . . & * d.k 2 . = ; . . = . & . . ; . $ . $ $ d 6.h . . $ $ $ * $ . ; $ ~ E . . . % $ $ & $ . . & - & . . . $ $ $ $ $ . $ $ & & & & $ $ . & . * 2 & $ . :.l = & ; = . $ . . . $ $ . $ $ . $ $ $ $ $ * h x $ $ $ . h 2 . :.j . & $ d f < & o     & $ $ g d - & - o . o o & & * . . $ . & $ & . $ . & . $ & . . . $ . $ & $ . . . . . . . . . ; = . $ = . u  .=   - . . $ = = $ . . . . . . . . . . ; e o   #     - . . . . . . . . . . . . . . . . . . . . . . . . . . . o   o . l & - . . . . . . . . . = - . - =   .   = o     $ ` h . .   . . 2     - #         - .   - - .   . .   . -   - .     o o o   X X   . .     . .   X   - m.4.- - . .   -   . . . .   . .         . . . . . o     . o .   . .     o .   X e L o     .                             .   . . . .   .               X                                                                                                                     . X X     o         . 6         + +                                                         X       X 7     #   X X                                   X       1 t #                                                             # i #                                                                                 ",
". . . . . $ $ $ . $ k k $ . . ; . . $ . $ $ . ; $ $ * h %.; $ * $ s $ & $ . 2 1 C.6.f $ . $ $ $ . . ; & $ & $ $ . . . $ $ $ . . $ $ $ $ $ $ . $ $ ; . ; z . . $ .   . . . & $ & = $ $ . $ . $ . $ $ . $ $ $ . & . . & * d ; . & x m * d k m $ * ; $ & = & . . * - $ o & o   . . . $ . . ; ; . $ * . $ & . . & $ $ . . . o . . = . . . . . . . . $ - . . . . . . . o =     = $ . . . . . . . . . . . . . . - - .   | L -     = = . . . . . . . . . . . . . . . . . . . . . . . . .   o . 2   .   . . . . . . = - . .   . .   . .   . . = . & $ - =   w     - o     P i.- . . o o         . . . . .     -   .   .   .   .     - . o - o   X X   - u     .   . - . . . . .   . . . - o .   . . .     .     o .   . .     X     X w L o           o                     . .     . . . . .                       X .                                                 . . .           X X X                                             o   . . .     O   X .                                                                             5     @   X           . . o                 X     X i M w                                                             w T K                                                                       X         ",
". . . . . . $ $ * * $ * d $ k . & . & 2 $ . $ 2 ; $ . & $ . & * * k $ . $ . . - $ $ . . $ $ * $ * $ & . . * ; ; * $ $ $ $ $ $ $ * $ . $ $ . . $ & . $ $ . o . o = . = & & & . $ . . . . . & & $ * $ $ * d * . . ; * $ . & . . = . . * < . & * * . $ & . j Q g g . . . $ & & $ $ h . & * . * ; $ & . $ $ ; $ $ $ . . . = = . . . . . . . . . . . . . . = - . . . .   = =   . = . . . . . . . . . .   . . . . . . X 5XM.  o -   . . . . . . . . . . . . . . . . . . . . . . . . o .     . .     . . . . . . . = - . . . . . . . . o   . & . . . . . -       o   - . E.$X  . .   . .     . . . . . . l  .. o .   .   i.t   -   .   . .   . . . -   . . . = . . .   . . . .   o - o     . . .     . . - .   . .   .             . .       X .   X .               .     . .     . . . . .           X       X o                                                     . . .                 X X X                                     X .   o .             .                                                             X       X # X   X       #             . o o                     X X X X X                                                         X     w X                                                                 @               ",
". . . . . $ . . . . h $ $ * * ; . $ . $ h - . o 2 $ . ; . . * . * * . . 2 ; . $ $ * * $ ; . $ $ $ . h ; . . . . h d & $ . $ $ * ; $ $ $ $ . . $ $ e & . . & & . . - e $ o & . $ .   . ; . = $ $ = $ * j k & . & * $ j Z & o . . & & * $ d < . $ $ ; ; $ ` g.Z * . $ $ . & - $ . N ; $ . $ ; $ $ $ = . . x ; $ % . . $ & & . . . . $ $ $ $ . $ $ . . - ; o $ & . . -   = -   o . . . . . . . . . .   . = . . . . .     o .   - l . . . . . . . . . . . . . . . . . . . . . . . o o o   . . o . . . . . . . . . . = o . . . . . .   . . . Q j o o .   w X -   - # - X.    w   . a.- o . .     . . . R.vX.     o . # u.t   -       - - . -     - o   . & . o . . = . . . . . . o . o .   . + .   . o 2 o       X .   .       .         X .     X       . .     . .       .   . . . . . .             X           .                                                 . . .           $ .         X o                                     #           O     X X   X                                                                   X     X . o c.1               .                                                                                       X                             X X                                       .                 ",
". . . . . $ $ . ; $ $ $ $ $ % & & ` . ~ :.  = e h & . $ $ . ; $ & . $ = 2 k & $ & : $ . $ . & * . 2 j.j.E 2 . $ d : $ . . $ $ % $ . . . . . . . L h.= . & . ; $ . &.6.& . - - . = . ; ! . . . . . . $ & & . . & $ . d ` o W 8 +.:.= $ . * * $ $ $ ; & . & 2 $ . . & $ . & $ . . . . . $ x k . $ = = - 2 2 $ $ % . . = = $ . . . . $ $ $ $ $ $ & 2 o . . ; j . .   ;   . ;   . . . . . . . . . . . . . . . . . . . . - -   o j j . . . . . . . . . . . . . . . . . . . . . . . . . . o   .   .   . . . .     . .     .   . = & &   - . x MXtX  + K  .  X     cXn.  f.h.z     - ! - . . .     . .   ; -   - . . .             . X =     = o . .   o   . & o . . . . . . .   . o . 2.N o     . . . o - . o     o   . .       . .   o . .       .     . X X .   . .           . . . . . .             # .   #     -                                                 . . .           A k &       . .                                 @ H     . .       X         X                                                   X         O X X           e H.X.                                                                                                            X X                   X # # X                                 . . X     X           ",
". . . . . $ $ . . . . & & . . = $ & & $ . o o . . . $ . 8 . $ & o   W N . $ . $ . : . & $ * $ $ * . h h & ; . . $ . . . $ $ $ $ . $ $ $ $ $ $ & & e   $ . ; $ $ $ $ $ . 2 2 . . o & x i.$ $ . & $ & . . $ $ = ; . 2 $ . j vXm.R U   - & Z 2 $ ; - $ . o o . o o . & $ $ $ $ $ * & $ j k ; * $ $ = . W 4.. . 2 . . . . . . . . $ . $ $ $ $ $ & & . & = . E W $ W . . . . = &   . . . . . . . . . o . . .   . = . & & . . = o   o . . . . . . . . . . . . . . . . . . . . . . . . . - z o o   o .   . . . .   . . . . # .   . . $ o   - $ &Xd.    K |       - ..#   _ mX+.# .     o     o . . . . . o   .   o   . X   #   . -     . . .     o   = o   . *.k W - . .   . .   & w 2 4 & . . + .           - o   o           .     X           . .     . X X       .         . . . . . . .             X   # ! R                                                     .               g * .     X                                     >XzX6     .   .         O O 5                                                       X X             o     . . o                                       X                                                                                           X # #                               X . X X X           # R o.",
". . ; . $ * $ d ; $ . . . $ $ & . $ . . . . $ . . . = = $ * d $ & . N 1 . & . . $ $ $ $ $ $ $ $ & $ . $ $ $ $ $ $ $ $ & $ $ $ . . o o o o & $ $ . % ; $ $ ; $ $ $ & & $ $ $ $ $ d & X   . $ $ & ; . & & . $ $ $ * . & $ j x . . .   o - . . - & * & $ $ $ $ . = = ; $ . $ . d d $ . 2 ; . . $ . $ & - o o & & = $ . o o   = . $ . $ . . $ . . . . $ . $ & & - . . . $ $ . . . . ; = . . . = . . . . . $ . . $ . . . . . . . . . . . . . . . . . . = . . . = o . o   o   . .   =   w E . . o . . . . . . . .       . o . . ; $ . . - . - . . L       o .   X       Y wXI     }.7X  -   . .   . .   X #   - .   o     . . . . . . . . . . . . . .   . - o - e . . . . . . o , 2 2 - - - .   . .   . . .   . .     T P   .                     . .     .   . . . .         . . . .   . .     z _     Y q   M 1 X         w i -         . . . .             . . . . .             .   . o X .     . . .                             ] y.5   .   X   1 +.#   X   X                                                                               +         X   X                                                                                                                               X                         .     X e K O         O H p.",
"; & & $ . $ $ ; & $ . . $ $ $ $ . . . & 2 1 & $ & . . . . $ * $ . h . . 2 j . ; $ & $ $ $ $ $ $ $ $ $ $ $ $ $ $ $ $ $ $ $ $ $ $ . $ - & . . $ % * k ; * %.*.; d . . $ $ $ $ $ $ & o   M . . $ * $ . $ d $ . * $ $ * j ; . = . =   ` E   2 ; . & * $ $ $ . . . . . . $ . & $ $ $ * . * ; . . o . . . . - . . . $ $ o  .& ; ; . $ . $ . $ $ . & & . . . & & . . . . . . . . . . . *.E ; . . . . $ ; . . . . . . . . . . $ = & = . . . . . . . . . . . . & . . . . . & . . . . o   -   = . .       . . . . . .       o   . - .   o     . . . L e .   z j   i.W.r o.P   O    .e X.n.    .     o   o   '.T.    . o     . . . = ; ; & . . . . . . . . -   .   . .   o   . . . . o o . . . .   . . . . . . .   . .     +...X .     X . . .             . .     . . . .         . . . .   . . X . t R X   fX}.        #       # - X                               . . . . . .         .   . . .         .         . X o                   q     +       # G.X.  X                                                                               X     X K w       X   X                                                                                                                   X X   X X                                 X X   X     O     o ",
"& . . $ * $ . . $ . . $ $ $ $ $ ; . . . $ & $ $ 2 . . $ $ $ & $ $ . & *.W . . & . $ $ $ $ $ $ $ . . $ & $ $ $ ; $ $ $ $ $ $ & $ $ $ $ $ o $ $ $ . ; $ $ C C $ * . . $ $ $ $ $ $ e i.K     . ; $ . Z ; . % $ $ * * & &   o o . - . (.H.    . . & $ $ $ $ $ . . . = . - & ; . . N f $ & & $ . . . & $ . = . & . = . . N - . . . $ $ $ . & ; $ . . . . & N N & . . . . . . . . . . ; & $ . . . . . ; . . . . . . . . . . . & - $ . . . . . . . . . . =   o . e - . .     u W . - o o   . .   o e   . . . . .       . . . . = - o   + K o o .     - o   o o l e - qXwX5 @     o     # X       2 W   X ..K o #   . . . . . . & h h * . . . . . . .   .   . .   . . .   . . . . .             . . . . . . .   . .       #   X o .     # o X .       .         . .               . . .             #     O 5 @   X o                 X                             . .     .         .                           . o o                   @     X         # X X .     X                                                                               X w X   #                                                                                                                         X       r M #                                           O O   . ",
". $ $ d ; . $ $ $ . $ $ $ $ $ $ W h $ . $ $ * d ; $ $ & ; * & $ $ ; Z ^.2 & d $ $ $ . $ $ $ $ $ . . . $ . $ * k * & $ $ $ $ & $ * $ $ $ & * $ $ $ $ * $ . $ $ $ $ & & $ $ $ $ $ i.vXF   ; ; & o & ` f . $ $ $ * $ $ o - E.U . . $ 2 $   o ; = . . $ $ $ $ $ $ $ . . . . $ & $ h j & * & o = . . . - - . . . = . = . . . $ . ; . $ $ . & ; & ; & = . . 2 2 . . = . $ = $ . . . . . . . . . . . . . . . . . . = = . . . . $ $ . . . . . . . . . . .   . .   ~.].    o . e z   -     o = . . 8 L . . . . . . .     - . = .       #   2X+.. h.N   . . . . o     # - #     = . & . .       -   o =..       X .   - . . . . . . ; - . . . . . .           o o . o o   . . . . . . . . .     . . . . . . . .   . .             .       - o o .     . .                                 . o . .           5 O     o                     .                             .     .         .                 . .         . .                 X             X X     .   o o                                                                       X     X           X       X                                                                                                                         # w X                                       X p 6 O 6 O ",
"$ $ . & $ . ; & $ . $ $ $ $ $ = * $ . . . . . . . $ $ $ $ & $ . & . . . . $ $ . d * $ $ $ $ $ $ . . . . $ $ * d * * * * $ $ $ $ $ $ * * $ $ $ $ ; & ; $ . & $ $ $ & & $ $ $ $ $ $ -   # e . & & d . 1 2 $ $ $ $ & $ - e ~.G   . < $ j *.$ . . . . $ $ o $ $ $ $ & & o ; & . . o * * * $ . = . . . 2 N & & . $ .   . . . . $ ; & . . = - = . . . . . . . . . . = . $ = = = . . . & = $ . . . . . . . . . . . . . . . . . . . . . . . . . . . . . . . . 1   - X     o   o   & . . . =   . o . - . . . . . . . . .   . .   -   X W.}.    e ! - =   . ;   o .   o     o   .     o   #   X     . - &   1 -   . - = . o . . . . . . . . . . .         o .   . . . . . . . . . . . . . . . . . . .   . . .             o #     .   . X X .                 .           . . . .           X X     .   . X     X . .   o   .                                                                             .                     . X .                       # X         . o .       X                                                     X   X     X X   X         X X                                                                                                                                                                         Y.nXzXJ @ ",
"$ . . & $ $ $ . $ $ $ $ $ . $ $ . $ $ ; ; $ $ $ $ & $ . $ $ . . .   i.~.. - k $ d * $ $ & * $ $ . . . $ $ $ $ $ $ $ * % $ $ $ . $ $ * % & $ $ $ $ * $ . ; ; . $ . $ $ $ $ $ $ $ -     X . * . < 2 . & & . & $ $ ; $ . . w o . & . $ 2 x . ; -   $ $ . . . o o o . .   & $ 2 N - . $ * . . & $ . - = h d C * & . X   :.OX* ; . - ; o   = ; - - . . = $ $ $ . $ . . $ = = = . . . . . . . $ . . . . . . . $ . . . . . . . . . . = . . . . . . . . . =   o   .   e o   -   o     - . .     . .   . . . . . . . . . = - u o -     n.xX# #       o   e e . . o o   = . . o   e ,   #   X X   t -   . X     . . &   = .   . . .     . . . . .               o 1     o . . . o o .     . . . . . . . . . .                 .   =                                       . . . .             X             X +                                 .                                                                               . X .     X   . X         X     # .     t # .       X .                                                               X       X   X       X X X                                                                       X #                                     X     # X                                     #   @ I.<XI.@ ",
". $ C k . . = $ $ $ $ $ $ . . $ $ $ $ $ $ $ $ $ $ $ $ $ ; & . $ . j  .u = - ; . $ $ $ $ $ $ $ $ . . . $ $ $ $ $ $ $ & & . . $ $ & $ $ $ * & & & $ * $ . & & . & . . . $ . $ $ $   u 9XT . & . & $ ; & . . & $ & $ $ ; -   - . . & . $ & & o $ & $ $ . . . . o $ o - o . ; D.G.l . . $ . . & . $ o   . 2 k 2 . . W.! j.%X. * . E m. .= . o . o   . $ . . . . $ $ . $ $ $ . . . . & $ . . . . . $ . . . . - ; . . . . . . . . . . . . . . . . . . . ; .   -     =.# -  .  -   .     . . =   = . . . . . . . . . .     o o     + # F + -   & o     - . . .   . & g.e   + o .   .   X   o - z . . .   i - &   . . .       . .       . .               #   o e .   o & o . o o . . .   . .   . . . . . . .           o . o   .       .         . . .                 . . .           X X - X   .   . o .     .   .                 X             . .                 .       . . .       . .                                                     X . .     X     #   X                                                                 i                     #     # X X                                                                         X -                                   > R r                                             . O O O     ",
"* . d ; & h ; . $ $ $ & $ . . $ $ $ $ $ $ $ $ $ $ $ . & h - . . - o     o o . $ . $ $ $ $ $ . . . . $ $ $ $ & ; $ $ $ $ . . $ $ . . $ $ $ o - t h $ $ . . = & $ . $ $ $ $ $ $ $ + [ -Xi + . - . . . . ; = . - . $ ; C ; = ; . & $ & x & & . 1 2 $ $ . . o $ = - 1   1 j . h 2   & . . . $ $ . & . & o d . & . = T.K .   & & . . L e . . .     . . . . $ = . $ . $ $ . . . . . $ = . . . . . . . $ = . . ; ; . . . . . . . . . . . . . . . . . . . $ = .   . =     o e e   o   - . . z L   .   . . . . . . . . . . o   o .   +     + e - . o . + . = o . o . . -.z   o   L W X s.jXX   . .   . . o h.e   j j   .                 . .             X T 1   . . . . - o     . . . . . . .     o o . . . .           .   .   o             .                       . . . .               o X       o   #   e _         .           - . . .     . X o                 .       X X .       . .                                           @     X   .     - .   X                                                                       i n.K   +       X     1 X.t                                                                                   .                                   X i w   X                                                 . . ",
"o = . . d k * . . . . . . = = . * $ . $ $ $ $ $ . . $ $ . .   `.NXs.  . $ % * m = $ . . $ $ $ $ $ . $ $ $ ; * * $ $ . . $ $ . $ $ $ . $ & e - tX~ -   ; x ; . $ . . . . . . $ = .     = $   2 2.$ = $ & $ & . & N ; $ & & $ $ . . d C & $ * 2 & 2 . . $ .   e j.k < W 2 = . N k & * * $ $ $ $ $ $ $ $ . . . . .   . $ $ K.k . o   . o     i.w   . - . . & . $ $ . = . $ .   o . = . . $ . . . & . $ j o . . o . . o o o . . . . . . . . . . . . . . = . o . . . . . w  .8 .   o . . & 2 &   . $ . . . . . . . . . . .     . o     o   . z N -   .   #       - . o . . . h.W.X e L - .   o o . .   X   X w M   o   1     X         . .   = . =   r 1Xw   - o   . . . . . . . .   X               . . .           . . . . . . . . . .     o $   O           . . .                                 O     e t o       X       o . < -   -     . - 2             X         . o o .             .     X N X.    .                           . o o .                                 .                           . . . .           o k V h -             X   i jXoX  X                                                                                                                                                                                 ",
". . . . $ $ $ . . . . . . . . . . . . . $ $ $ & o = . $ & e o B.s.# . $ . $ $ * ; $ $ $ & $ $ ; . %.%.* C C $ * $ * * $ . . . . . . & . ; . e - w . . - ; $ $ 2 = . = 2 . . - . $ - = . = = & - = . . $ $ . . 2 2 & . . . & & . k * $ . $ ; d.o o o & . E ; . j g..X$ o e . 2 d & & $ $ $ $ $ . $ $ $ . . . . . = . . * d $ . . 1 . o . e 9XK X = . . - . . ; $ . . . . . . o . = . . . . . . . $ * d . . $   . o . . o o o . . . . . . . . . . .     .   . o   = . . w   .   . . . =   o 3XW . . . . . . . .     - e - .   . . . .   & z -   o & . z n.# . . = . o o     #   o o . . o .     o - a.t   +.5X    e _ e .     .   .   . . . .   =   #       .   -   . . . . . .     i D   X     . . . .           . . . . . . . . = o     &     X           . . .                                       . o .     X   1 #   +   & e o     #   . .                 . . . . o o .     . o .         o N ` o       X                       . X X                                                   X                               - & o                 X   i K #                                                                                                                     X           X                                                 ",
"o . $ & $ . $ = . . $ . . . . . . $ $ . $ & & $   o . $ $ &   o     e ; $ * $ $ $ $ $ $ $ $ . $ $ d ; . * * . $ $ . . . $ $ $ * . e $ $ . $ . G . . . $ . . $ * = . $ 2 ; = . . . . .   . - & . . & . . $ . - ; $ $ $ . . 2 e = z ; $ $ $ ; . . o . &   m * . $ Q * d m . e & . & $ $ $ & $ $ $ . . . . . . . . . = . . . . = .   . . . # o     . . o   = . ; . . . = . . . . . . . . . . . . . . - $ . = & . = . . . . = = o . . . . . . . . . . . . . . . . . . .   .   w - . . . - ; o ~ $ o . . . o o . .   . o     . . .   .     & w .   o . . i.0Xw   X - 2 - . X   . o   .     . . .     z ].  ;.T   o e   u o       o   .   . . . = . = o   -     .     . . . . . . . o   kXaX  # .   = . . . .         . . . .     . . -           -             . . .                 . .                               #   X o.O     o #   X     . -                       X . .       o - o           o 1                                                                                                                                               # X   X                                                                                                                             # #                                                     ",
".   . $ $ $ $ . . . = $ . . $ $ . = $ . $ - - . - 2 $ $ $ * - e & & ; $ $ % . $ & < d * $ ; ; $ :.* $ * $ $ * $ & $ $ $ $ $ $ $ -   j $ $ : $ ; = = . . . $ $ . . o . - h & . = = - = . .   . ; . - . $ ; . e ; $ & & $ . ; 2 . - . & . $ $ $ o E & & - . . . $ . $ & o & . . . $ $ $ & & $ $ & . . . . . . . .   = = . ; o = . 1 o . . o o o   .   . -     . = . = e = . = . . . $ = . . . . . $ & . $ . = . . . . . . . . . . . . . . . . . . . = o   -     o   . . o . z e . . . o $ & . & . . . o = o . . .   . . o . .   .   . . . . .   . ; .   o X     o   .   . o   .   & . . . . . . o   o   i.T   - l   .     X   . .     o   . . o     o -   .   #   .   o & & .   o @ } s.      2   . . .               .       X #       # .   .             .                               . . .     .             #   1XmXF   # .   X X   o o     . .                             o # X                     +                                                       .                 . .                         X                                     # #   #                                                                                 @ @ X                                                                                           ",
"= = & $ $ $ $ . . & & & $ $ $ . . . . . = 2 ; $ . o . * $ $ $ . $ $ $ $ $ . . ; $ s d * $ ; ; $ d * $ . . $ . $ $ j E 1 . $ ; . o o . k h . $ . & = . . = 2 & . o . . ; $ . = . . . . . = o l  .. . - ` 4.- - - & $ $ o . . . . $ . $ $ C C.& * h . . o . $ $ . * d .   ; . 2 . . . . $ $ . $ = $ $ $ . . . . . . $ . l . . . = .   $ o . o - . .    .9XL 2 . - = ; z - . = . o . - ; = . . . . * $ $ d . $ $ . . . . . . . . . . . . . . . . . = .   & . . . . . o . .   - o . . . .   . W 2   . . . . . . . .   .   .   .   =   o .     . .       -   X   #     # 1 - .     o . o & o     - l o     X X   .   . o . X X       . = . . .   o     o     o   .       - e 2 o       O 6       o   . . .               . .     . o o . @ 5   -   X           . .                             . . X                       y v.6 5       X X   X .     .                                             # .   X     .                                                         .     X w X                                                                                                                                                               # # X                                 X # # X X                                               X ",
"= 2 ; $ $ $ $ & & - ; & $ $ . . . . . . = ; & . C d . . . . $ $ $ $ $ $ % $ $ ; $ $ $ $ $ . . = . $ & . & - . ; & ; h 1 . . $ .     h 1 * . . & $ & = . $ - & . $ - * $ . . . . & & . . . . . - . . - ~ =.1 o o $ . . $ $ $ & $ . 2 . . K.k * .   & h . ; $ . . $ . $ o & 2 . . . . $ . . $ $ $ $ $ $ . . . . . . . . - z . . . =   . . & . . . = . ` D.& . . o . = 8 & . . . o . = - = . . = - $ $ * k * * j . . . = = . . . . . . . . . . . . . . - :.  - -   . . . .       . o   - w   -   = . . . . . . . . - .   =   o .   . .     . . . .   o o   o       #   . .   . .     . . . . . & ;   X L i . .   -   . .     . o . o .   o . . . . =   . o             o & & .     #   O @ . o . . . .               . .         . -   _.7X  . -             . . .                 . . . . . . . . .             X     + @ O 6       X     X   X o . o .   o                                                                                                       .           # z # X           X                     X X                             # +     X                                                                                     X                             X     # P T 1                                                 X ",
". & $ $ ; % . = $ $ & $ o $ $ . o . . . . . . . s $ $ & & = . . & $ . . $ $ $ $ * $ $ * & . $ 1 ; . & & $ $ . $ h . . & o o $ . G.pX= . . ; = . $ $ = $ . . . . . E j . $ $ . & $ $ . . $ $ . . = o       . . & & . . $ & ; 2 * &   . ; k . . * . E ~ . 2 $ . $ $ . $ * . & $ $ . $ $ . $ * * $ $ $ $ . . . . . . $ o   ! & . .   = & $ N k . ; . & x o & & $ . . . . . . . . . . . . . . $ & ; . $ * ; * * k $ . . $ . . . . = . . . . . . . . = . e ;.. - = .   . . o o . . .   . - - o   . . . . . . . . . .   . z O.- o     .     . . . . . -     o   . o       o o - o o . . .     . o .   .   # #   # .   . . o .   o o .     2   . .   .     .     . o X               X   . + +   . .                                   j t ] }   #   .           . . .                 . . . . .       .             X o .   # O     o   X i.i X   X   . = . . 1 o   X                                         X e   X               .                                 .           X w # X                             .   o #                                                                                                                                                                 X # X X                                                 ",
"$ * $ * Q k $ - . . . . o & & & . . . . . . . o $ $ % $ $ . . $ . . $ ; $ . $ * % % $ $ . $ & - $ . & & . $ $ $ . . o   . N ! ; u. .  &  .!   - $ . . $ . . . . $ x N & . o - . C h & = - . . . . . o 2 - &   & ; - $ . . $ $ .   - . . . & . $ . - 1 o . $ . . $ $ . . o o . $ . $ $ . * j h * $ . $ . . . $ o $ & & e   & ; $ o -   k rX* ; . $ = = -   z = = . $ . $ = . = . = . . . . . . $ $ & $ . $ $ h . . . . . . . . . . . . . . . . . L ;     - o   . o o .   . . . . . . . . o & =   . . . . . . .   . . - P     . . . . . .   . . .   o . .   .   X . w     M &   .   . . .     . . .   o     . . u .     o . .   .   1 H.& &   . & . o     -   - u     . . . X     & .   . = .   . . . .                           .     6   . . .           . . .                 . . . . . . . .                     X   O   .     L mX5X    . . . = . . w -   X                                 .       e !                 . X                                                                                 .     .                           X   O     X                                                                                                                           X X                                                     ",
". $ . * k d $ : . $ $ $ $ & ; ;   E E = . . $ $ $ $ $ ; : & $ $ . $ $ $ . . ; $ $ $ $ $ $ $ $ $ $ $ $ $ . . . . . $ . & Q f.d $ $ o   o & $ & $ . . = . $ $ . $ $ & * * $ $ & $ - & $ $ ; * $ . . . . = & . . & - 2 . $ $ & o - <.m . * . . N ; $ $ . . = . . . . o $ $ $ $ $ $ . . . ; & = = . % $ $ & . ; & . . . - X X   - . . &   o . .   .   X . =   X # w = . . $ & & . . . . . . . . . .   & . o $   .   = . & . . N 2   . -   . o . . $ E ; . . .   = . . . .     .   . &   + - < 4 & . . . .     . . . - o     . . .           . . . .   . .   . X     - # P s.  -   o   X . . . . . . . o .       - Z . . . . . . . . o . ! o . o   &     . . o . . #           . . .     .   . o o . . - . . . . . .         . . . . .   . - - .   . h &     . X       - o   .     = 2 . . .   . o   o X   5       .     .             - z i #           . . .               o                       X       i .   X X       X       X         X       1 w X                                 .                       #   #                         X                                                                                                                                                                                               . ",
". $ $ $ * . . & $ ; * . . $ & . = x x = . . . $ $ . $ % % $ $ $ $ $ . & $ $ $ $ $ $ $ $ $ $ $ $ $ $ . . . . $ & . & . 6.*.. . o $ =   e t . & $ = . j ; . . - . $ $ * d * $ $ . . . . . * $ . . . . . . o $ $ $ o $ $ . . & . $ g * $ o . l x . $ & o   h x . & . . . . . . $ $ $ 7.g . ; . = $ . & h . - . & & . ;     K w = . . . & - . . . . X # . = # R.u o . . $ . . $ = . . ; u - .   . . -   - & N ` . X   & . k x h $ & - . = .     = . o .   . = . o . . = .   -   #     -     . & o   . . . . . . . . - . .   . . . .     . . o . . . . .     o .   #   # n.'.#   &         . . o . .   .   + X   . & . . . . . . . . o . $   o   .       . . .     .           . . .   .   . . . . .   o . . o   . .         . . . .   . .           - .             - z u . . = . . & . . .     X   .   O >X@.#               . . .     X X               . .                                           . - L 1 X #               . X   X             # - X           o - o               . X X                             X           X   # t X                                                                                                           X X           X                                                                         ",
"$ & $ * k * $ & $ $ $ . $ $ $ $ . $ = . . . . $ $ . . $ & $ $ $ . ; . $ $ * & $ $ $ $ * * $ $ * & $ $ $ $ $ & * . . $ & . * ; . $ . & z.x.= . $ . . . . . . . . d $ & * $ . $ & . e 2 . . . o & . . . . . $ $ . $ & N & . & . = . . ; . = L 2 . $ & - . oX9X. . $ o . . . $ & % % -.V * $ . & o ; . = . =   . . $ . -  .iXo . - ; . . . . = -   n.W = . z N.#   . . . = = . . . . ; l - . . . . . .   $ XX].    -   = z j .   . .   . .   - . & . o   o . . .   o     a.u   # .   - - . o     . . . . . = = . . . . . . . . . .     X o o o . . .   . .     X   .           # . X     . .     . & .   .         . . o . .   . .   e ;.-     . = . X o . . .               . . . . . . . . . .     .   . o . .             . . . o 2 2 .   . o . . . . o .     X . w -     .                       -   | y   X o           . X .                       . .           X       X .                         - .   X X             .     X   X           .             1 e o                 . .                     o X X         X         X t #                                                                                                         X # - .         # X                                                                       ",
"$ $ $ * k d $ & . . * k k $ . . $ . . $ $ $ & $ $ . . $ $ $ . $ * $ $ * $ . . $ $ $ $ $ $ $ $ $ $ $ $ $ $ $ $ $ ; . . j 2 $ $ $ $ $   2 ; . $ $ . ; ; . . = . $ j & $ $ . . & 2 . z N &   . o o . . . . . $ $ . $ o x $ . . . . = . - . - h . & & 2 .   2 ; o . $ o . $ $ & ; : % $ g V $ . o . .   z z   . e = $ =   u o = - . $ . & $ $ . . . n.P & . L e   - . . . & = . . . . . = . . . .   -   . &   . - o   + . o & . o   o   U u.  #   . ; j . . . . . . .   # {.| +     o   . .   o   . . . . . o . . . . . . . . . . .     . . . . . .       . . X o   o     # -   X         .     - x 2 .         o . . o o . .   . .   2 O.&   - .   . o = . . . .             . . . . . .     .     & - .   .   . .                 . - - .   . .       . o X     X         o .   o               X     X   r                 . X .     .                                   #                         X           X     . .           X X   X   X                     X - X                                                 @       X             X                                                         X X                                           X - - o .       X                                                         & o             ",
"$ $ $ $ $ $ $ * $ $ * k d $ $ k - . . $ $ & $ . $ $ $ $ $ $ $ $ $ * x $ . ; ` ; $ $ $ $ . $ $ $ $ $ $ $ $ $ $ & . . . . $ & & $ . & ; = . = $ . $ . . o . . = . & o $ $ $ & - $ o o & e j -   . o . . = & $ . $ $ . $ . o . - . & . . . $ . . * . ; 2 L o   2 . . . . . $ $ & & $ $ * $ $ = . $ . . yX;.. ; . $ $ . . = .     = . . = ; E &   o   . . = # X   -   = = . . . o o o . . . . . .   . = . = .   -   | :X  o . . .       '.8X    8   ; j . . . - o o . .     X     X . u j o   . . . . . . . . . . . . . . .       . . . . . . .     . -     -     .   - w     X   K - .   .   . - z o     X   . .   . . o . . . . . o .     o   o     X o . . .               . . . . . .     .     f f o . .   . .                   . .                           .     . o     .               . z     X     X .                     .                               X   ! X                       # o . . .                       X     X   #                                           X                         #           X       X                                               X                                                                 X . . .           X o                                                   d - .           ",
"& $ $ $ $ $ $ $ $ $ $ $ . $ h Q $ $ . . $ % $ . $ $ $ $ $ $ $ $ . & j . . E d.2 $ $ $ $ . $ $ $ $ $ $ $ $ $ * d e . . e j . . d * . $ $ . . . - & h $ . = . . . . . . $ . = = . .   . & 2 & . = - $ $ - - $ . = $ $ $ $ $ . & $ . - . . $ . $ & h . ~ ~ . . . . . . . $ $ . $ $ . h . . & . . = - o u   . . $ $ . . ; .   = .   = .   z k.W . o . . $ =   X   . L - . . = . . . o . . . . . . o   . . . . o .   p.}.o .     . . . l i     -   = . & . . o = .     o o   # M w   . N & . &   . . . . . . . . . . . . . . . . . . . . . . .   . . . o .     # K     .   . -   i kXu - . . . .   . .     .     .     . X . .       . . . . .   . =     . . . .               . . . . . .   . . .   o -     .                       o . . . . . . . .                                                 -   #   . X                                                   .   X X | -   X                   .             # X               X   X     #                   X             X                                   X       w               # i X                                       X X     X                                                                           # 1 .                                                 & o             ",
"$ . . $ & % $ . . $ * $ $ $ $ $ $ & & * d ; $ * $ $ $ $ $ $ $ $ ; . . $ $ . $ $ $ $ $ % % $ $ $ $ $ $ $ $ $ * ; - -   j h . 7.Z.$ & * . . & $ . . D.6.. . $ . = = . . . . . $ . . & $ . . . . = = = = = $ $ $ & . $ & $ $ & . .   o . $ $ $ : $ . ; .   ; . . ; $ $ $ $ $ $ $ $ = . . & = . = .   &   2 - . . $ . - . . . =   & . . = x W e . t P . $ . . X L o W ; . = - .   . . . . . . . o o & . o . o o     X   .   & $ = .   - u X     o . . . . . o . &   &     -   M e . o     .   . o   . . . . . . . . . . . . . . . . . . . . .   . .     . #   l i.- . . = .   X O 0 X .   . . o . . + o .       . o       . . .     .   -     -       . . . . .               . . .         . . . .         .   . .     . .       . . . . .                   .         .     . X   o           o     #     -     #   . .     .                                             -                       X X   .   . X o e -                   K X   X                   X                                               .     # | n.i             # M #                                         X   X w                                                                           . o .                                                                 ",
"; & $ $ . . $ $ & . . . $ $ $ $ . & $ * d $ . $ $ $ $ $ $ $ $ $ . x $ $ . & . $ % . $ h d $ . * $ % % % $ $ $ $ &   ; . $ k V $ $ $ . $ $ . . . . m $ . & . . = = . . & $ . . . $ . . & ; $ . . . $ $ . . $ & ; & $ $ . h *.* . .   . $ $ * & $ % . & =   . $ . . . . . $ $ $ $ o   < $   & . . = . - .   . ; $ . . . $ . . o . . .   & .     t l - . & = 1 a.    e z . . - ; . . = = . . - =   . .   . .   o w w . o - & . . . o .   - o . . $ $ . . . .   w - .   .     . .     o &X).  o . . . .   . . . .   . .     . . . . . . . . .       . =     -         . . . .         . o .     . .   + .   .     .         . .       .   . .   . . .   . o .     .           . . .         . . . .   o     .   . .     . .           o - - o .                     X     X       X i o       & e - X   .     -       . .     . .       .                                 -     X                         -   o     #               X   X p.i           X                     .                                         +   # | X   X     #     #                                   #           . - X                                                                     X                                                                         ",
"$ $ $ $ $ $ $ $ $ $ $ $ $ $ $ . $ ; $ . $ . - . $ $ $ % $ $ $ . g Z $ $ & . ; . $ & $ $ $ . $ $ & . . . . ; . $ $ $ . & ; ; = . . # = . . & $ . o   . ; * . . - $ . . . . . $ . & . $ d * $ $ $ . . . . . . . $ . . . $ ; ; $ . . . = . . $ $ $ $ $ $ $ $ $ $ & $ $ . $ . - . o #     .   . & . . - - . . $ $ $ . = . . $ . . . % >.g     - e w o . . & ; . . . . - 2 - & . . & . . . . . . . . o .   . o . . o o . . u &   - . X   . h.e   X   ; $ . .   + eXI     -   . . . = & . h.! . -   = . . . . + . . . o     . . . . . . .   o . & . . . .   . X       . . .           . .     o .   o o   .     o   o   1 e o         .     . .     . . .   . . . X   o     o - = .   .   .     o &     .   . .   . .         . X .     . o z   . ` o . - X   . .   .                 .           X X                 .   . .           .                               . .               .           X     X   +   X                 X   # i r     X   X       .     .                   X                                                                                                                                                                             #     X X -           # w -                                                   ",
"& $ $ $ $ $ $ $ . $ & $ . $ $ $ $ . & $ & . . $ . . $ $ $ $ $ * . & h $ . $ . % . $ . . $ $ ; * . & . W k . d & . . . $ & = $ . . E.A.$ . $ $ Z o . $ 2 * . . . $ $ . . . . . $ . . = . . = & . . . . . . & = . . . . . . $ . . . . . . . . $ $ $ $ $ $ $ . $ $ $ $ . . . j z =   e h.- 2 & . . . o $ o $ $ & * . . . . & - . . a V $ &   # a.    . . . & . = .   o . o - o .   . . . . . .     o . . o . . . - .     & .   .   . o   z   . o . . . = z #   u + o .   . - =   . .   o .   o o   . . . . . . . . . . . . . . . . . .   .       o . - o       . . . . .             o . . . .   . < A.o o     .     X #                     o o   . . . .       . . . . o o . . .         . o o o 1 - . o - o .   .       . . .   X o     . , W 3   o X                                         .                                   .                                                             X.4X1       .               . # -     # O                     X                   X X                                                                             # +                                                                                           5         # w X         X # X                                                   ",
"$ $ $ $ $ $ $ $ $ h h $ $ $ $ $ % $ $ $ . . $ ; = $ $ $ $ $ & 2 * * ~ k $ ; . ; * $ . $ $ $ & . - $ $ E d $ $ $ $ $ $ $ $ . $ = w ! l . & $ $ Z - & 2 2 * . . . $ = = . . . . $ . . . . = = = - . . $ . . . . . . $ . . . . . $ . . . $ = $ . $ $ $ $ . $ $ $ . = . . . . ; h .   h.dX; P . - . . . . $ = & * $ . . . = & & $ . $ . . - + B.1X+ . e ; . $ . $ . . . . . & o . . . . = & .   o - o . . . .   o 2 = . o o o . . .   o . .   . . o . = . ;.~ -   X .   . o   . -     -         . . ` d . . + . . .   . o .   . . .   . = . z ..  X       . o .     . .               o . . . .   . o  .  o     . .           . .   . . . .     . - X   o   . = . o . = - & .   . . X         . .   m.X.-       o . . .           .   #     .         o X   . .   .   . X X X X .                                                   . - #     X                                   o X               1 m..   X                     X o           X     # + +       +                   X X                                                                         X                                                                                                   #     n.W.w X           X                                                     ",
"$ $ $ $ $ $ $ $ ; x d $ % $ . $ $ ; . $ $ $ * . . $ $ $ $ $ $ . . . $ ; . . $ . . . . * & . $ .   - $ & $ $ $ . $ $ $ $ $ . $ = o   . . . $ & .     . = . . = - . o = . . . . . . . . . = . . . . o $ $ . . . o = = $ . . . . = = . . & - $ $ $ . . . . o - & . $ . . $ .   . . o . - . ` =   o . . . . . & & . $ . & ; $ . . . . - .     u     . z x . . . .   . o . . . . . o . . = & .   - N . . o .     o - . . .   . o   o ; . . . . .   . - .   w o   . . . . & o o   -   . . . . T  .o X N &     . . . .   . . .   . . . - .   . - e   X #   . .         . .             . o o   . . . . -     . . X   o .       .       .             o -   .   & h $ &   o - o     .   .     X .     #       . o   .   . . .           X X   # ! P                     .             .                                           .     . 1 -                                       X e e X                           X                     X       X   .       #                           .                                                                       X # X.e                                                                                             #   @   w u.K     X                                                             ",
"$ $ $ $ $ $ $ . $ ; $ . & $ . ; * $ . . $ d h $ - . . $ * * & $ $ & . ; * . d . * $ * h ; $ ; $ 2 g.2 $ . . d $ $ $ $ $ $ o . .   e 2 $ $ $ . = h o . o . . o - . . . . . . . . . j j o . . . . ; . . o - = . $ $ $ . . . . . . = . . = ; $ $ $ . . . . . & & . . . . . = . . - . N & o   . .   . . o . . o .   . . $ ; . . $ - = o . - .     #   w z . . . . . . o . . . .   . = .   . . . o - . . . . . . . o = . & . - l ; h E . . . . = . . .   W 2   -     - & . . 2 .   X .       ! ;.  .   . . . . . . . o . . - - o . . . .   -     #       # .   . . . .             . o . .     . . . o & .   # .     .                   X   o l -   X     . j ` N Z     X     X .           X     # X o   . .   . .                         i z       . o & .       .     - -     .                                           . .     .                                           1 e X           . . X         X                         X           j W . X   X                                                                                               X # 4.M X                                                                                               X                                                                           ",
"$ $ $ $ $ $ . . . $ $ $ $ . $ k h . & . $ & $ $ . . * %.-.k $ . $ $ & * % $ $ . $ . $ * .   & . ~ g.; . $ $ $ . $ $ $ & & $ . . . 2 $ . ; $ . e ` e . o # o . . . . . . . . . . o j m * . o h ~ h $ . $ & $ . . $ . . . o $ . . . . . $ & $ . $ . . . . . $ . . . = . . . = . . . & e . . . - . . & $ . . . . o - . . $ . . . . .   .   & & .   . o e . . . . .   .   . - - .   . . . . . .   . . .   . . . . . . . . . . ; ; ; -   = .   . + . . - -     &   & - = .     - . .   - -   # X   o . = & o . . . . o   . 2 e &       . -     X   O.Y     . . o   X                 .   . o . . . .   .         . . . . . . .   . . . . -     1 o o X   X     .     . .             X   X     ..u.        o = .                         # o       X   & z z &     X     # z z #                                       . .                                                         . X       .         o   #   X                 X # -                 ' f.-     o                                                                                                   X X                                                                                             #           # X                                                                 ",
"% $ $ $ $ $ . . $ $ $ $ $ $ * d % . ; & & . - . ; . $ f k * * z . . * $ * ; $ ; $ $ $ & & N ` - $ $ . $ ; 2   o $ $ $ & & $ . . . 2 ; $ . $ = o ; .     . o = . . . . . . . . . . . & & .   2 L * & $ $ $ $ . . $ . . . = = . . . . $ $ $ . $ $ . . . . . . . . o o - x . = . . . .   =   -   . . & & = - . . l ; z e . . . . . #   . o .      .z . - o . . . . . . . o - - . . . . . o . . . o . . . . . o . . . = & - o & 2 $ . . = .   . . . - E . = - .     . . - . W O.-   . =         . o o       . o o . .     & - o     -   -   . # @ kXN.w   . . .   X               . .   - e &   . . 7   o o t -   . . o o . . . o o X   .     o   .   . . . . . o - o .         . o .   #     v.T.  X X   o o   .           . .             . . .       - 2 .             X X                                       . o o .           o .                                                           #     +       .             . # -               - X   o o     X                                                                                                   X                                                                                                 X                                                                           ",
"% % $ $ $ $ . . $ $ . . . $ $ . . ; . . ; . ~.A.. . $ % % * h E $ * $ . $ $ . . . $ $ . & !  .. $ % $ h . . m ` . . $ $ . . . . . . $ $ $ . . . . . o X     . . . . . . . . . . . . . . . = =   $ $ . . ; z e . . . . . $ $ . . . = & $ . $ $ $ . . . o . . . = . . z f.. . = $ . - .   = . . . . & & - e   . ! & E L . . = = . Y 1X    = .   Q.!   . . . . . . . o . . .     o . . .   . = .   . . . . . o o o . . . - . . 2 . ! m     = -   . ; 2 o . . . . = . . . . gX/.  o . . . o . . .   .   . 2 2 o   . . .         . .   . . o     O y 5   - .   - .                 .   . e N 2 .   .   o X   z.t .   . o . .   . . . .   X   l X.e   o o   . .   .             X e N   X     O     O       .     . X .     . X o .     o . . .   .   o     .   . o                                                   . - - X     .     o X     X                                         .         .   X     +   #                                   X w   .   #                   X X                                                                                                                                                                                 X     +     #                                                                 ",
"q.9 9 % $ $ $ . $ = $ $ . ; . . & . $ . $ C C.%.* $ e . Q C $ $ : $ $ * * $ . & . $ . $ d 2 . o $ * d h . - a.P.. . : $ #.Z.$ $ . $ & & $ $ = . . . . . . . . . . =   - & .   + o o . . . o = $ . o . . ; l $ .   e o . . . 2 * * * & $ $ $ . . . $ $ $ $ .   X   . o $ $ . $ = . . . = . . o . . ; . ; e .       . $ $ . . . . e M . o . . x o . . . . . . . . . . . . . . . . = . . . . . . . . . . . . . . o o   o     &   o * & . . . o . . . . . . . . . . . . . - ; - .   o . . . =     o     o ; - o       o .   . . . . $   #     O     . o   . = . .   . . .     . . .   . # #   o   X                   . . .     o   .   o . - z &   X   X .   .   X . Z o       R B     . .   . o                     X   o i -     . . .           . 2 -                 X .         X     X                       X .     o o                                                                                                                         O               O O   & 9.$.  #       X                                             #   X V.p   X                                             +   o ).L.. .     X     P `                                                                     @                                             ",
" X: . a s d % & = . . . 2 ` z . . $ . & . $ d & . $ . ; d * Q h $ . % C C * . . = $ . * k * . . * % $ $ .   7   $ & $ . g A . . . . - - . . . . . . . . o . . . . - 2 & o . = e o o . . . . = $ . . . . o $ $ . w L u - $ . $ . $ $ $ $ $ . . . - . . . $ . 7 T - .   = $ & $ . . =   . . & . o . .     . . . . = . . . $ - = .   &   . . = x ; . . o o o . . . . . . . . . . . = . . . . . . . . . . .     . .   & - o e l o   . . $ & o . . . . . . . . . . . . .   . o . . . . . .   = . . . . . . o o .   . . . . . .   . - . .     `.P.#   . . . o     . . . . .       . .   . X                           o .   o . .     X   .   . - X X     X     X     < ~ 2 . .   .   X . .       #                     .   . - o                     $ h - . .                 . .                                         o 1 - .                                                                                                                       X     #       X O       V a         X     X                                 @       X   @.mXnXH   #   o e .                                         &.Z.m             e j                                                                   y r #                                           ",
"@Xc $ a d 2 $ $ & ; * $ . 2 . . . = . & . . . . >.k $ $ . $ * $ $ % % $ $ * * & . . $ . . $ * h & $ . $ . . $   . - . . $ . . . . . . . . . $ $ . . = = . . . . . . j o . o - = . o . . . . . . . %.j   & $ . .   - & . . . $ $ $ $ $ $ $ $ . . . $ & $ .   O.1X- . . ; . $ . . . = . . . e   . . $ 2 - .   . . . . - ; .       . o . o . . = . . . . . . . . . . . . . . . . . = . . . . . . . . . . . o & = .   l 2 . =     . & & & $ . . . . . . . . . . . . . .   . . . . . . . - .     .   o .   . .   . o . .   . o   o z 2 - o   u.I   # .   . =   . o   . .       . . . .       - R.i                   . o . .   X         o o       + u.#     . .       - o   +             X o   X #                         X     X           X X   . - o   . .   X   .     . - o                                   . .                                                                                                   . .                       .     X       #   #     O   . .     +         X                                     # X       } ;Xq @ @   ; j o               X # X                 @ X   & o               X                                                                   # w #                                           ",
"#X$.& a 1 o . * ; & & & . . . $ $ . . $ h $ & & V d : $ $ * . $ $ : * . . $ * $ . . ; * $ $ * % . - = . . . $ ; . $ . . =   o + ~ 2 . . . . . . . . o = . . . . . . E 2 . & o . . . . . . . . . o d.N . - = . . . = & . . $ . o . . $ $ $ $ . . o . . . ; 8 .   . . . ; . . . . $ . . . L :.; o . & L j . .   . $ = & . . = _ D..   o o . . . . . . . . . . . . o o . . . . . . $ . . . . . . . . . . . ; h ; o . o     . . . = ; & . . . =     . . . . . . . . . . . . . . . . o       . . = . . . . . . . . . . .   . o   . l 2   =   .   . . X         . .   . . .       . .     - X . T.-                   . - = .   o     #         X X # M.e         X X         . X   .           +                       .     .     X         X = o . . .     .     .   .   . o o o   .   # - X   .                           . .                                                                                           X X                               X   X     X       O O 6   X 7     #                                     #         @ X   O         .   &               # e #             X       X     O                                                 .                                                                               ",
"@Xc & a - o $ * $ $ $ * $ & . & $ . & $ * $ $ . . ; $ . ; . . : % $ $ * * $ $ ; O.- . h d $ . . . = . . $ $ . . & . $ . = . = . ` h . . o . . . . . . . o . . .   o ` ~ . $ . = . . . . . . $ $ . - . & . . ; . = & - . o o . . . . . . $ . . . . - . . . = - - o . . o   & = . . $ ; . h z . . $ . ; o   = .   $ . $ & . . o u .   . o . . . . . . . . . . . . 2 ; & . . . . . . . . . . . . . . . . . = & $ .     - -   .     . $   e = l . . . . . . . . . . = . . . o . . . .   . .       . . . . . . . . . . . . . .     . .       X - .     X .   X #   -         . . . .     .   X   X                   . = ;                 .     p @.X   X -     X   o . X         .            .w           . .             . .   .         . o o . o .     .               .   . o     - - .   .                   - &     . .                                                                                           . X                         7 O   p 5     O     X   .   O     #     X   X                                               # 2                             @ w #               X     X X X O               O                                 1 o X                                                                           ",
"+Xg + % o & $ $ . $ $ & $ h $ . $ $ $ $ . $ $ ; * $ : . $ & & . : $ $ $ $ . & l  .; . $ $ . $ = . . $ . * ; $ $ 8 $ . . . . . & 1 .   . . . . $ $ . . . o . . . . . x E . o . = . . . . . . $ o       o . . - . . & o . . . . . . . . $ $ $ . . . o o . . . . o $ . .   . . . $ & d Q - 2 .   o . . o . . . .   . . . $ . . . o - . = . . . . . . . . . $ . . . - & . . . . . . . . . . . . . .   . . . . . . . o 8 t.! . o . o   - = z & e . o . . . . . . . . - .     . . . .   o . o o o     . . . . . . . .   . .   . . .     - X .       .   .     L R   X . .     . . . . .       #   o X                 =   - .   &       X       w V.eX            X X     . .       X o   . .   P 2 o         . .             . .               .                     .           o 2     X .       .                 N t o                                                                                                 .                               O _.T.    O     X   X     X     X                                                   @ X   . $ o       @ O                                   X X                                                           # X                                                                         X X ",
"+Xa O % . o $ . & $ . $ h Q d . $ $ . $ * h $ j k d & & h C ; . . $ % $ $ $ & $ . . $ $ . $ $ . $ $ $ . $ & $ * ; $ . . . . % V ; $ = & .   . . $ . . . . . . . o   . - . . o   . . . . . . . . . 8 = . = & . . ; h $ . o . o . . . . o $ $ . .   . . o = . . & . . = . 2   . - $ . $ . 2 ; = . . & = o . . . . . . . . . . o - . . . . . . = . . . . . $ . . . . . . . . . . . . . . . . . . .   . . . . . . .     8 o   o .   . . . &   .   . . . . . . . . . = . . .     . .   -     e T -   . . .     . . .   . .   . o o .       o   . #         . L T     . . . . . . . .     - X   #                     .   . o   ) f   . .     X   @ @       e z .           .         -   o .   . * .     . . . .                                                 .               o -   X           .                 . . . . o X                                                                                                                     @   #   1 +.n .       .   . .   X X   X     #                                   +     #         . .     @                             X X       @       O @ X                                                                                                                             X # w ",
"+X* O % . o = 9 $ & ; ; . $ . * . $ & & *.Z . $ 8..X$ $ * . & $ % $ $ * $ . $ & $ $ $ $ . . . . $ $ $ $ * d $ . . .   2 & $ g 1.& . . . . . . . . . . . . . . $ . . = . .   - . . o . . . . . . .   . = . . . = & 2 . . .   - = . . . . . . . . . .     . . . . $ . . & ` ; . & ; * $ $ . . & & . -     - . o . . o . . . . . . . . . . . . & . . . . . . . . . $ . . . . . .   . . . . o . . . . . .   . o o . . .   . .   . . .   .   - . o   . . . . . . . . . . . o .   . .   ! z     -   .   . . . . . .   . o .         . X       .           X     X   o . . . . . . . . #       #   o                     .   o   Z.&..   X   X     O O   #     -     X . .   .     - . . = o   & W x.$       . . .         . .     .     . .               .               .           X #     X .                                                                                                                                                       X     , dXcX)   #     .         w X     w _ #                                   +                         .                                       X         X +                                                                                                                           X 1 "
};
