/* XPM */
static char *ea388eee6cbb40ceb54e5165275bc70eENb2FAYy161ICmOT[] = {
/* columns rows colors chars-per-pixel */
"150 150 51 1 ",
"  c #FF3737",
". c #FF3939",
"X c #FF3D3D",
"o c #FF4343",
"O c #FF4747",
"+ c #FF4848",
"@ c #FF4D4D",
"# c #FF5050",
"$ c #FF5555",
"% c #FF5959",
"& c #FF5D5D",
"* c #FF6262",
"= c #FF6767",
"- c #FF6969",
"; c #FF6C6C",
": c #FF7070",
"> c #FF7777",
", c #FF7A7A",
"< c #FF7D7D",
"1 c #FF8282",
"2 c #FF8585",
"3 c #FF8888",
"4 c #FF8F8F",
"5 c #FF9191",
"6 c #FF9797",
"7 c #FF9A9A",
"8 c #FF9D9D",
"9 c #FFA1A1",
"0 c #FFA6A6",
"q c #FFA8A8",
"w c #FFACAC",
"e c #FFB0B0",
"r c #FFB4B4",
"t c #FFB9B9",
"y c #FFBCBC",
"u c #FFC0C0",
"i c #FFC7C7",
"p c #FFCBCB",
"a c #FFCDCD",
"s c #FFD2D2",
"d c #FFD5D5",
"f c #FFDBDB",
"g c #FFDCDC",
"h c #FFE0E0",
"j c #FFE7E7",
"k c #FFEAEA",
"l c #FFEFEF",
"z c #FFF2F2",
"x c #FFF5F5",
"c c #FFF8F8",
"v c white",
/* pixels */
"vvvvvvvvvvvvvvvvvvvvvvvvvvvvvvvvvvvvvvvvvvvvvvvvvvvvvvvvvvvvvvvvvvvvvvvvvvvvvvvvvvvvvvvvvvvvvvvvvvvvvvvvvvvvvvvvvvvvvvvvvvvvvvvvvvvvvvvvvvvvvvvvvvvvvv",
"vvvvvvvvvvvvvvvvvvvvvvvvvvvvvvvvvvvvvvvvvvvvvvvvvvvvvvvvvvvvvvvvvvvvvvvvvvvvvvvvvvvvvvvvvvvvvvvvvvvvvvvvvvvvvvvvvvvvvvvvvvvvvvvvvvvvvvvvvvvvvvvvvvvvvv",
"vvvvvvvvvvvvvvvvvvvvvvvvvvvvvvvvvvvvvvvvvvvvvvvvvvvvvvvvvvvvvvvvvvvvvvvvvvvvvvvvvvvvvvvvvvvvvvvvvvvvvvvvvvvvvvvvvvvvvvvvvvvvvvvvvvvvvvvvvvvvvvvvvvvvvv",
"vvvvvvvvvvvvvvvvvvvvvvvvvvvvvvvvvvvvvvvvvvvvvvvvvvvvvvvvvvvvvvvvvvvvvvvvvvvvvvvvvvvvvvvvvvvvvvvvvvvvvvvvvvvvvvvvvvvvvvvvvvvvvvvvvvvvvvvvvvvvvvvvvvvvvv",
"vvvvvvvvvvvvvvvvvvvvvvvvvvvvvvvvvvvvvvvvvvvvvvvvvvvvvvvvvvvvvvvvvvvvvvvvvvvvvvvvvvvvvvvvvvvvvvvvvvvvvvvvgcvvvvvvvvvvvvvvvvvvvvvvvvvvvvvvvvvvvvvvvvvvvv",
"vvvvvvvvvvvvvvvvvvvvvvvvvvvvvvvvvvvvvvvvvvvvvvvvvvvvvvvvvvvvvvvvvvvvvvvvvvvvvvvvvvvvvvvvvvvvvvvvvvvvvvvg <vvvvvvvvvvvvvvvvvvvvvvvvvvvvvvvvvvvvvvvvvvvv",
"vvvvvvvvvvvvvvvvvvvvvvvvvvvvvvvvvvvvvvvvvvvvvvvvvvvvvvvvvvvvvvvvvvvvvvvvvvvvvvvvvvvvvvvvvvvvvvvvvvvvvvva ;vvvvvvvvvvvvvvvvvvvvvvvvvvvvvvvvvvvvvvvvvvvv",
"vvvvvvvvvvvvvvvvvvvvvvvvvvvxavvvvvvvvvvvvvvvvvvvvvvvvd8rakvvvvvvvvvvvvvvvvvvvvvvvpqdvvvvvvvvvvvvvvvvvvva ;vvvvvvvvvvvvvvvvvvvvvvvvvvvvvvvvvvvvvvvvvvvv",
"vvvvvvvvvvvvvvvvvvvvvvvvvvvr 7vvvvvvvvvvvvvvvvvvvvs76.   .uvvvvvvvvvvvvvvvvvvvvh*   .=tvvvvvvvvvvvvvvvvu >vvvj7>jvvvvvvvvvvvvvvvvvvvvvvvvvvvvvvvvvvvvv",
"vvvvvvvvvvvvvvvvvvvvvvvvvvvs ,vvvvvvvvvvvvvvvvvvs*    >7* Xjvvvvvvvvvvvvvvvvvvv; *1O   vvvvvvvvvvvvvvvvq 3vl3X  rvvvvvvvvvvvvvvvvvvvvvvvvvvvvvvvvvvvvv",
"vvvvvvvvvvvvvvvvvvvvvvvvvvvv @vvvvvvvvvvvvvvvvvdX @e8#lvv3 9vvvvvvvvvvvvvvvvs7=  hvvz1 vvvvvvvvvvvvvvvv7 8uX  o8vvvvvvvvvvvvvvvvvvvvvvvvvvvvvvvvvvvvvv",
"vvvvvvvvvvvvvvvvvvvvvvvvvvvv  vvvvvvvvvvvvvvvvx@ 1vvvvvvv9 6vvvvvvvvvvvvvvs=     $kvv6 vvvvvvvvvvvvvvvv6 ;.  3zvvvvvvvvvvvvvvvvvvvvvvvvvvvvvvvvvvvvvvv",
"vvvvvvvvvvvvvvvvvvvvvvvvvvvv  vvvvvvvvvvvvvvvv6 $xvvvvvvvt ,vvvvvvvvvvvvvp  O1ru+ pvv6 vvvvvvvvvvvvvvvv6   .ivvvvvvvvvvvvvvvvvvvvvvvvvvvvvvvvvvvvvvvvv",
"vvvvvvvvvvvvvvvvvvvvvvvvvvvv- avvvvvvvvvvvvvvco dvvvvvvvvh Ovvvvvvvvvvvvx$ 4vvvvjrvvv6 vvvvvvvvvvvvvvvv5  %jvvvvvvvvvvvvvvvvvvvvvvvvvvvvvvvvvvvvvvvvvv",
"vvvvvvvvvvvvvvvvvvvvvvvvvvvv- avvvvvvvvvvvvvvi -vvvvvvvvvg. zvvvvvvvvvvv< *xvvvvvvvvv4 vvvvvvvvvvvvvvvv:  >vvvvvvvvvvvvvvvvvvvvvvvvvvvvvvvvvvvvvvvvvvv",
"vvvvvvvvvvvvvvvvvvvvvvvvvvvv% kvvvvvvvvvvvvvv0 5vvvvvvvvl+ ,vvvvvvvvvvvs Xhvvvvvvvvvv1 vvvvvvvvvvvvvvvvo  .lvvvvvvvvvvvvvvvvvvvvvvvvvvvvvvvvvvvvvvvvvv",
"vvvvvvvvvvvvvvvvvvvvvvvvvvvv %vvvvvvvvvvvvvvv, qvvvvvvvv< *xvvvvvvvvvvx# qvvvvvvvvvvv: vvvvvvvvvvvvvvvj  = evvvvvvvvvvvvvvvvvvvvvvvvvvvvvvvvvvvvvvvvvv",
"vvvvvvvvvvvvvvvvvvvvvvvvvvva -vvvvvvvvvvvvvvvX hvvvvvvvp ojvvvvvvvvvvv7 %vvvvvvvvvvvv@ vvvvvvvvvvvvvvvy *r ,vvvvvvvvvvvvvvvvvvvvvvvvvvvvvvvvvvvvvvvvvv",
"vvvvvvvvvvvvvvvvvvvvvvvvvvv7 7vvvvvvvvvvvvvvv$ dvvvvvvv; 9vvvvvvvvvvvz.Xjvvvvvvvvvvva #vvvvvvvvvvvvvvv4 ;k ovvvvvvvvvvvvvvvvvvvvvvvvvvvvvvvvvvvvvvvvvv",
"vvvvvvvvvvvvvvvvvvvvvvvvvvv- wvvxa77777tvvvvv3 3vvvvvvh Xxvvvvvvvvvvvu ;vvvvvvvvvvvx* qvvvvvvvvvvvvvvv; >v# fvvvvvvvvvvvvvvvvvvvvvvvvvvvvvvvvvvvvvvvvv",
"vvvvvvvvvvvvvvvvvvvvvvvvvvv- au*       -vvvvvjX gvvvvc= 3vvvvvvvvvvvvy $lvvvvvvvvvv> @vvvvvvvvvvvvvvvv* ,v1 4vvvvvvvvvvvvvvvvvvvvvvvvvvvvvvvvvvvvvvvvv",
"vvvvvvvvvvvvvvvvvvvvvvvvvvv-    %-77777tvvvvvv6 ;hvvc, &xvvvvvvvvvvvvc* -vvvvvvvx4X ofvvvvvvvvvvvvvvvv* 4vh. hvvvvvvvvvvvvvvvvvvvvvvvvvvvvvvvvvvvvvvvv",
"vvvvvvvvvvvvvvvvvvvvvvvvvvvu-<5yvvvvvvvvvvvvvvx+ .27& @kvvvvvvvvvvvvvvho rvvvvj1X  ;gvvvvvvvvvvvvvvvvv> avv1 1vvvvvvvvvvvvvvvvvvvvvvvvvvvvvvvvvvvvvvvv",
"vvvvvvvvvvvvvvvvvvvvvvvvvvvvvvvvvvvvvvvvvvvvvvvf;    +hvvvvvvvvvvvvvvvvr Xavx7X .:uvvvvvvvvvvvvvvvvvvvlavvvg.Xjvvvvvvvvvvvvvvvvvvvvvvvvvvvvvvvvvvvvvvv",
"vvvvvvvvvvvvvvvvvvvvvvvvvvvvvvvvvvvvvvvvvvvvvvvvvkr78kvvvvvvvvvvvvvvvvvv7  *o  =gvvvvvvvvvvvvvvvvvvvvvvvvvvv4 yvvvvvvvvvvvvvvvvvvvvvvvvvvvvvvvvvvvvvvv",
"vvvvvvvvvvvvvvvvvvvvvvvvvvvvvvvvvvvvvvvvvvvvvvvvvvvvvvvvvvvvvvvvvvvvvvvvx4.  ;gvvvvvvvvvvvvvvvvvvvvvvvvvvvvvvvvvvvvvvvvvvvvvvvvvvvvvvvvvvvvvvvvvvvvvvv",
"vvvvvvvvvvvvvvvvvvvvvvvvvvvvvvvvvvvvvvvvvvvvvvvvvvvvvvvvvvvvvvvvvvvvvvvvvvvvvvvvvvvvvvvvvvvvvvvvvvvvvvvvvvvvvvvvvvvvvvvvvvvvvvvvvvvvvvvvvvvvvvvvvvvvvv",
"vvvvvvvvvvvvvvvvvvvvvvvvvvvvvvvvvvvvvvvvvvvvvlpe877777777777777777778rahvvvvvvvvvvvvvvvvvvvvvvvvvvvvvvvvvvvvvvvvvvvvvvvvvvvvvvvvvvvvvvvvvvvvvvvvvvvvvv",
"vvvvvvvvvvvvvvvvvvvvvvvvvvvvvvvvvvvvw------#                              *8fvvvvvvvvvvvvvvvvvvvvvvvvvvvvvvvvvvvvvvvvvvvvvvvvvvvvvvvvvvvvvvvvvvvvvvvvv",
"vvvvvvvvvvvvvvvvvvvvvvvvvvvvvvvvvvvd          =<677777777777777777777>-O            O#&;67eaaaaaaaaaaaskvvvvvvvvvvvvvvvvvvvvvvvvvvvvvvvvvvvvvvvvvvvvvv",
"vvvvvvvvvvvvvvvvvvvvvvvvvvvvvvvvvvv7 <aaaaahvvvvvvvvvvvvvvvvvvvvvvvvvvvvvzy<@                            -svvvvvvvvvvvvvvvvvvvvvvvvvvvvvvvvvvvvvvvvvvv",
"vvvvvvvvvvvvvvvvvvvvvvvvvvvvvvvvvvv, rvvvvvvvvvvvvvvvvvvvvvvvvvvvvvvvvvvvvvvvvvvvvvvlhdi77<-----------*O   lvvvvvvvvvvvvvvvvvvvvvvvvvvvvvvvvvvvvvvvvvv",
"vvvvvvvvvvvvvvvvvvvvvvvvvvvvvvvvvvv= svvvvvvvvvvvvvvvvvvvvvvvvvvvvvvvvvvvvvvvvvvvvvvvvvvvvvvvvvvvvvvvvvvjO jvvvvvvvvvvvvvvvvvvvvvvvvvvvvvvvvvvvvvvvvvv",
"vvvvvvvvvvvvvvvvvvvvvvvvvvvvvvvvvvv& fvvvvvvvvvvvvvvvvvvvvvvvvvvvvvvvvvvvvvvvvvvvvvvvvvvvvvvvvvvvvvvvvvvv  vvvvvvvvvvvvvvvvvvvvvvvvvvvvvvvvvvvvvvvvvvv",
"vvvvvvvvvvvvvvvvvvvvvvvvvvvvvvvvvvv% hvvvvvvvvvvvvvvvvvvvvvvvvvvvvvvvvvvvvvvvvvvvvvvvvvvvvvvvvvvvvvvvvvvh #vvvvvvvvvvvvvvvvvvvvvvvvvvvvvvvvvvvvvvvvvvv",
"vvvvvvvvvvvvvvvvvvvvvvvvvvvvvvvvvvv@ jvvvvvvvvvvvvvvvvvvvvvvvvvvvvvvvvvvvvvvvvvvvvvvvvvvvvvvvvvvvvvvvvvvf &vvvvvvvvvvvvvvvvvvvvvvvvvvvvvvvvvvvvvvvvvvv",
"vvvvvvvvvvvvvvvvvvvvvvvvvvvvvvvvvvv  vvvvvvvvvvvvvvvvvvvvvvvvvvvvvvvvvvvvvvvvvvvvvvvvvvvvvvvvvvvvvvvvvvvg %vvvvvvvvvvvvvvvvvvvvvvvvvvvvvvvvvvvvvvvvvvv",
"vvvvvvvvvvvvvvvvvvvvvvvvvvvvvvvvvvj #vvvvvvvvvvvvvvvvvvvvvvvvvvvvvvvvvvvvvvvvvvvvvvvvvvvvvvvvvvvvvvvvvvvg %vvvvvvvvvvvvvvvvvvvvvvvvvvvvvvvvvvvvvvvvvvv",
"vvvvvvvvvvvvvvvvvvvvvvvvvvvvvvvvvvg &vvvvvvvvvvvvvvvvvvvvvvvvvvvvvvvvvvvvvvvvvvvvvvvvvvvvvvvvvvvvvvvvvvvh %vvvvvvvvvvvvvvvvvvvvvvvvvvvvvvvvvvvvvvvvvvv",
"vvvvvvvvvvvvvvvvvvvvvvvvvvvvvvvvvvd *vvvvvvvvvvvvvvvvvvvvvvvvvvvvvvvvvvvvvvvvvvvvvvvvvvvvvvvvvvvvvvvvvvvh %vvvvvvvvvvvvvvvvvvvvvvvvvvvvvvvvvvvvvvvvvvv",
"vvvvvvvvvvvvvvvvvvvvvvvvvvvvvvvvvvd $vvvvvvvvvvvvvvvvvvvvvvvvvvvvvvvvvvvvvvvvvvvvvvvvvvvvvvvvvvvvvvvvvvvh %vvvvvvvvvvvvvvvvvvvvvvvvvvvvvvvvvvvvvvvvvvv",
"vvvvvvvvvvvvvvvvvvvvvvvvvvvvvvvvvvco kvvvvvvvvvvvvvvvvvvvvvvvvvvvvvvvvvvvvvvvvvvvvvvvvvvvvvvvvvvvvvvvvvvh %vvvvvvvvvvvvvvvvvvvvvvvvvvvvvvvvvvvvvvvvvvv",
"vvvvvvvvvvvvvvvvvvvvvvvvvvvvvvvvvvv; :Ojvvvvvvvvvvvvvvvvvvvvvvvvvvvvvvvvvvvvvvvvvvvvvvvvvvvvvvvvvvvvvvvvh %vvvvvvvvvvvvvvvvvvvvvvvvvvvvvvvvvvvvvvvvvvv",
"vvvvvvvvvvvvvvvvvvvvvvvvvvvvvvvvvvv1   uvvvvvvvvvvvvvvvvvvvvvvvvvvvvvvvvvvvvvvvvvvvvvvvvvvvvvvvvvvvvvvvvh %vvvvvvvvvvvvvvvvvvvvvvvvvvvvvvvvvvvvvvvvvvv",
"vvvvvvvvvvvvvvvvvvvvvvvvvvvvvvvvvvv4   avvvvvvvvvvvvvvvvvvvvvvvvvvvvvvvvvvvvvvvvvvvvvvvvvvvvvvvvvvvvvvvvh %vvvvvvvvvvvvvvvvvvvvvvvvvvvvvvvvvvvvvvvvvvv",
"vvvvvvvvvvvvvvvvvvvvvvvvvvvvvvvvvvvy   hvvvvvvvvvvvvvvvvvvvvvvvvvvvvvvvvvvvvvvvvvvvvvvvvvvvvvvvvvvvvvvvvh %vvvvvvvvvvvvvvvvvvvvvvvvvvvvvvvvvvvvvvvvvvv",
"vvvvvvvvvvvvvvvvvvvvvvvvvvvvvvvvvvvvvO zvvvvvvvvvvvvvvvvvvvvvvvvvvvvvvvvvvvvvvvvvvvvvvvvvvvvvvvvvvvvvvvvh %vvvvvvvvvvvvvvvvvvvvvvvvvvvvvvvvvvvvvvvvvvv",
"vvvvvvvvvvvvvvvvvvvvvvvvvvvvvvvvvvvvvX vvvvvvvvvvvvvvvvvvvvvvvvvvvvvvvvvvvvvvvvvvvvvvvvvvvvvvvvvvvvvvvvvh %vvvvvvvvvvvvvvvvvvvvvvvvvvvvvvvvvvvvvvvvvvv",
"vvvvvvvvvvvvvvvvvvvvvvvvvvvvvvvvvvvvv  vvvvvvvvvvvvvvvvvvvvvvvvvvvvvvvvvvvvvvvvvvvvvvvvvvvvvvvvvvvvvvvvvg $vvvvvvvvvvvvvvvvvvvvvvvvvvvvvvvvvvvvvvvvvvv",
"vvvvvvvvvvvvvvvvvvvvvvvvvvvvvvvvvvvvv  vvvvvvvvvvvvvvvvvvvvvvvvvvvvvvvvvvvvvvvvvvvvvvvvvvvvvvvvvvvvvvvvvg %vvvvvvvvvvvvvvvvvvvvvvvvvvvvvvvvvvvvvvvvvvv",
"vvvvvvvvvvvvvvvvvvvvvvvvvvvvvvvvvvvvv  vvvvvvvvvvvvvvvvvvvvvvvvvvvvvvvvvvjjvvvvvvvvvvvvvvvvvvvvvvvvvvvvvg %vvvvvvvvvvvvvvvvvvvvvvvvvvvvvvvvvvvvvvvvvvv",
"vvvvvvvvvvvvvvvvvvvvvvvvvvvvvvvvvvvvv  vvvvvvvvvvvvvvvvvvvvvvvvvvvvvvvvvv##vvvvvvvvvvvvvvvvvvvvvvvvvvvvvg %vvvvvvvvvvvvvvvvvvvvvvvvvvvvvvvvvvvvvvvvvvv",
"vvvvvvvvvvvvvvvvvvvvvvvvvvvvvvvvvvvvc Xvvvvvvvvvvvvvvvvvvvvvvvvvvvvvvvvvv  vvvvvvvvvvvvvvvvvvvvvvvvvvvvvg $vvvvvvvvvvvvvvvvvvvvvvvvvvvvvvvvvvvvvvvvvvv",
"vvvvvvvvvvvvvvvvvvvvvvvvvvvvvvvvvvvvc Xvvvvvvvvvvvvvvvvvvvvvvvvvvvvvvvvvv  vvvvvvvvvvvvvvvvvvvvvvvvvvvvvg $vvvvvvvvvvvvvvvvvvvvvvvvvvvvvvvvvvvvvvvvvvv",
"vvvvvvvvvvvvvvvvvvvvvvvvvvvvvvvvvvvvx ovvvvvvvvvvvvvvvvvvvvvvvvvvvvvvvvvv  vvvvvvvvvvvvvvvvvvvvvvvvvvvvvg $vvvvvvvvvvvvvvvvvvvvvvvvvvvvvvvvvvvvvvvvvvv",
"vvvvvvvvvvvvvvvvvvvvvvvvvvvvvvvvvvvvx ovvvvvvvvvvvvvvvvvvvvvvvvvvvvvvvvvv  vvvvvvvvvvvvvvvvvvvvvvvvvvvvvh $vvvvvvvvvvvvvvvvvvvvvvvvvvvvvvvvvvvvvvvvvvv",
"vvvvvvvvvvvvvvvvvvvvvvvvvvvvvvvvvvvvx ovvvvvvvvvvvvvvvvvvvvvvvvvvvvvvvvvv  vvvvvvvvvvvvvvvvvvvvvvvvvvvvvh $vvvvvvvvvvvvvvvvvvvvvvvvvvvvvvvvvvvvvvvvvvv",
"vvvvvvvvvvvvvvvvvvvvvvvvvvvvvvvvvvvvx Xvvvvvvvvvvvvvvvvvvvvvvvvvvvvvvvvvv  vvvvvvvvvvvvvvvvvvvvvvvvvvvvvh $vvvvvvvvvvvvvvvvvvvvvvvvvvvvvvvvvvvvvvvvvvv",
"vvvvvvvvvvvvvvvvvvvvvvvvvvvvvvvvvvvvx ovvvvvvvvvvvvvvvvvvvvvvvvvvvvvvvvvv  vvvvvvvvvvvvvvvvvvvvvvvvvvvvvh #vvvvvvvvvvvvvvvvvvvvvvvvvvvvvvvvvvvvvvvvvvv",
"vvvvvvvvvvvvvvvvvvvvvvvvvvvvvvvvvvvvc ovvvvvvvvvvvvvvvvvvvvvvvvvvvvvvvvvv  vvvvvvvvvvvvvvvvvvvvvvvvvvvvvj #vvvvvvvvvvvvvvvvvvvvvvvvvvvvvvvvvvvvvvvvvvv",
"vvvvvvvvvvvvvvvvvvvvvvvvvvvvvvvvvvvvc ovvvvvvvvvvvvvvvvvvvvvvvvvvvvvvvvvv  vvvvvvvvvvvvvvvvvvvvvvvvvvvvvj $vvvvvvvvvvvvvvvvvvvvvvvvvvvvvvvvvvvvvvvvvvv",
"vvvvvvvvvvvvvvvvvvvvvvvvvvvvvvvvvvvvx Xvvvvvvvvvvvvvvvvvvvvvvvvvvvvvvvvvv  vvvvvvvvvvvvvvvvvvvvvvvvvvvvvj #vvvvvvvvvvvvvvvvvvvvvvvvvvvvvvvvvvvvvvvvvvv",
"vvvvvvvvvvvvvvvvvvvvvvvvvvvvvvvvvvvvx Xvvvvvvvvvvvvvvvvvvvvvvvvvvvvvvvvvv  vvvvvvvvvvvvvvvvvvvvvvvvvvvvvj @vvvvvvvvvvvvvvvvvvvvvvvvvvvvvvvvvvvvvvvvvvv",
"vvvvvvvvvvvvvvvvvvvvvvvvvvvvvvvvvvvvx Xvvvvvvvvvvvvvvvvvvvvvvvvvvvvvvvvvv  vvvvvvvvvvvvvvvvvvvvvvvvvvvvvk +vvvvvvvvvvvvvvvvirvvvvvvvvvvvvvvvvvvvvvvvvv",
"vvvvvvvvvvvvvvvvvvvvvvvvvvvvvvvvvvvvx Xvvvvvvvvvvvvvvvvvvvvvvvvvvvvvvvvvv  vvvvvvvvvvvvvvvvvvvvvvvvvvvvvz Xvvvvvvvvvvvvvvvv  hvvv37vvvvvvvvvvvvvvvvvvv",
"vvvvvvvvvvvvvvvvvvvvvvvvvvvvvvvvvvvvc ovvvvvvvvvvvvvvvvvvvvvvvvvvvvvvvvvv  vvvvvvvvvvvvvvvvvvvvvvvvvvvvvv  vvvvvvvvvvvvvvvvq5vvvv .vvvvvvvvvvvvvvvvvvv",
"vvvvvvvvvvvvvvvvvvvvvvvvvvvvvvvvvvvvx Xvvvvvvvvvvvvvvvvvvvvvvvvvvvvvvvvvv  vvvvvvvvvvvvvvvvvvvvvvvvvvvvvv# hvvvvvvvvvvvvvvvvvvvvvuavvvvvvvvvvvvvvvvvvv",
"vvvvvvvvvvvvvvvvvvvvvvvvvvvvvvvvvvvvc ovvvvvvvvvvvvvvvvvvvvvvvvvvvvvvvvvv  vvvvvvvvvvvvvvvvvvvvvvvvvvvvvv: yvvvvvvvvvvvvvvvvvvvvvvvvvvvvvvvvvvvvvvvvvv",
"vvvvvvvvvvvvvvvvvvvvvvvvvvvvvvvvvvvvx Xvvvvvvvvvvvvvvvvv1----------------  -------77aaaavvvvvvvvvvvvvvvvv7 5vvvvvvvvvvvk37vvvvvvvvvvvvvvvvvvvvvvvvvvvv",
"vvvvvvvvvvvvvvvvvvvvvvvvvvvvvvvvvvvvx ovvvvvvvvvvvvvvvvv*                               avvvvvvvvvvvvvvvvu -vvvvvvvvvvvj  uvvvvvvvvvvvvvvvvvvvvvvvvvvv",
"vvvvvvvvvvvvvvvvvvvvvvvvvvvvvvvvvvvvc ovvvvvvvvvvvvvvvvvhaaaaaaaaaaaaaaaa  aaaaaay77----xvvvvvvvvvvvvvvvvk ovvvvvvvvvvvv7 &vvvvvvvvvvvsxvvvvvvvvvvvvvv",
"vvvvvvvvvvvvvvvvvvvvvvvvvvvvvvvvvvvvx ovvvvvvvvvvvvvvvvvvvvvvvvvvvvvvvvvv  vvvvvvvvvvvvvvvvvvvvvvvvvvvvvvvO jvvvvvvvvvvvl$ 0vvvvvvvvvd -vvvvvvvvvvvvvv",
"vvvvvvvvvvvvvvvvvvvvvvvvvvvvvvvvvvvvc Xvvvvvvvvvvvvvvvvvvvvvvvvvvvvvvvvvv  vvvvvvvvvvvvvvvvvvvvvvvvvvvvvvv- avvvvvvvvvvvvw #vvvvvvvvv, ,vvvvvvvvvvvvvv",
"vvvvvvvvvvvvvvvvvvvvvvvvvvvvvvvvvvvvc  vvvvvvvvvvvvvvvvvvvvvvvvvvvvvvvvvv  vvvvvvvvvvvvvvvvvvvvvvvvvvvvvvv< tvvvvvvvvvvvvv& evvvvvvv7 Ogvvvvvvvvvvvvvv",
"vvvvvvvvvvvvvvvvvvvvvvvvvvvvvvvvvvvvv  vvvvvvvvvvvvvvvvvvvvvvvvvvvvvvvvvv  vvvvvvvvvvvvvvvvvvvvvvvvvvvvvvv2 wvvvvvvvvvvvvvu :vvvvvl3  qvvvvvvvvvvvvvvv",
"vvvvvvvvvvvvvvvvvvvvvvvvvvvvvvvvvvvvc Xvvvvvvvvvvvvvvvvvvvvvvvvvvvvvvvvvv  vvvvvvvvvvvvvvvvvvvvvvvvvvvvvvv3 wvvvvvvvvvvvvvl  7riw7o  avvvvvvvvvvvvvvvv",
"vvvvvvvvvvvvvvvvvvvvvvvvvvvvvvvvvvvvx ovvvvvvvvvvvvvvvvvvvvvvvvvvvvvvvvvv  vvvvvvvvvvvvvvvvvvvvvvvvvvvvvvv4 wvvvvvvvvvvvvvv9       <avvvvvvvvvvvvvvvvv",
"vvvvvvvvvvvvvvvvvvvvvvvvvvvvvvvvvvvvz Ovvvvvvvvvvvvvvvvvvvvvvvvvvvvvvvvvv  vvvvvvvvvvvvvvvvvvvvvvvvvvvvvvv3 wvvvvvvvvvvvvvvvi5:-<6ivvvvvvvvvvvvvvvvvvv",
"vvvvvvvvvvvvvvvvvvvvvvvvvvvvvvvvvvvvk @vvvvvvvvvvvvvvvvvvvvvvvvvvvvvvvvvv  vvvvvvvvvvvvvvvvvvvvvvvvvvvvvvv3 wvvvvvvvvvvvvvvvvvvvvvvvvvvvvvvvvvvvvvvvvv",
"vvvvvvvvvvvvvvvvvvvvvvvvvvvvvvvvvvvvh #vvvvvvvvvvvvvvvvvvvvvvvvvvvvvvvvvv  vvvvvvvvvvvvvvvvvvvvvvvvvvvvvvv4 qvvvvvvvvvvvvvvvvvvvvvvvvvvvvvvvvvvvvvvvvv",
"vvvvvvvvvvvvvvvvvvvvvvvvvvvvvvvvvvvvs *vvvvvvvvvvvvvvvvvvvvvvvvvvvvvvvvvv  vvvvvvvvvvvvvvvvvvvvvvvvvvvvvvv6 8vvvvvvvvvvvvvvvvvvvvvvvvvvvvvvvvvvvvvvvvv",
"vvvvvvvvvvvvvvvvvvvvvvvvvvvvvvvvvvvvt >vvvvvvvvvvvvvvvvvvvvvvvvvvvvvvvvvv  vvvvvvvvvvvvvvvvvvvvvvvvvvvvvvve 3vvvvvvvvvvvvvvvvvvvvvvvvvvvvvvvvvvvvvvvvv",
"vvvvvvvvvvvvvvvvvvvvvvvvvvvvvvvvvvvv2 7vvvvvvvvvvvvvvvvvvvvvvvvvvvvvvvvvv  vvvvvvvvvvvvvvvvvvvvvvvvvvvvvvvf &vvvvvvvvvvvvvvvvvvvvvvvvvvvvvvvvvvvvvvvvv",
"vvvvvvvvvvvvvvvvvvvvvvvvvvvvvvvvvvvvO svvvvvvvvvvvvvvvvvvvvvvvvvvvvvvvvvv  vvvvvvvvvvvvvvvvvvvvvvvvvvvvvvvvo lvvvvvvvvvvvvvvvvvvvvvvvvvvvvvvvvvvvvvvvv",
"vvvvvvvvvvvvvvvvvvvvvvvvvvvvvvvvvvvi #vvvvvvvvvvvvvvvvvvvvvvvvvvvvvvvvvvv  vvvvvvvvvvvvvvvvvvvvvvvvvvvvvvvv; ivvvvvvvvvvvvvvvvvvvvvvvvvvvvvvvvvvvvvvvv",
"vvvvvvvvvvvvvvvvvvvvvvvvvvvvvvvvvvv, 7vvvvvvvvvvvvvvvvvvvvvvvvvvvvvvvvvvv  vvvvvvvvvvvvvvvvvvvvvvvvvvvvvvvv4 qvvvvvvvvvvvvvvvvvvvvvvvvvvvvvvvvvvvvvvvv",
"vvvvvvvvvvvvvvvvvvvvvvvvvvvvvvvvvvvO hvvvvvvvvvvvvvvvvvvvvvvvvvvvvvvvvvvv  vvvvvvvvvvvvvvvvvvvvvvvvvvvvvvvv7 8vvvvvvvvvvvvvvvvvvvvvvvvvvvvvvvvvvvvvvvv",
"vvvvvvvvvvvvvvvvvvvvvvvvvvvvvvvvvvk Ovvvvvvvvvvvvvvvvvvvvvvvvvvvvvvvvvvv0 :vvvvvvvvvvvvvvvvvvvvvvvvvvvvvvvv8 7vvvvvvvvvvvvvvvvvvvvvvvvvvvvvvvvvvvvvvvv",
"vvvvvvvvvvvvvvvvvvvvvvvvvvvvvvvvvvp ;vvvvvvvvvvvvvvvvvvvvvvvvvvvvvvvvvvvi qvvvvvvvvvvvvvvvvvvvvvvvvvvvvvvvv8 7vvvvvvvvvvvvvvvvvvvvvvvvvvvvvvvvvvvvvvvv",
"vvvvvvvvvvvvvvvvvvvvvvvvvvvvvvvvvvq 3vvvvvvvvvvvvvvvvvvvvvvvvvvvvvvvvvvvvvvvvvvvvvvvvvvvvvvvvvvvvvvvvvvvvvv8 6vvvvvvvvvvvvvvvvvvvvvvvvvvvvvvvvvvvvvvvv",
"vvvvvvvvvvvvvvvvvvvvvvvvvvvvvvvvvv4 0vvvvvvvvvvvvvvvvvvvvvvvvvvvvvvvvvvvvvvvvvvvvvvvvvvvvvvvvvvvvvvvvvvvvvvq 4vvvvvvvvvvvvvvvvvvvvvvvvvvvvvvvvvvvvvvvv",
"vvvvvvvvvvvvvvvvvvvvvvvvvvvvvvvvvv; ivvvvvvvvvvvvvvvvvvvvvvvvvvvvvvvvvvvvvvvvvvvvvvvvvvvvvvvvvvvvvvvvvvvvvvu >vvvvvvvvvvvvvvvvvvvvvvvvvvvvvvvvvvvvvvvv",
"vvvvvvvvvvvvvvvvvvvvvvvvvvvvvvvvvv% gvvvvvvvvvvvvvvvvvvvvvvvvvvvvvvvvvvvvvvvvvvvvvvvvvvvvvvvvvvvvvvvvvvvvvvj +vvvvvvvvvvvvvvvvvvvvvvvvvvvvvvvvvvvvvvvv",
"vvvvvvvvvvvvvvvvvvvvvvvvvvvvvvvvvv  vvvvvvvvvvvvvvvvvvvvvvvvvvvvvvvvvvvvvvvvvvvvvvvvvvvvvvvvvvvvvvvvvvvvvvvvo kvvvvvvvvvvvvvvvvvvvvvvvvvvvvvvvvvvvvvvv",
"vvvvvvvvvvvvvvvvvvvvvvvvvvvvvvvvvj #vvvvvvvvvvvvvvvvvvvvvvvvvvvvvvvvvvvvvvvvvvvvvvvvvvvvvvvvvvvvvvvvvvvvvvvv; yvvvvvvvvvvvvvvvvvvvvvvvvvvvvvvvvvvvvvvv",
"vvvvvvvvvvvvvvvvvvvvvvvvvvvvvvvvvi ;vvvvvvvvvvvvvvvvvvvvvvvvvvvvvvvvvvvvvvvvvvvvvvvvvvvvvvvvvvvvvvvvvvvvvvvv8 4vvvvvvvvvvvvvvvvvvvvvvvvvvvvvvvvvvvvvvv",
"vvvvvvvvvvvvvvvvvvvvvvvvvvvvvvvvv0 4vvvvvvvvvvvvvvvvvvvvvvvvvvvvvvvvvvvvvvvvvvvvvvvvvvvvvvvvvvvvvvvvvvvvvvvva *vvvvvvvvvvvvvvvvvvvvvvvvvvvvvvvvvvvvvvv",
"vvvvvvvvvvvvvvvvvvvvvvvvvvvvvvvvv4 qvvvvvvvvvvvvvvvvvvvvvvvvvvvvvvvvvvvvvvvvvvvvvvvvvvvvvvvvvvvvvvvvvvvvvvvvc  xvvvvvvvvvvvvvvvvvvvvvvvvvvvvvvvvvvvvvv",
"vvvvvvvvvvvvvvvvvvvvvvvvvvvvvvvvv: yvvvvvvvvvvvvvvvvvvvvvvvvvvvvvvvvvvvvvvvvvvvvvvvvvvvvvvvvvvvvvvvvvvvvvvvvv* avvvvvvvvvvvvvvvvvvvvvvvvvvvvvvvvvvvvvv",
"vvvvvvvvvvvvvvvvvvvvvvvvvvvvvvvvv# hvvvvvvvvvvvvvvvvvvvvvvvvvvvvvvvvvvvvvvvvvvvvvvvvvvvvvvvvvvvvvvvvvvvvvvvvv3 qvvvvvvvvvvvvvvvvvvvvvvvvvvvvvvvvvvvvvv",
"vvvvvvvvvvvvvvvvvvvvvvvvvvvvvvvvvo xvvvvvvvvvvvvvvvvvvvvvvvvvvvvvvvvvvvvvvvvvvvvvvvvvvvvvvvvvvvvvvvvvvvvvvvvvq 4vvvvvvvvvvvvvvvvvvvvvvvvvvvvvvvvvvvvvv",
"vvvvvvvvvvvvvvvvvvvvvvvvvvvvvvvvv  vvvvvvvvvvvvvvvvvvvvvvvvvvvvvvvvvvvvvvvvvvvvvvvvvvvvvvvvvvvvvvvvvvvvvvvvvvu >vvvvvvvvvvvvvvvvvvvvvvvvvvvvvvvvvvvvvv",
"vvvvvvvvvvvvvvvvvvvvvvvvvvvvvvvvv Xvvvvvvvvvvvvvvvvvvvvvvvvvvvvvvvvvvvvvvvvvvvvvvvvvvvvvvvvvvvvvvvvvvvvvvvvvvr 2vvvvvvvvvvvvvvvvvvvvvvvvvvvvvvvvvvvvvv",
"vvvvvvvvvvvvvvvvvvvvvvvvvvvvvvvvv ovvvvvvvvvvvvvvvvvvvvvvvvvvvvvvvvvvvvvvvvvvvvvvvvvvvvvvvvvvvvvvvvvvvvvvvvvv2 7vvvvvvvvvvvvvvvvvvvvvvvvvvvvvvvvvvvvvv",
"vvvvvvvvvvvvvvvvvvvvvvvvvvvvvvvvv ovvvvvvvvvvvvvvvvvvvvvvvvvvvvvvvvvvvvvvvvvvvvvvvvvvvvvvvvvvvvvvvvvvvvvvvvv7  svvvvvvvvvvvvvvvvvvvvvvvvvvvvvvvvvvvvvv",
"vvvvvvvvvvvvvvvvvvvvvvvvvvvvvvvvv ovvvvvvvvvvvvvvvvvvvvvvvvvvvvvvvvvvvvvvvvvvvvvvvvvvvvvvvvvvvvvvvvvvvvvvvv2  9vvvvvvvvvvvvvvvvvvvvvvvvvvvvvvvvvvvvvvv",
"vvvvvvvvvvvvvvvvvvvvvvvvvvvvvvvvv +vvvvvvvvvvvvvvvvvvvvvvvvvvvvvvvvvvvvvvvvvvvvvvvvvvvvvvvvvvvvvvvvvvvvfu8% owvvvvvvvvvvvvvvvvvvvvvvvvvvvvvvvvvvvvvvvv",
"vvvvvvvvvvvvvvvvvvvvvvvvvvvvvvvvv                                                                          @svvvvvvvvvvvvvvvvvvvvvvvvvvvvvvvvvvvvvvvvv",
"vvvvvvvvvvvvvvvvvvvvvvvvvvvvvvvvvq                                                                     O-:yvvvvvvvvvvvvvvvvvvvvvvvvvvvvvvvvvvvvvvvvvvv",
"vvvvvvvvvvvvvvvvvvvvvvvvvvvvvvvvvvvvvvvvvvvvvvvvvvvvvvvvvvvvvvvvvvvvvvvvvvvvvvvvvvvvvvvvvvvvvvvvvvvvvvvvvvvvvvvvvvvvvvvvvvvvvvvvvvvvvvvvvvvvvvvvvvvvvv",
"vvvvvvvvvvvvvvvvvvvvvvvvvvvvvvvvvvvvvvvvvvvvvvvvvvvvvvvvvvvvvvvvvvvvvvvvvvvvvvvvvvvvvvvvvvvvvvvvvvvvvvvvvvvvvvvvvvvvvvvvvvvvvvvvvvvvvvvvvvvvvvvvvvvvvv",
"vvvvvvvvvvvvvvvvvvvvvvvvvvvvvvvvvvvvvvvvvvvvvvvvvvvvvvvvvvvvvvvvvvvvvvvvvvvvvvvvvvvvvvvvvvvvvvvvvvvvvvvvvvvvvvvvvvvvvvvvvvvvvvvvvvvvvvvvvvvvvvvvvvvvvv",
"vvvvvvvvvvvvvvvvvvvvvvvvvvvvvvvvvvvvvvvvvvvvvvvvvvvvvvvvvvvvvvvvvvvvvvvvvvvvvvvvvvvvvvvvvvvvvvvvvvvvvvvvvvvvvvvvvvvvvvvvvvvvvvvvvvvvvvvvvvvvvvvvvvvvvv",
"vvvvvvvvvvvvvvvvvvvvvvvvvvvvvvvvvvvvvvvvvvvvvvvvvvvvvvvvvvvvvvvvvvvvvvvvvvvvvvvvvvvvvvvvvvvvvvvvvvvvvvvvvvvvvvvvvvvvvvvvvvvvvvvvvvvvvvvvvvvvvvvvvvvvvv",
"vvvvvvvvvvvvvvvvvvvvvvvvvvvvvvvvvvvvvvvvvvvvvvvvvvvvvvvvvvvvvvvvvvvvvvvvvvvvvvvvvvvvvvvvvvvvvvvvvvvvvvvvvvvvvvvvvvvvvvvvvvvvvvvvvvvvvvvvvvvvvvvvvvvvvv",
"vvvvvvvvvvvvvvvvvvvvvvvvvvvvvvvvvvvvvvvvvvvvvvvvvvvvvvvvvvvvvvvvvvvvvvvvvvvvvvvvvvvvvvvvvvvvvvvvvvvvvvvvvvvvvvvvvvvvvvvvvvvvvvvvvvvvvvvvvvvvvvvvvvvvvv",
"vvvvvvvvvvvvvvvvvvvvvvvvvvvvvvvvvvvvvvvvvvvvvvvvvvvvvvvvvvvvvvvvvvvvvvvvvvvvvvvvvvvvvvvvvvvvvvvvvvvvvvvvvvvvvvvvvvvvvvvvvvvvvvvvvvvvvvvvvvvvvvvvvvvvvv",
"vvvvvvvvvvvvvvvvvvvvvvvvvvvvvvvvvvvvvvvvvvvvvvvvvvvvvvvvvvvvvvvvvvvvvvvvvvvvvvvvvvvvvvvvvvvvvvvvvvvvvvvvvvvvvvvvvvvvvvvvvvvvvvvvvvvvvvvvvvvvvvvvvvvvvv",
"vvvvvvvvvvvvvvvvvvvvvvvvvvvvvvvvvvvvvvvvvvvvvvvvvvvvvvvvvvvvvvvvvvvvvvvvvvvvvvvvvvvvvvvvvvvvvvvvvvvvvvvvvvvvvvvvvvvvvvvvvvvvvvvvvvvvvvvvvvvvvvvvvvvvvv",
"vvvvvvvvvvvvvvvvvvvvvvvvvvvvvvvglvvvvvvvvvvvvvvvvvvvvvvvvvvvvvvvvvvvvvvvvvvvvvvvvvvvvvvvvvvvvvvvvvvvvvvvvvvvvvvvvvvvvvvvvvvvvvvvvvvvvvvvvvvvvvvvvvvvvv",
"vvvvvvvvvvvvvvvvvvvvvvvvvvvvvvd :vvvvvvvvvvvvvvvvvvvvvvvvvvvvvvvvvvvvvvvvvvvvvvvvvvvvvvvvvvvvvvvvvvvvvvvvvvvvvvvvvvvvvvvvvvvvvvvvvvvvvvvvvvvvvvvvvvvvv",
"vvvvvvvvvvvvvvvvvvvv5#jvvvvvvva -vvvvvvvvvvvvvvvvvvvvvvvvvvvvvvvvvvvvvvvvvvvxasxvvvvvvvvvvvvvvvvvvrkvvvvvvvvxa762:177vvvvvvvvvvvvvvvvvvvvvvvvvvvvvvvvv",
"vvvvvvvvvvvvvvvvvvvv* dvvvvvvva -vvvvvvvvvvvvvvvvvvvvvvvvvvvvvvvvvvvvvvvgcy,X   1xvvvvvvvvvvvvvvve X4vvvvvvg%        vvvvvvvvvvvvvvvvvvvvvvvvvvvvvvvvv",
"vvvvvvvvvvvvvvvvvvvv@ jvvvvvvva -vvvvvvvhlvvvvvvvvvvvvvvvvvvgvvvvvvvvvvi +   &-o $kvvvvvvvvvvvvvvx=  @--773% :77ei077vvvvvvvvvvvvvvvvvvvvvvvvvvvvvvvvv",
"vvvvvvvvvvvvvvvvvvvvX xvvvvvvva -vvvvvvv* ;5uaaaay:------#   dvvvvvvvvvr  Xekvvs# >vvvvvvvvvvvvvvvw @       ,vvvvvvvvvvvvvvvvvvvvvvvvvvvvvvvvvvvvvvvvv",
"vvvvvvvvvvvvvvvvvvvk Ovvvvvvvva -vvvvvvv#                   2kvvvvvvvvv9  qvvvvvcX.lvvvvvvvvvvvvvv7 7kaar7qdvvvvvvvvvvvvvvvvvvvvvvvvvvvvvvvvvvvvvvvvvv",
"vvvvvvvvvvvvvvvvvvva *vvvvvvvva -vvvvvvvO q6-----7raaaaaaavvvvvvvvvvvvv2 &vvvvvvx+ fvvvvvvvvvvvvvv, yvvvvvvvvvvvvvvvvvvvvvvvvvvvvvvvvvvvvvvvvvvvvvvvvv",
"vvvvvvvvvvvvvvvvvvva -vvvvvvvva -vvvvvvv  vvvvvvvvvvvvvvvvvvvvvvvvvvvvv; 4vvvvvx= #vvvvvvvvvvvvvvv# hvvvvvvvvvvvvvvvvvvvvvvvvvvvvvvvvvvvvvvvvvvvvvvvvv",
"vvvvvvvvvvvvvvvvvvv0 1vvvvvvvva -vvvvvvv &vvvvvvvvvvvvvvvvvvvvvvvvvvvvv# 5vvvvf& Ogvvvvvvvvvvvvvvs *vvvvvvvvvvvvvvvvvvvvvvvvvvvvvvvvvvvvvvvvvvvvvvvvvv",
"vvvvvvvvvvvvvvvvvvv4 9vvvvvvvva -vvvvvvh -vvvvvvvvvvvvvvvvvvvvvvvvvvvvvX 7vvl2  *kvvvvvvvvvvvvvvv6 5vvvvvvvvvvvvvvvvvvvvvvvvvvvvvvvvvvvvvvvvvvvvvvvvvv",
"vvvvvvvvvvvvvvvvvvv> tvvvvvvvva -vvvvvvi -vvvvvvvvvvvvvvvvvvvvvvvvvvvvx  *-&. .5cvvvvvvvvvvvvvvvv* avvvvvvvvvvvvvvvvvvvvvvvvvvvvvvvvvvvvvvvvvvvvvvvvvv",
"vvvvvvvvvvvvvvvvvvv- avvvvva3-= -vvvvvvq 3vvvvvvvvvvvvvvvvvvvvvvvvvvvvj     X>gvvvvvvvvvvvvvvvvvv+ jvvvvvvvvvvvvvvvvvvvvvvvvvvvvvvvvvvvvvvvvvvvvvvvvvv",
"vvvvvvvvvvvvvvvvvvv- avu5>      -vvvvvv7 7vvvvvvvvvvvvvvvvvvvvvvvvvvvvd O$ ecvvvvvvvvvvvvvvvvvvvv  vvvvvvvvvvvvvvvvvvvvvvvvvvvvvvvvvvvvvvvvvvvvvvvvvvv",
"vvvvvvvvvvvvvvvvvvv- 6#    O4a0 -vvvvvv7 7vv7-   wvvvvvvvvvvvvvvvvvvvvq :, 0vvvvvvvvvvvvvvvvvvvvk Ovvi-- %vvvvvvvvvvvvvvvvvvvvvvvvvvvvvvvvvvvvvvvvvvvv",
"vvvvvvvvvvvvvvvvvvvO   %3wgvvva -vvvvvv7 7v1     wvvvvvvvvvvvvvvvvvvvv* 1t .yvvvvvvvvvvvvvvvvvvva -vvr   :vvvvvvvvvvvvvvvvvvvvvvvvvvvvvvvvvvvvvvvvvvvv",
"vvvvvvvvvvvvvvvvvvv  ,svvvvvvva -vvvvvv> yv74avvvvvvvvvvvvvvvvvvvvvvvvX 3v2  9vvvvvvvvvvvvvvvvvva -vvvvvvvvvvvvvvvvvvvvvvvvvvvvvvvvvvvvvvvvvvvvvvvvvvv",
"vvvvvvvvvvvvvvvvvvv  yvvvvvvvva -vvvvvv- avvvvvvvvvvvvvvvvvvvvvvvvvvvv  3vv7  3cvvvvvvvvvvvvvvvva -vvvvvvvvvvvvvvvvvvvvvvvvvvvvvvvvvvvvvvvvvvvvvvvvvvv",
"vvvvvvvvvvvvvvvvvvv  avvvvvvvva -vvvvvv- avvvvvvvvvvvvvvvvvvvvvvvvvvvv  9vvva+ :cvvvvvvvvvvvvvvva -vvvvvvvvvvr vvvvvvvvvvvvvvvvvvvvvvvvvvvvvvvvvvvvvvv",
"vvvvvvvvvvvvvvvvvvv*%gvvvvvvvva -vvvvvv- avvvvvvvvvvvvvvvvvvvvvvkvvvvv  dvvvvj# -zvvvvvvvvvvvvvva -vvdaaaaaay  vvvvvvvvvvvvvvvvvvvvvvvvvvvvvvvvvvvvvvv",
"vvvvvvvvvvvvvvvvvvvvvvvvvvvvvva -vvvvvv> --77ivvvvvvvclgsar771-- -vvvv .vvvvvvg+ +tvvvvvvvvvvvvva             4vvvvvvvvvvvvvvvvvvvvvvvvvvvvvvvvvvvvvvv",
"vvvvvvvvvvvvvvvvvvvvvvvvvvvvvva -vvvvvvg*      +%*o              &vvvv62vvvvvvvk&  :jvvvvvvvvvvvv,+  &-------5vvvvvvvvvvvvvvvvvvvvvvvvvvvvvvvvvvvvvvvv",
"vvvvvvvvvvvvvvvvvvvvvvvvvvvvvva -vvvvvvvvji77:        O$=->77wiahvvvvvvvvvvvvvvvc8X X6xvvvvvvvvvvvvvvvvvvvvvvvvvvvvvvvvvvvvvvvvvvvvvvvvvvvvvvvvvvvvvvv",
"vvvvvvvvvvvvvvvvvvvvvvvvvvvvvvg%7vvvvvvvvvvvvvvvvvvvvvvvvvvvvvvvvvvvvvvvvvvvvvvvvvj<  +6xvwogvvvvvvvvvvvvvvvvvvvvvvvvvvvvvvvvvvvvvvvvvvvvvvvvvvvvvvvvv",
"vvvvvvvvvvvvvvvvvvvvvvvvvvvvvvvvvvvvvvvvvvvvvvvvvvvvvvvvvvvvvvvvvvvvvvvvvvvvvvvvvvvvd-  Oq3 8vvvvvvvvvvvvvvvvvvvvvvvvvvvvvvvvvvvvvvvvvvvvvvvvvvvvvvvvv",
"vvvvvvvvvvvvvvvvvvvvvvvvvvvvvvvvvvvvvvvvvvvvvvvvvvvvvvvvvvvvvvvvvvvvvvvvvvvvvvvvvvvvvve#    %vvvvvvvvvvvvvvvvvvvvvvvvvvvvvvvvvvvvvvvvvvvvvvvvvvvvvvvvv",
"vvvvvvvvvvvvvvvvvvvvvvvvvvvvvvvvvvvvvvvvvvvvvvvvvvvvvvvvvvvvvvvvvvvvvvvvvvvvvvvvvvvvvvvvt&   cvvvvvvvvvvvvvvvvvvvvvvvvvvvvvvvvvvvvvvvvvvvvvvvvvvvvvvvv",
"vvvvvvvvvvvvvvvvvvvvvvvvvvvvvvvvvvvvvvvvvvvvvvvvvvvvvvvvvvvvvvvvvvvvvvvvvvvvvvvvvvvvvvvvvvvvvvvvvvvvvvvvvvvvvvvvvvvvvvvvvvvvvvvvvvvvvvvvvvvvvvvvvvvvvv",
"vvvvvvvvvvvvvvvvvvvvvvvvvvvvvvvvvvvvvvvvvvvvvvvvvvvvvvvvvvvvvvvvvvvvvvvvvvvvvvvvvvvvvvvvvvvvvvvvvvvvvvvvvvvvvvvvvvvvvvvvvvvvvvvvvvvvvvvvvvvvvvvvvvvvvv",
"vvvvvvvvvvvvvvvvvvvvvvvvvvvvvvvvvvvvvvvvvvvvvvvvvvvvvvvvvvvvvvvvvvvvvvvvvvvvvvvvvvvvvvvvvvvvvvvvvvvvvvvvvvvvvvvvvvvvvvvvvvvvvvvvvvvvvvvvvvvvvvvvvvvvvv",
"vvvvvvvvvvvvvvvvvvvvvvvvvvvvvvvvvvvvvvvvvvvvvvvvvvvvvvvvvvvvvvvvvvvvvvvvvvvvvvvvvvvvvvvvvvvvvvvvvvvvvvvvvvvvvvvvvvvvvvvvvvvvvvvvvvvvvvvvvvvvvvvvvvvvvv"
};
